;FLAVOR:UltiGCode
;TIME:9147
;MATERIAL:30255
;MATERIAL2:0
;POSTPROCESSED
;Generated with Cura_SteamEngine DEV
;LAYER_COUNT:15
;LAYER:0
G10
G0 X75.009 Y119.698 Z0.300
G0 X113.549 Y76.382
G0 X115.677 Y76.145
G0 X118.949 Y75.782
;TYPE:SKIRT
G11
G1 F1800.000 X118.949 Y191.781 E13.91988
G1 X118.909 Y192.399 E13.99420
G1 X118.790 Y193.007 E14.06854
G1 X118.593 Y193.594 E14.14284
G1 X118.323 Y194.151 E14.21712
G1 X117.983 Y194.669 E14.29147
G1 X117.579 Y195.139 E14.36585
G1 X117.118 Y195.552 E14.44012
G1 X116.608 Y195.903 E14.51441
G1 X116.057 Y196.186 E14.58874
G1 X115.474 Y196.395 E14.66306
G1 X114.868 Y196.527 E14.73749
G1 X114.149 Y196.581 E14.82401
G1 X25.649 Y196.581 E25.44401
G1 X25.031 Y196.541 E25.51833
G1 X24.423 Y196.422 E25.59267
G1 X23.836 Y196.225 E25.66697
G1 X23.279 Y195.955 E25.74125
G1 X22.761 Y195.615 E25.81560
G1 X22.291 Y195.211 E25.88998
G1 X21.878 Y194.750 E25.96425
G1 X21.527 Y194.240 E26.03854
G1 X21.244 Y193.689 E26.11288
G1 X21.035 Y193.106 E26.18719
G1 X20.903 Y192.500 E26.26162
G1 X20.849 Y191.781 E26.34814
G1 X20.849 Y75.782 E40.26802
G1 X20.889 Y75.164 E40.34234
G1 X21.008 Y74.556 E40.41668
G1 X21.205 Y73.969 E40.49098
G1 X21.475 Y73.412 E40.56526
G1 X21.815 Y72.894 E40.63962
G1 X22.219 Y72.424 E40.71399
G1 X22.680 Y72.011 E40.78826
G1 X23.190 Y71.660 E40.86256
G1 X23.741 Y71.377 E40.93689
G1 X24.324 Y71.168 E41.01121
G1 X24.930 Y71.036 E41.08563
G1 X25.649 Y70.982 E41.17215
G1 X114.149 Y70.982 E51.79215
G1 X114.767 Y71.022 E51.86647
G1 X115.375 Y71.141 E51.94081
G1 X115.962 Y71.338 E52.01512
G1 X116.519 Y71.608 E52.08939
G1 X117.037 Y71.948 E52.16375
G1 X117.507 Y72.352 E52.23812
G1 X117.920 Y72.813 E52.31239
G1 X118.271 Y73.323 E52.38669
G1 X118.554 Y73.874 E52.46102
G1 X118.763 Y74.457 E52.53534
G1 X118.895 Y75.063 E52.60976
G1 X118.949 Y75.782 E52.69629
G0 F9000.00000 X118.549 Y75.782
G1 F1800.000 X118.549 Y191.781 E66.61617
G1 X118.509 Y192.373 E66.68737
G1 X118.390 Y192.953 E66.75842
G1 X118.194 Y193.513 E66.82962
G1 X117.924 Y194.041 E66.90078
G1 X117.586 Y194.528 E66.97191
G1 X117.185 Y194.965 E67.04309
G1 X116.730 Y195.345 E67.11422
G1 X116.227 Y195.659 E67.18538
G1 X115.687 Y195.904 E67.25654
G1 X115.118 Y196.073 E67.32777
G1 X114.533 Y196.164 E67.39881
G1 X114.149 Y196.181 E67.44493
G1 X25.649 Y196.181 E78.06493
G1 X25.057 Y196.141 E78.13614
G1 X24.477 Y196.022 E78.20719
G1 X23.917 Y195.826 E78.27838
G1 X23.389 Y195.556 E78.34955
G1 X22.902 Y195.218 E78.42068
G1 X22.465 Y194.817 E78.49186
G1 X22.085 Y194.362 E78.56299
G1 X21.771 Y193.859 E78.63415
G1 X21.526 Y193.319 E78.70531
G1 X21.357 Y192.750 E78.77653
G1 X21.266 Y192.165 E78.84758
G1 X21.249 Y191.781 E78.89370
G1 X21.249 Y75.782 E92.81358
G1 X21.289 Y75.190 E92.88479
G1 X21.408 Y74.610 E92.95584
G1 X21.604 Y74.050 E93.02703
G1 X21.874 Y73.522 E93.09820
G1 X22.212 Y73.035 E93.16933
G1 X22.613 Y72.598 E93.24050
G1 X23.068 Y72.218 E93.31164
G1 X23.571 Y71.904 E93.38280
G1 X24.111 Y71.659 E93.45395
G1 X24.680 Y71.490 E93.52518
G1 X25.265 Y71.399 E93.59623
G1 X25.649 Y71.382 E93.64235
G1 X114.149 Y71.382 E104.26235
G1 X114.741 Y71.422 E104.33355
G1 X115.321 Y71.541 E104.40460
G1 X115.881 Y71.737 E104.47580
G1 X116.409 Y72.007 E104.54696
G1 X116.896 Y72.345 E104.61810
G1 X117.333 Y72.746 E104.68927
G1 X117.713 Y73.201 E104.76041
G1 X118.027 Y73.704 E104.83157
G1 X118.272 Y74.244 E104.90272
G1 X118.441 Y74.813 E104.97395
G1 X118.532 Y75.398 E105.04500
G1 X118.549 Y75.782 E105.09112
G0 F9000.00000 X118.149 Y75.782
G1 F1800.000 X118.149 Y191.781 E119.01100
G1 X118.109 Y192.345 E119.07885
G1 X117.990 Y192.898 E119.14673
G1 X117.794 Y193.428 E119.21454
G1 X117.526 Y193.925 E119.28230
G1 X117.190 Y194.380 E119.35017
G1 X116.793 Y194.783 E119.41806
G1 X116.343 Y195.125 E119.48588
G1 X115.850 Y195.401 E119.55368
G1 X115.322 Y195.605 E119.62161
G1 X114.772 Y195.732 E119.68934
G1 X114.149 Y195.781 E119.76433
G1 X25.649 Y195.781 E130.38433
G1 X25.085 Y195.741 E130.45218
G1 X24.532 Y195.622 E130.52006
G1 X24.002 Y195.426 E130.58787
G1 X23.505 Y195.158 E130.65563
G1 X23.050 Y194.822 E130.72350
G1 X22.647 Y194.425 E130.79139
G1 X22.305 Y193.975 E130.85921
G1 X22.029 Y193.482 E130.92701
G1 X21.825 Y192.954 E130.99494
G1 X21.698 Y192.404 E131.06268
G1 X21.649 Y191.781 E131.13767
G1 X21.649 Y75.782 E145.05755
G1 X21.689 Y75.218 E145.12540
G1 X21.808 Y74.665 E145.19328
G1 X22.004 Y74.135 E145.26109
G1 X22.272 Y73.638 E145.32884
G1 X22.608 Y73.183 E145.39672
G1 X23.005 Y72.780 E145.46460
G1 X23.455 Y72.438 E145.53243
G1 X23.948 Y72.162 E145.60023
G1 X24.476 Y71.958 E145.66815
G1 X25.026 Y71.831 E145.73589
G1 X25.649 Y71.782 E145.81088
G1 X114.149 Y71.782 E156.43088
G1 X114.713 Y71.822 E156.49873
G1 X115.266 Y71.941 E156.56661
G1 X115.796 Y72.137 E156.63442
G1 X116.293 Y72.405 E156.70218
G1 X116.748 Y72.741 E156.77005
G1 X117.151 Y73.138 E156.83793
G1 X117.493 Y73.588 E156.90576
G1 X117.769 Y74.081 E156.97356
G1 X117.973 Y74.609 E157.04148
G1 X118.100 Y75.159 E157.10922
G1 X118.149 Y75.782 E157.18421
G0 F9000.00000 X117.749 Y75.782
G1 F1800.000 X117.749 Y191.781 E171.10409
G1 X117.709 Y192.316 E171.16847
G1 X117.590 Y192.839 E171.23284
G1 X117.395 Y193.338 E171.29713
G1 X117.127 Y193.803 E171.36153
G1 X116.794 Y194.223 E171.42585
G1 X116.402 Y194.589 E171.49020
G1 X115.960 Y194.892 E171.55451
G1 X115.477 Y195.127 E171.61897
G1 X114.966 Y195.287 E171.68322
G1 X114.436 Y195.370 E171.74760
G1 X114.149 Y195.381 E171.78206
G1 X25.649 Y195.381 E182.40206
G1 X25.114 Y195.341 E182.46644
G1 X24.591 Y195.222 E182.53081
G1 X24.092 Y195.027 E182.59510
G1 X23.627 Y194.759 E182.65950
G1 X23.207 Y194.426 E182.72382
G1 X22.841 Y194.034 E182.78818
G1 X22.538 Y193.592 E182.85248
G1 X22.303 Y193.109 E182.91694
G1 X22.143 Y192.598 E182.98119
G1 X22.060 Y192.068 E183.04557
G1 X22.049 Y191.781 E183.08003
G1 X22.049 Y75.782 E196.99991
G1 X22.089 Y75.247 E197.06429
G1 X22.208 Y74.724 E197.12866
G1 X22.403 Y74.225 E197.19295
G1 X22.671 Y73.760 E197.25735
G1 X23.004 Y73.340 E197.32167
G1 X23.396 Y72.974 E197.38603
G1 X23.838 Y72.671 E197.45033
G1 X24.321 Y72.436 E197.51479
G1 X24.832 Y72.276 E197.57905
G1 X25.362 Y72.193 E197.64342
G1 X25.649 Y72.182 E197.67789
G1 X114.149 Y72.182 E208.29789
G1 X114.684 Y72.222 E208.36226
G1 X115.207 Y72.341 E208.42663
G1 X115.706 Y72.536 E208.49092
G1 X116.171 Y72.804 E208.55532
G1 X116.591 Y73.137 E208.61964
G1 X116.957 Y73.529 E208.68400
G1 X117.260 Y73.971 E208.74830
G1 X117.495 Y74.454 E208.81276
G1 X117.655 Y74.965 E208.87702
G1 X117.738 Y75.495 E208.94139
G1 X117.749 Y75.782 E208.97586
G0 F9000.00000 X117.349 Y75.782
G1 F1800.000 X117.349 Y191.781 E222.89574
G1 X117.309 Y192.285 E222.95641
G1 X117.190 Y192.776 E223.01703
G1 X116.996 Y193.243 E223.07772
G1 X116.730 Y193.673 E223.13839
G1 X116.400 Y194.056 E223.19906
G1 X116.013 Y194.382 E223.25978
G1 X115.580 Y194.643 E223.32045
G1 X115.112 Y194.833 E223.38106
G1 X114.619 Y194.946 E223.44175
G1 X114.149 Y194.981 E223.49831
G1 X25.649 Y194.981 E234.11831
G1 X25.145 Y194.941 E234.17898
G1 X24.654 Y194.822 E234.23961
G1 X24.187 Y194.628 E234.30029
G1 X23.757 Y194.362 E234.36096
G1 X23.374 Y194.032 E234.42163
G1 X23.048 Y193.645 E234.48235
G1 X22.787 Y193.212 E234.54302
G1 X22.597 Y192.744 E234.60363
G1 X22.484 Y192.251 E234.66433
G1 X22.449 Y191.781 E234.72088
G1 X22.449 Y75.782 E248.64076
G1 X22.489 Y75.278 E248.70143
G1 X22.608 Y74.787 E248.76206
G1 X22.802 Y74.320 E248.82274
G1 X23.068 Y73.890 E248.88342
G1 X23.398 Y73.507 E248.94409
G1 X23.785 Y73.181 E249.00481
G1 X24.218 Y72.920 E249.06548
G1 X24.686 Y72.730 E249.12609
G1 X25.179 Y72.617 E249.18678
G1 X25.649 Y72.582 E249.24334
G1 X114.149 Y72.582 E259.86334
G1 X114.653 Y72.622 E259.92401
G1 X115.144 Y72.741 E259.98463
G1 X115.611 Y72.935 E260.04532
G1 X116.041 Y73.201 E260.10599
G1 X116.424 Y73.531 E260.16666
G1 X116.750 Y73.918 E260.22738
G1 X117.011 Y74.351 E260.28805
G1 X117.201 Y74.819 E260.34866
G1 X117.314 Y75.312 E260.40936
G1 X117.349 Y75.782 E260.46591
G0 F9000.00000 X115.676 Y76.045
G0 X113.549 Y76.382
;TYPE:WALL-INNER
G1 F1800.000 X113.549 Y191.181 E274.24179
G1 X26.249 Y191.181 E284.71779
G1 X26.249 Y76.382 E298.49367
G1 X113.549 Y76.382 E308.96967
G0 F9000.00000 X113.949 Y75.982
;TYPE:WALL-OUTER
G1 F1800.000 X113.949 Y191.581 E322.84155
G1 X25.849 Y191.581 E333.41355
G1 X25.849 Y75.982 E347.28543
G1 X113.949 Y75.982 E357.85743
G0 F9000.00000 X113.149 Y76.782
;TYPE:SKIN
G1 F1800.000 X113.149 Y190.781 E371.53731
G1 X26.649 Y190.781 E381.91731
G1 X26.649 Y76.782 E395.59719
G1 X113.149 Y76.782 E405.97719
G0 F9000.00000 X112.749 Y77.182
G1 F1800.000 X112.749 Y190.381 E419.56107
G1 X27.049 Y190.381 E429.84507
G1 X27.049 Y77.182 E443.42895
G1 X112.749 Y77.182 E453.71295
G0 F9000.00000 X112.349 Y77.582
G1 F1800.000 X112.349 Y189.981 E467.20083
G1 X27.449 Y189.981 E477.38883
G1 X27.449 Y77.582 E490.87671
G1 X112.349 Y77.582 E501.06471
G0 F9000.00000 X111.949 Y77.982
G1 F1800.000 X111.949 Y189.581 E514.45659
G1 X27.849 Y189.581 E524.54859
G1 X27.849 Y77.982 E537.94047
G1 X111.949 Y77.982 E548.03247
G0 F9000.00000 X111.549 Y78.382
G1 F1800.000 X111.549 Y189.181 E561.32835
G1 X28.249 Y189.181 E571.32435
G1 X28.249 Y78.382 E584.62023
G1 X111.549 Y78.382 E594.61623
G0 F9000.00000 X111.149 Y78.782
G1 F1800.000 X111.149 Y188.781 E607.81611
G1 X28.649 Y188.781 E617.71611
G1 X28.649 Y78.782 E630.91599
G1 X111.149 Y78.782 E640.81599
G0 F9000.00000 X110.749 Y79.182
G1 F1800.000 X110.749 Y188.381 E653.91987
G1 X29.049 Y188.381 E663.72387
G1 X29.049 Y79.182 E676.82775
G1 X110.749 Y79.182 E686.63175
G0 F9000.00000 X110.349 Y79.582
G1 F1800.000 X110.349 Y187.981 E699.63963
G1 X29.449 Y187.981 E709.34763
G1 X29.449 Y79.582 E722.35551
G1 X110.349 Y79.582 E732.06351
G0 F9000.00000 X109.949 Y79.982
G1 F1800.000 X109.949 Y187.581 E744.97539
G1 X29.849 Y187.581 E754.58739
G1 X29.849 Y79.982 E767.49927
G1 X109.949 Y79.982 E777.11127
G0 F9000.00000 X109.549 Y80.382
G1 F1800.000 X109.549 Y187.181 E789.92715
G1 X30.249 Y187.181 E799.44315
G1 X30.249 Y80.382 E812.25903
G1 X109.549 Y80.382 E821.77503
G0 F9000.00000 X109.149 Y80.782
G1 F1800.000 X109.149 Y186.781 E834.49491
G1 X30.649 Y186.781 E843.91491
G1 X30.649 Y80.782 E856.63479
G1 X109.149 Y80.782 E866.05479
G0 F9000.00000 X108.749 Y81.182
G1 F1800.000 X108.749 Y186.381 E878.67867
G1 X31.049 Y186.381 E888.00267
G1 X31.049 Y81.182 E900.62655
G1 X108.749 Y81.182 E909.95055
G0 F9000.00000 X108.349 Y81.582
G1 F1800.000 X108.349 Y185.981 E922.47843
G1 X31.449 Y185.981 E931.70643
G1 X31.449 Y81.582 E944.23431
G1 X108.349 Y81.582 E953.46231
G0 F9000.00000 X107.949 Y81.982
G1 F1800.000 X107.949 Y185.581 E965.89419
G1 X31.849 Y185.581 E975.02619
G1 X31.849 Y81.982 E987.45807
G1 X107.949 Y81.982 E996.59007
G0 F9000.00000 X107.549 Y82.382
G1 F1800.000 X107.549 Y185.181 E1008.92595
G1 X32.249 Y185.181 E1017.96195
G1 X32.249 Y82.382 E1030.29783
G1 X107.549 Y82.382 E1039.33383
G0 F9000.00000 X107.149 Y82.782
G1 F1800.000 X107.149 Y184.781 E1051.57371
G1 X32.649 Y184.781 E1060.51371
G1 X32.649 Y82.782 E1072.75359
G1 X107.149 Y82.782 E1081.69359
G0 F9000.00000 X106.749 Y83.182
G1 F1800.000 X106.749 Y184.381 E1093.83747
G1 X33.049 Y184.381 E1102.68147
G1 X33.049 Y83.182 E1114.82535
G1 X106.749 Y83.182 E1123.66935
G0 F9000.00000 X106.349 Y83.582
G1 F1800.000 X106.349 Y183.981 E1135.71723
G1 X33.449 Y183.981 E1144.46523
G1 X33.449 Y83.582 E1156.51311
G1 X106.349 Y83.582 E1165.26111
G0 F9000.00000 X105.949 Y83.982
G1 F1800.000 X105.949 Y183.581 E1177.21299
G1 X33.849 Y183.581 E1185.86499
G1 X33.849 Y83.982 E1197.81687
G1 X105.949 Y83.982 E1206.46887
G0 F9000.00000 X105.549 Y84.382
G1 F1800.000 X105.549 Y183.181 E1218.32475
G1 X34.249 Y183.181 E1226.88075
G1 X34.249 Y84.382 E1238.73663
G1 X105.549 Y84.382 E1247.29263
G0 F9000.00000 X105.149 Y84.782
G1 F1800.000 X105.149 Y182.781 E1259.05251
G1 X34.649 Y182.781 E1267.51251
G1 X34.649 Y84.782 E1279.27239
G1 X105.149 Y84.782 E1287.73239
G0 F9000.00000 X104.749 Y85.182
G1 F1800.000 X104.749 Y182.381 E1299.39627
G1 X35.049 Y182.381 E1307.76027
G1 X35.049 Y85.182 E1319.42415
G1 X104.749 Y85.182 E1327.78815
G0 F9000.00000 X104.349 Y85.582
G1 F1800.000 X104.349 Y181.981 E1339.35603
G1 X35.449 Y181.981 E1347.62403
G1 X35.449 Y85.582 E1359.19191
G1 X104.349 Y85.582 E1367.45991
G0 F9000.00000 X103.949 Y85.982
G1 F1800.000 X103.949 Y181.581 E1378.93179
G1 X35.849 Y181.581 E1387.10379
G1 X35.849 Y85.982 E1398.57567
G1 X103.949 Y85.982 E1406.74767
G0 F9000.00000 X103.549 Y86.382
G1 F1800.000 X103.549 Y181.181 E1418.12355
G1 X36.249 Y181.181 E1426.19955
G1 X36.249 Y86.382 E1437.57543
G1 X103.549 Y86.382 E1445.65143
G0 F9000.00000 X103.149 Y86.782
G1 F1800.000 X103.149 Y180.781 E1456.93131
G1 X36.649 Y180.781 E1464.91131
G1 X36.649 Y86.782 E1476.19119
G1 X103.149 Y86.782 E1484.17119
G0 F9000.00000 X102.749 Y87.182
G1 F1800.000 X102.749 Y180.381 E1495.35507
G1 X37.049 Y180.381 E1503.23907
G1 X37.049 Y87.182 E1514.42295
G1 X102.749 Y87.182 E1522.30695
G0 F9000.00000 X102.349 Y87.582
G1 F1800.000 X102.349 Y179.981 E1533.39483
G1 X37.449 Y179.981 E1541.18283
G1 X37.449 Y87.582 E1552.27071
G1 X102.349 Y87.582 E1560.05871
G0 F9000.00000 X101.949 Y87.982
G1 F1800.000 X101.949 Y179.581 E1571.05059
G1 X37.849 Y179.581 E1578.74259
G1 X37.849 Y87.982 E1589.73447
G1 X101.949 Y87.982 E1597.42647
G0 F9000.00000 X101.549 Y88.382
G1 F1800.000 X101.549 Y179.181 E1608.32235
G1 X38.249 Y179.181 E1615.91835
G1 X38.249 Y88.382 E1626.81423
G1 X101.549 Y88.382 E1634.41023
G0 F9000.00000 X101.149 Y88.782
G1 F1800.000 X101.149 Y178.781 E1645.21011
G1 X38.649 Y178.781 E1652.71011
G1 X38.649 Y88.782 E1663.50999
G1 X101.149 Y88.782 E1671.00999
G0 F9000.00000 X100.749 Y89.182
G1 F1800.000 X100.749 Y178.381 E1681.71387
G1 X39.049 Y178.381 E1689.11787
G1 X39.049 Y89.182 E1699.82175
G1 X100.749 Y89.182 E1707.22575
G0 F9000.00000 X100.349 Y89.582
G1 F1800.000 X100.349 Y177.981 E1717.83363
G1 X39.449 Y177.981 E1725.14163
G1 X39.449 Y89.582 E1735.74951
G1 X100.349 Y89.582 E1743.05751
G0 F9000.00000 X99.949 Y89.982
G1 F1800.000 X99.949 Y177.581 E1753.56939
G1 X39.849 Y177.581 E1760.78139
G1 X39.849 Y89.982 E1771.29327
G1 X99.949 Y89.982 E1778.50527
G0 F9000.00000 X99.549 Y90.382
G1 F1800.000 X99.549 Y177.181 E1788.92115
G1 X40.249 Y177.181 E1796.03715
G1 X40.249 Y90.382 E1806.45303
G1 X99.549 Y90.382 E1813.56903
G0 F9000.00000 X99.149 Y90.782
G1 F1800.000 X99.149 Y176.781 E1823.88891
G1 X40.649 Y176.781 E1830.90891
G1 X40.649 Y90.782 E1841.22879
G1 X99.149 Y90.782 E1848.24879
G0 F9000.00000 X98.749 Y91.182
G1 F1800.000 X98.749 Y176.381 E1858.47267
G1 X41.049 Y176.381 E1865.39667
G1 X41.049 Y91.182 E1875.62055
G1 X98.749 Y91.182 E1882.54455
G0 F9000.00000 X98.349 Y91.582
G1 F1800.000 X98.349 Y175.981 E1892.67243
G1 X41.449 Y175.981 E1899.50043
G1 X41.449 Y91.582 E1909.62831
G1 X98.349 Y91.582 E1916.45631
G0 F9000.00000 X97.949 Y91.982
G1 F1800.000 X97.949 Y175.581 E1926.48819
G1 X41.849 Y175.581 E1933.22019
G1 X41.849 Y91.982 E1943.25207
G1 X97.949 Y91.982 E1949.98407
G0 F9000.00000 X97.549 Y92.382
G1 F1800.000 X97.549 Y175.181 E1959.91995
G1 X42.249 Y175.181 E1966.55595
G1 X42.249 Y92.382 E1976.49183
G1 X97.549 Y92.382 E1983.12783
G0 F9000.00000 X97.149 Y92.782
G1 F1800.000 X97.149 Y174.781 E1992.96771
G1 X42.649 Y174.781 E1999.50771
G1 X42.649 Y92.782 E2009.34759
G1 X97.149 Y92.782 E2015.88759
G0 F9000.00000 X96.749 Y93.182
G1 F1800.000 X96.749 Y174.381 E2025.63147
G1 X43.049 Y174.381 E2032.07547
G1 X43.049 Y93.182 E2041.81935
G1 X96.749 Y93.182 E2048.26335
G0 F9000.00000 X96.349 Y93.582
G1 F1800.000 X96.349 Y173.981 E2057.91123
G1 X43.449 Y173.981 E2064.25923
G1 X43.449 Y93.582 E2073.90711
G1 X96.349 Y93.582 E2080.25511
G0 F9000.00000 X95.949 Y93.982
G1 F1800.000 X95.949 Y173.581 E2089.80699
G1 X43.849 Y173.581 E2096.05899
G1 X43.849 Y93.982 E2105.61087
G1 X95.949 Y93.982 E2111.86287
G0 F9000.00000 X95.549 Y94.382
G1 F1800.000 X95.549 Y173.181 E2121.31875
G1 X44.249 Y173.181 E2127.47475
G1 X44.249 Y94.382 E2136.93063
G1 X95.549 Y94.382 E2143.08663
G0 F9000.00000 X95.149 Y94.782
G1 F1800.000 X95.149 Y172.781 E2152.44651
G1 X44.649 Y172.781 E2158.50651
G1 X44.649 Y94.782 E2167.86639
