;FLAVOR:UltiGCode
;TIME:14391
;MATERIAL:28870
;MATERIAL2:0
;POSTPROCESSED
;Generated with Cura_SteamEngine 1.99.0-dev.20151117
;LAYER_COUNT:29
;LAYER:0
M107
G0 F9000.000000 X71.491 Y17.349 Z0.200
G0 X74.932 Y14.807
;TYPE:SKIRT
G1 F1800.000 X163.431 Y14.807 E7.07992
G1 X163.966 Y14.847 E7.12284
G1 X164.489 Y14.966 E7.16575
G1 X164.988 Y15.161 E7.20861
G1 X165.453 Y15.429 E7.25154
G1 X165.873 Y15.762 E7.29442
G1 X166.239 Y16.154 E7.33733
G1 X166.542 Y16.596 E7.38020
G1 X166.777 Y17.079 E7.42317
G1 X166.937 Y17.590 E7.46601
G1 X167.020 Y18.120 E7.50892
G1 X167.031 Y18.407 E7.53190
G1 X167.031 Y134.406 E16.81182
G1 X166.991 Y134.941 E16.85474
G1 X166.872 Y135.464 E16.89765
G1 X166.677 Y135.963 E16.94051
G1 X166.409 Y136.428 E16.98345
G1 X166.076 Y136.848 E17.02633
G1 X165.684 Y137.214 E17.06923
G1 X165.242 Y137.517 E17.11210
G1 X164.759 Y137.752 E17.15507
G1 X164.248 Y137.912 E17.19791
G1 X163.718 Y137.995 E17.24082
G1 X163.431 Y138.006 E17.26380
G1 X74.932 Y138.006 E24.34372
G1 X74.397 Y137.966 E24.38664
G1 X73.874 Y137.847 E24.42955
G1 X73.375 Y137.652 E24.47241
G1 X72.910 Y137.384 E24.51535
G1 X72.490 Y137.051 E24.55823
G1 X72.124 Y136.659 E24.60113
G1 X71.821 Y136.217 E24.64400
G1 X71.586 Y135.734 E24.68697
G1 X71.426 Y135.223 E24.72981
G1 X71.343 Y134.693 E24.77273
G1 X71.332 Y134.406 E24.79570
G1 X71.332 Y18.407 E34.07562
G1 X71.372 Y17.872 E34.11854
G1 X71.491 Y17.349 E34.16145
G1 X71.686 Y16.850 E34.20431
G1 X71.954 Y16.385 E34.24725
G1 X72.287 Y15.965 E34.29013
G1 X72.679 Y15.599 E34.33303
G1 X73.121 Y15.296 E34.37590
G1 X73.604 Y15.061 E34.41887
G1 X74.115 Y14.901 E34.46171
G1 X74.645 Y14.818 E34.50463
G1 X74.932 Y14.807 E34.52760
G0 F9000.00000 X74.932 Y15.207
G1 F1800.000 X163.431 Y15.207 E41.60752
G1 X163.935 Y15.247 E41.64797
G1 X164.426 Y15.366 E41.68839
G1 X164.893 Y15.560 E41.72884
G1 X165.323 Y15.826 E41.76929
G1 X165.706 Y16.156 E41.80974
G1 X166.032 Y16.543 E41.85022
G1 X166.293 Y16.976 E41.89066
G1 X166.483 Y17.444 E41.93107
G1 X166.596 Y17.937 E41.97153
G1 X166.631 Y18.407 E42.00924
G1 X166.631 Y134.406 E51.28916
G1 X166.591 Y134.910 E51.32961
G1 X166.472 Y135.401 E51.37002
G1 X166.278 Y135.868 E51.41048
G1 X166.012 Y136.298 E51.45093
G1 X165.682 Y136.681 E51.49137
G1 X165.295 Y137.007 E51.53185
G1 X164.862 Y137.268 E51.57230
G1 X164.394 Y137.458 E51.61271
G1 X163.901 Y137.571 E51.65317
G1 X163.431 Y137.606 E51.69087
G1 X74.932 Y137.606 E58.77079
G1 X74.428 Y137.566 E58.81124
G1 X73.937 Y137.447 E58.85166
G1 X73.470 Y137.253 E58.89211
G1 X73.040 Y136.987 E58.93256
G1 X72.657 Y136.657 E58.97301
G1 X72.331 Y136.270 E59.01349
G1 X72.070 Y135.837 E59.05394
G1 X71.880 Y135.369 E59.09434
G1 X71.767 Y134.876 E59.13481
G1 X71.732 Y134.406 E59.17251
G1 X71.732 Y18.407 E68.45243
G1 X71.772 Y17.903 E68.49288
G1 X71.891 Y17.412 E68.53329
G1 X72.085 Y16.945 E68.57375
G1 X72.351 Y16.515 E68.61420
G1 X72.681 Y16.132 E68.65464
G1 X73.068 Y15.806 E68.69513
G1 X73.501 Y15.545 E68.73557
G1 X73.969 Y15.355 E68.77598
G1 X74.462 Y15.242 E68.81644
G1 X74.932 Y15.207 E68.85415
G10
G0 F9000.00000 X75.028 Y16.865
G0 X75.160 Y18.635
G0 X75.202 Y18.677
G0 X75.132 Y18.607
;TYPE:WALL-OUTER
G11
G1 F2400.000 X163.231 Y18.607 E75.90207
G1 X163.231 Y134.206 E85.14999
G1 X75.132 Y134.206 E92.19791
G1 X75.132 Y18.607 E101.44583
G0 F9000.00000 X75.375 Y18.806
;TYPE:SKIN
G1 F2400.000 X163.029 Y106.461 E111.36280
G0 F9000.00000 X163.029 Y107.026
G1 F2400.000 X75.331 Y19.328 E121.28470
G0 F9000.00000 X75.331 Y19.894
G1 F2400.000 X163.029 Y107.592 E131.20659
G0 F9000.00000 X163.029 Y108.158
G1 F2400.000 X75.331 Y20.460 E141.12849
G0 F9000.00000 X75.331 Y21.025
G1 F2400.000 X163.029 Y108.724 E151.05044
G0 F9000.00000 X163.029 Y109.289
G1 F2400.000 X75.331 Y21.591 E160.97234
G0 F9000.00000 X75.331 Y22.157
G1 F2400.000 X163.029 Y109.855 E170.89423
G0 F9000.00000 X163.029 Y110.421
G1 F2400.000 X75.331 Y22.722 E180.81619
G0 F9000.00000 X75.331 Y23.288
G1 F2400.000 X163.029 Y110.986 E190.73808
G0 F9000.00000 X163.029 Y111.552
G1 F2400.000 X75.331 Y23.854 E200.65998
G0 F9000.00000 X75.331 Y24.419
G1 F2400.000 X163.029 Y112.118 E210.58193
G0 F9000.00000 X163.029 Y112.683
G1 F2400.000 X75.331 Y24.985 E220.50383
G0 F9000.00000 X75.331 Y25.551
G1 F2400.000 X163.029 Y113.249 E230.42572
G0 F9000.00000 X163.029 Y113.815
G1 F2400.000 X75.331 Y26.116 E240.34768
G0 F9000.00000 X75.331 Y26.682
G1 F2400.000 X163.029 Y114.380 E250.26957
G0 F9000.00000 X163.029 Y114.946
G1 F2400.000 X75.331 Y27.248 E260.19147
G0 F9000.00000 X75.331 Y27.814
G1 F2400.000 X163.029 Y115.512 E270.11336
G0 F9000.00000 X163.029 Y116.077
G1 F2400.000 X75.331 Y28.379 E280.03526
G0 F9000.00000 X75.331 Y28.945
G1 F2400.000 X163.029 Y116.643 E289.95716
G0 F9000.00000 X163.029 Y117.209
G1 F2400.000 X75.331 Y29.511 E299.87905
G0 F9000.00000 X75.331 Y30.076
G1 F2400.000 X163.029 Y117.774 E309.80095
G0 F9000.00000 X163.029 Y118.340
G1 F2400.000 X75.331 Y30.642 E319.72284
G0 F9000.00000 X75.331 Y31.208
G1 F2400.000 X163.029 Y118.906 E329.64474
G0 F9000.00000 X163.029 Y119.472
G1 F2400.000 X75.331 Y31.773 E339.56669
G0 F9000.00000 X75.331 Y32.339
G1 F2400.000 X163.029 Y120.037 E349.48859
G0 F9000.00000 X163.029 Y120.603
G1 F2400.000 X75.331 Y32.905 E359.41049
G0 F9000.00000 X75.331 Y33.470
G1 F2400.000 X163.029 Y121.169 E369.33244
G0 F9000.00000 X163.029 Y121.734
G1 F2400.000 X75.331 Y34.036 E379.25433
G0 F9000.00000 X75.331 Y34.602
G1 F2400.000 X163.029 Y122.300 E389.17623
G0 F9000.00000 X163.029 Y122.866
G1 F2400.000 X75.331 Y35.167 E399.09818
G0 F9000.00000 X75.331 Y35.733
G1 F2400.000 X163.029 Y123.431 E409.02008
G0 F9000.00000 X163.029 Y123.997
G1 F2400.000 X75.331 Y36.299 E418.94198
G0 F9000.00000 X75.331 Y36.865
G1 F2400.000 X163.029 Y124.563 E428.86387
G0 F9000.00000 X163.029 Y125.128
G1 F2400.000 X75.331 Y37.430 E438.78577
G0 F9000.00000 X75.331 Y37.996
G1 F2400.000 X163.029 Y125.694 E448.70766
G0 F9000.00000 X163.029 Y126.260
G1 F2400.000 X75.331 Y38.562 E458.62956
G0 F9000.00000 X75.331 Y39.127
G1 F2400.000 X163.029 Y126.825 E468.55146
G0 F9000.00000 X163.029 Y127.391
G1 F2400.000 X75.331 Y39.693 E478.47335
G0 F9000.00000 X75.331 Y40.259
G1 F2400.000 X163.029 Y127.957 E488.39525
G0 F9000.00000 X163.029 Y128.523
G1 F2400.000 X75.331 Y40.824 E498.31720
G0 F9000.00000 X75.331 Y41.390
G1 F2400.000 X163.029 Y129.088 E508.23910
G0 F9000.00000 X163.029 Y129.654
G1 F2400.000 X75.331 Y41.956 E518.16099
G0 F9000.00000 X75.331 Y42.521
G1 F2400.000 X163.029 Y130.220 E528.08295
G0 F9000.00000 X163.029 Y130.785
G1 F2400.000 X75.331 Y43.087 E538.00484
G0 F9000.00000 X75.331 Y43.653
G1 F2400.000 X163.029 Y131.351 E547.92674
G0 F9000.00000 X163.029 Y131.917
G1 F2400.000 X75.331 Y44.218 E557.84869
G0 F9000.00000 X75.331 Y44.784
G1 F2400.000 X163.029 Y132.482 E567.77059
G0 F9000.00000 X163.029 Y133.048
G1 F2400.000 X75.331 Y45.350 E577.69248
G0 F9000.00000 X75.331 Y45.915
G1 F2400.000 X163.029 Y133.614 E587.61443
G0 F9000.00000 X162.855 Y134.005
G1 F2400.000 X75.331 Y46.481 E597.51665
G0 F9000.00000 X75.331 Y47.047
G1 F2400.000 X162.289 Y134.005 E607.35482
G0 F9000.00000 X161.723 Y134.005
G1 F2400.000 X75.331 Y47.613 E617.12896
G0 F9000.00000 X75.331 Y48.178
G1 F2400.000 X161.158 Y134.005 E626.83918
G0 F9000.00000 X160.592 Y134.005
G1 F2400.000 X75.331 Y48.744 E636.48536
G0 F9000.00000 X75.331 Y49.310
G1 F2400.000 X160.026 Y134.005 E646.06750
G0 F9000.00000 X159.461 Y134.005
G1 F2400.000 X75.331 Y49.875 E655.58572
G0 F9000.00000 X75.331 Y50.441
G1 F2400.000 X158.895 Y134.005 E665.03991
G0 F9000.00000 X158.329 Y134.005
G1 F2400.000 X75.331 Y51.007 E674.43006
G0 F9000.00000 X75.331 Y51.572
G1 F2400.000 X157.764 Y134.005 E683.75629
G0 F9000.00000 X157.198 Y134.005
G1 F2400.000 X75.331 Y52.138 E693.01849
G0 F9000.00000 X75.331 Y52.704
G1 F2400.000 X156.632 Y134.005 E702.21665
G0 F9000.00000 X156.066 Y134.005
G1 F2400.000 X75.331 Y53.269 E711.35082
G0 F9000.00000 X75.331 Y53.835
G1 F2400.000 X155.501 Y134.005 E720.42102
G0 F9000.00000 X154.935 Y134.005
G1 F2400.000 X75.331 Y54.401 E729.42719
G0 F9000.00000 X75.331 Y54.966
G1 F2400.000 X154.369 Y134.005 E738.36937
G0 F9000.00000 X153.804 Y134.005
G1 F2400.000 X75.331 Y55.532 E747.24758
G0 F9000.00000 X75.331 Y56.098
G1 F2400.000 X153.238 Y134.005 E756.06175
G0 F9000.00000 X152.672 Y134.005
G1 F2400.000 X75.331 Y56.664 E764.81189
G0 F9000.00000 X75.331 Y57.229
G1 F2400.000 X152.107 Y134.005 E773.49810
G0 F9000.00000 X151.541 Y134.005
G1 F2400.000 X75.331 Y57.795 E782.12028
G0 F9000.00000 X75.331 Y58.361
G1 F2400.000 X150.975 Y134.005 E790.67842
G0 F9000.00000 X150.410 Y134.005
G1 F2400.000 X75.331 Y58.926 E799.17264
G0 F9000.00000 X75.331 Y59.492
G1 F2400.000 X149.844 Y134.005 E807.60282
G0 F9000.00000 X149.278 Y134.005
G1 F2400.000 X75.331 Y60.058 E815.96897
G0 F9000.00000 X75.331 Y60.623
G1 F2400.000 X148.713 Y134.005 E824.27120
G0 F9000.00000 X148.147 Y134.005
G1 F2400.000 X75.331 Y61.189 E832.50939
G0 F9000.00000 X75.331 Y61.755
G1 F2400.000 X147.581 Y134.005 E840.68354
G0 F9000.00000 X147.015 Y134.005
G1 F2400.000 X75.331 Y62.320 E848.79371
G0 F9000.00000 X75.331 Y62.886
G1 F2400.000 X146.450 Y134.005 E856.83991
G0 F9000.00000 X145.884 Y134.005
G1 F2400.000 X75.331 Y63.452 E864.82207
G0 F9000.00000 X75.331 Y64.017
G1 F2400.000 X145.318 Y134.005 E872.74025
G0 F9000.00000 X144.753 Y134.005
G1 F2400.000 X75.331 Y64.583 E880.59446
G0 F9000.00000 X75.331 Y65.149
G1 F2400.000 X144.187 Y134.005 E888.38462
G0 F9000.00000 X143.621 Y134.005
G1 F2400.000 X75.331 Y65.714 E896.11081
G0 F9000.00000 X75.331 Y66.280
G1 F2400.000 X143.056 Y134.005 E903.77302
G0 F9000.00000 X142.490 Y134.005
G1 F2400.000 X75.331 Y66.846 E911.37119
G0 F9000.00000 X75.331 Y67.412
G1 F2400.000 X141.924 Y134.005 E918.90533
G0 F9000.00000 X141.359 Y134.005
G1 F2400.000 X75.331 Y67.977 E926.37555
G0 F9000.00000 X75.331 Y68.543
G1 F2400.000 X140.793 Y134.005 E933.78173
G0 F9000.00000 X140.227 Y134.005
G1 F2400.000 X75.331 Y69.109 E941.12387
G0 F9000.00000 X75.331 Y69.674
G1 F2400.000 X139.662 Y134.005 E948.40209
G0 F9000.00000 X139.096 Y134.005
G1 F2400.000 X75.331 Y70.240 E955.61628
G0 F9000.00000 X75.331 Y70.806
G1 F2400.000 X138.530 Y134.005 E962.76643
G0 F9000.00000 X137.965 Y134.005
G1 F2400.000 X75.331 Y71.371 E969.85266
G0 F9000.00000 X75.331 Y71.937
G1 F2400.000 X137.399 Y134.005 E976.87485
G0 F9000.00000 X136.833 Y134.005
G1 F2400.000 X75.331 Y72.503 E983.83301
G0 F9000.00000 X75.331 Y73.068
G1 F2400.000 X136.267 Y134.005 E990.72719
G0 F9000.00000 X135.702 Y134.005
G1 F2400.000 X75.331 Y73.634 E997.55739
G0 F9000.00000 X75.331 Y74.200
G1 F2400.000 X135.136 Y134.005 E1004.32355
G0 F9000.00000 X134.570 Y134.005
G1 F2400.000 X75.331 Y74.765 E1011.02573
G0 F9000.00000 X75.331 Y75.331
G1 F2400.000 X134.005 Y134.005 E1017.66394
G0 F9000.00000 X133.439 Y134.005
G1 F2400.000 X75.331 Y75.897 E1024.23811
G0 F9000.00000 X75.331 Y76.462
G1 F2400.000 X132.873 Y134.005 E1030.74830
G0 F9000.00000 X132.308 Y134.005
G1 F2400.000 X75.331 Y77.028 E1037.19451
G0 F9000.00000 X75.331 Y77.594
G1 F2400.000 X131.742 Y134.005 E1043.57669
G0 F9000.00000 X131.176 Y134.005
G1 F2400.000 X75.331 Y78.160 E1049.89483
G0 F9000.00000 X75.331 Y78.725
G1 F2400.000 X130.611 Y134.005 E1056.14904
G0 F9000.00000 X130.045 Y134.005
G1 F2400.000 X75.331 Y79.291 E1062.33923
G0 F9000.00000 X75.331 Y79.857
G1 F2400.000 X129.479 Y134.005 E1068.46537
G0 F9000.00000 X128.914 Y134.005
G1 F2400.000 X75.331 Y80.422 E1074.52760
G0 F9000.00000 X75.331 Y80.988
G1 F2400.000 X128.348 Y134.005 E1080.52579
G0 F9000.00000 X127.782 Y134.005
G1 F2400.000 X75.331 Y81.554 E1086.45994
G0 F9000.00000 X75.331 Y82.119
G1 F2400.000 X127.216 Y134.005 E1092.33011
G0 F9000.00000 X126.651 Y134.005
G1 F2400.000 X75.331 Y82.685 E1098.13631
G0 F9000.00000 X75.331 Y83.251
G1 F2400.000 X126.085 Y134.005 E1103.87847
G0 F9000.00000 X125.519 Y134.005
G1 F2400.000 X75.331 Y83.816 E1109.55665
G0 F9000.00000 X75.331 Y84.382
G1 F2400.000 X124.954 Y134.005 E1115.17085
G0 F9000.00000 X124.388 Y134.005
G1 F2400.000 X75.331 Y84.948 E1120.72102
G0 F9000.00000 X75.331 Y85.513
G1 F2400.000 X123.822 Y134.005 E1126.20720
G0 F9000.00000 X123.257 Y134.005
G1 F2400.000 X75.331 Y86.079 E1131.62941
G0 F9000.00000 X75.331 Y86.645
G1 F2400.000 X122.691 Y134.005 E1136.98759
G0 F9000.00000 X122.125 Y134.005
G1 F2400.000 X75.331 Y87.211 E1142.28172
G0 F9000.00000 X75.331 Y87.776
G1 F2400.000 X121.560 Y134.005 E1147.51194
G0 F9000.00000 X120.994 Y134.005
G1 F2400.000 X75.331 Y88.342 E1152.67811
G0 F9000.00000 X75.331 Y88.908
G1 F2400.000 X120.428 Y134.005 E1157.78026
G0 F9000.00000 X119.863 Y134.005
G1 F2400.000 X75.331 Y89.473 E1162.81848
G0 F9000.00000 X75.331 Y90.039
G1 F2400.000 X119.297 Y134.005 E1167.79266
G0 F9000.00000 X118.731 Y134.005
G1 F2400.000 X75.331 Y90.605 E1172.70281
G0 F9000.00000 X75.331 Y91.170
G1 F2400.000 X118.166 Y134.005 E1177.54904
G0 F9000.00000 X117.600 Y134.005
G1 F2400.000 X75.331 Y91.736 E1182.33123
G0 F9000.00000 X75.331 Y92.302
G1 F2400.000 X117.034 Y134.005 E1187.04939
G0 F9000.00000 X116.468 Y134.005
G1 F2400.000 X75.331 Y92.867 E1191.70356
G0 F9000.00000 X75.331 Y93.433
G1 F2400.000 X115.903 Y134.005 E1196.29376
G0 F9000.00000 X115.337 Y134.005
G1 F2400.000 X75.331 Y93.999 E1200.81992
G0 F9000.00000 X75.331 Y94.564
G1 F2400.000 X114.771 Y134.005 E1205.28211
G0 F9000.00000 X114.206 Y134.005
G1 F2400.000 X75.331 Y95.130 E1209.68031
G0 F9000.00000 X75.331 Y95.696
G1 F2400.000 X113.640 Y134.005 E1214.01448
G0 F9000.00000 X113.074 Y134.005
G1 F2400.000 X75.331 Y96.261 E1218.28467
G0 F9000.00000 X75.331 Y96.827
G1 F2400.000 X112.509 Y134.005 E1222.49088
G0 F9000.00000 X111.943 Y134.005
G1 F2400.000 X75.331 Y97.393 E1226.63306
G0 F9000.00000 X75.331 Y97.959
G1 F2400.000 X111.377 Y134.005 E1230.71119
G0 F9000.00000 X110.812 Y134.005
G1 F2400.000 X75.331 Y98.524 E1234.72541
G0 F9000.00000 X75.331 Y99.090
G1 F2400.000 X110.246 Y134.005 E1238.67559
G0 F9000.00000 X109.680 Y134.005
G1 F2400.000 X75.331 Y99.656 E1242.56174
G0 F9000.00000 X75.331 Y100.221
G1 F2400.000 X109.115 Y134.005 E1246.38396
G0 F9000.00000 X108.549 Y134.005
G1 F2400.000 X75.331 Y100.787 E1250.14215
G0 F9000.00000 X75.331 Y101.353
G1 F2400.000 X107.983 Y134.005 E1253.83630
G0 F9000.00000 X107.418 Y134.005
G1 F2400.000 X75.331 Y101.918 E1257.46653
G0 F9000.00000 X75.331 Y102.484
G1 F2400.000 X106.852 Y134.005 E1261.03273
G0 F9000.00000 X106.286 Y134.005
G1 F2400.000 X75.331 Y103.050 E1264.53488
G0 F9000.00000 X75.331 Y103.615
G1 F2400.000 X105.720 Y134.005 E1267.97306
G0 F9000.00000 X105.155 Y134.005
G1 F2400.000 X75.331 Y104.181 E1271.34726
G0 F9000.00000 X75.331 Y104.747
G1 F2400.000 X104.589 Y134.005 E1274.65743
G0 F9000.00000 X104.023 Y134.005
G1 F2400.000 X75.331 Y105.312 E1277.90361
G0 F9000.00000 X75.331 Y105.878
G1 F2400.000 X103.458 Y134.005 E1281.08582
G0 F9000.00000 X102.892 Y134.005
G1 F2400.000 X75.331 Y106.444 E1284.20399
G0 F9000.00000 X75.331 Y107.010
G1 F2400.000 X102.326 Y134.005 E1287.25813
G0 F9000.00000 X101.761 Y134.005
G1 F2400.000 X75.331 Y107.575 E1290.24834
G0 F9000.00000 X75.331 Y108.141
G1 F2400.000 X101.195 Y134.005 E1293.17452
G0 F9000.00000 X100.629 Y134.005
G1 F2400.000 X75.331 Y108.707 E1296.03666
G0 F9000.00000 X75.331 Y109.272
G1 F2400.000 X100.064 Y134.005 E1298.83488
G0 F9000.00000 X99.498 Y134.005
G1 F2400.000 X75.331 Y109.838 E1301.56906
G0 F9000.00000 X75.331 Y110.404
G1 F2400.000 X98.932 Y134.005 E1304.23921
G0 F9000.00000 X98.367 Y134.005
G1 F2400.000 X75.331 Y110.969 E1306.84544
G0 F9000.00000 X75.331 Y111.535
G1 F2400.000 X97.801 Y134.005 E1309.38763
G0 F9000.00000 X97.235 Y134.005
G1 F2400.000 X75.331 Y112.101 E1311.86578
G0 F9000.00000 X75.331 Y112.666
G1 F2400.000 X96.669 Y134.005 E1314.27996
G0 F9000.00000 X96.104 Y134.005
G1 F2400.000 X75.331 Y113.232 E1316.63016
G0 F9000.00000 X75.331 Y113.798
G1 F2400.000 X95.538 Y134.005 E1318.91632
G0 F9000.00000 X94.972 Y134.005
G1 F2400.000 X75.331 Y114.363 E1321.13850
G0 F9000.00000 X75.331 Y114.929
G1 F2400.000 X94.407 Y134.005 E1323.29670
G0 F9000.00000 X93.841 Y134.005
G1 F2400.000 X75.331 Y115.495 E1325.39087
G0 F9000.00000 X75.331 Y116.060
