;FLAVOR:UltiGCode
;TIME:8011
;MATERIAL:30256
;MATERIAL2:0
;POSTPROCESSED
;Generated with Cura_SteamEngine DEV
;LAYER_COUNT:15
;LAYER:0
G10
G0 X115.075 Y126.388 Z0.300
G0 X158.622 Y169.872
G0 X158.870 Y172.027
G0 X159.250 Y175.300
;TYPE:SKIRT
G11
G1 F1800.000 X70.750 Y175.300 E10.62000
G1 X70.132 Y175.260 E10.69432
G1 X69.524 Y175.141 E10.76866
G1 X68.937 Y174.944 E10.84296
G1 X68.380 Y174.674 E10.91724
G1 X67.862 Y174.334 E10.99159
G1 X67.392 Y173.930 E11.06597
G1 X66.979 Y173.469 E11.14024
G1 X66.628 Y172.959 E11.21453
G1 X66.345 Y172.408 E11.28886
G1 X66.136 Y171.825 E11.36318
G1 X66.004 Y171.219 E11.43761
G1 X65.950 Y170.500 E11.52413
G1 X65.950 Y54.500 E25.44413
G1 X65.990 Y53.882 E25.51845
G1 X66.109 Y53.274 E25.59279
G1 X66.306 Y52.687 E25.66709
G1 X66.576 Y52.130 E25.74137
G1 X66.916 Y51.612 E25.81572
G1 X67.320 Y51.142 E25.89010
G1 X67.781 Y50.729 E25.96437
G1 X68.291 Y50.378 E26.03866
G1 X68.842 Y50.095 E26.11300
G1 X69.425 Y49.886 E26.18731
G1 X70.031 Y49.754 E26.26174
G1 X70.750 Y49.700 E26.34826
G1 X159.250 Y49.700 E36.96826
G1 X159.868 Y49.740 E37.04258
G1 X160.476 Y49.859 E37.11692
G1 X161.063 Y50.056 E37.19122
G1 X161.620 Y50.326 E37.26550
G1 X162.138 Y50.666 E37.33986
G1 X162.608 Y51.070 E37.41423
G1 X163.021 Y51.531 E37.48850
G1 X163.372 Y52.041 E37.56280
G1 X163.655 Y52.592 E37.63713
G1 X163.864 Y53.175 E37.71145
G1 X163.996 Y53.781 E37.78587
G1 X164.050 Y54.500 E37.87239
G1 X164.050 Y170.500 E51.79239
G1 X164.010 Y171.118 E51.86671
G1 X163.891 Y171.726 E51.94105
G1 X163.694 Y172.313 E52.01536
G1 X163.424 Y172.870 E52.08963
G1 X163.084 Y173.388 E52.16399
G1 X162.680 Y173.858 E52.23836
G1 X162.219 Y174.271 E52.31263
G1 X161.709 Y174.622 E52.38693
G1 X161.158 Y174.905 E52.46126
G1 X160.575 Y175.114 E52.53558
G1 X159.969 Y175.246 E52.61000
G1 X159.250 Y175.300 E52.69653
G0 F9000.00000 X159.250 Y174.900
G1 F1800.000 X70.750 Y174.900 E63.31653
G1 X70.158 Y174.860 E63.38773
G1 X69.578 Y174.741 E63.45878
G1 X69.018 Y174.545 E63.52998
G1 X68.490 Y174.275 E63.60114
G1 X68.003 Y173.937 E63.67227
G1 X67.566 Y173.536 E63.74345
G1 X67.186 Y173.081 E63.81458
G1 X66.872 Y172.578 E63.88574
G1 X66.627 Y172.038 E63.95690
G1 X66.458 Y171.469 E64.02813
G1 X66.367 Y170.884 E64.09917
G1 X66.350 Y170.500 E64.14529
G1 X66.350 Y54.500 E78.06529
G1 X66.390 Y53.908 E78.13650
G1 X66.509 Y53.328 E78.20755
G1 X66.705 Y52.768 E78.27874
G1 X66.975 Y52.240 E78.34991
G1 X67.313 Y51.753 E78.42104
G1 X67.714 Y51.316 E78.49222
G1 X68.169 Y50.936 E78.56335
G1 X68.672 Y50.622 E78.63451
G1 X69.212 Y50.377 E78.70567
G1 X69.781 Y50.208 E78.77689
G1 X70.366 Y50.117 E78.84794
G1 X70.750 Y50.100 E78.89406
G1 X159.250 Y50.100 E89.51406
G1 X159.842 Y50.140 E89.58527
G1 X160.422 Y50.259 E89.65632
G1 X160.982 Y50.455 E89.72751
G1 X161.510 Y50.725 E89.79868
G1 X161.997 Y51.063 E89.86981
G1 X162.434 Y51.464 E89.94098
G1 X162.814 Y51.919 E90.01212
G1 X163.128 Y52.422 E90.08328
G1 X163.373 Y52.962 E90.15443
G1 X163.542 Y53.531 E90.22566
G1 X163.633 Y54.116 E90.29671
G1 X163.650 Y54.500 E90.34283
G1 X163.650 Y170.500 E104.26283
G1 X163.610 Y171.092 E104.33403
G1 X163.491 Y171.672 E104.40508
G1 X163.295 Y172.232 E104.47628
G1 X163.025 Y172.760 E104.54744
G1 X162.687 Y173.247 E104.61858
G1 X162.286 Y173.684 E104.68975
G1 X161.831 Y174.064 E104.76089
G1 X161.328 Y174.378 E104.83205
G1 X160.788 Y174.623 E104.90320
G1 X160.219 Y174.792 E104.97443
G1 X159.634 Y174.883 E105.04548
G1 X159.250 Y174.900 E105.09160
G0 F9000.00000 X159.250 Y174.500
G1 F1800.000 X70.750 Y174.500 E115.71160
G1 X70.186 Y174.460 E115.77945
G1 X69.633 Y174.341 E115.84733
G1 X69.103 Y174.145 E115.91514
G1 X68.606 Y173.877 E115.98290
G1 X68.151 Y173.541 E116.05077
G1 X67.748 Y173.144 E116.11866
G1 X67.406 Y172.694 E116.18648
G1 X67.130 Y172.201 E116.25428
G1 X66.926 Y171.673 E116.32221
G1 X66.799 Y171.123 E116.38994
G1 X66.750 Y170.500 E116.46493
G1 X66.750 Y54.500 E130.38493
G1 X66.790 Y53.936 E130.45278
G1 X66.909 Y53.383 E130.52066
G1 X67.105 Y52.853 E130.58847
G1 X67.373 Y52.356 E130.65623
G1 X67.709 Y51.901 E130.72410
G1 X68.106 Y51.498 E130.79199
G1 X68.556 Y51.156 E130.85981
G1 X69.049 Y50.880 E130.92761
G1 X69.577 Y50.676 E130.99554
G1 X70.127 Y50.549 E131.06328
G1 X70.750 Y50.500 E131.13827
G1 X159.250 Y50.500 E141.75827
G1 X159.814 Y50.540 E141.82612
G1 X160.367 Y50.659 E141.89400
G1 X160.897 Y50.855 E141.96181
G1 X161.394 Y51.123 E142.02956
G1 X161.849 Y51.459 E142.09744
G1 X162.252 Y51.856 E142.16532
G1 X162.594 Y52.306 E142.23315
G1 X162.870 Y52.799 E142.30095
G1 X163.074 Y53.327 E142.36887
G1 X163.201 Y53.877 E142.43661
G1 X163.250 Y54.500 E142.51160
G1 X163.250 Y170.500 E156.43160
G1 X163.210 Y171.064 E156.49945
G1 X163.091 Y171.617 E156.56733
G1 X162.895 Y172.147 E156.63514
G1 X162.627 Y172.644 E156.70290
G1 X162.291 Y173.099 E156.77077
G1 X161.894 Y173.502 E156.83865
G1 X161.444 Y173.844 E156.90648
G1 X160.951 Y174.120 E156.97428
G1 X160.423 Y174.324 E157.04220
G1 X159.873 Y174.451 E157.10994
G1 X159.250 Y174.500 E157.18493
G0 F9000.00000 X159.250 Y174.100
G1 F1800.000 X70.750 Y174.100 E167.80493
G1 X70.215 Y174.060 E167.86931
G1 X69.692 Y173.941 E167.93368
G1 X69.193 Y173.746 E167.99797
G1 X68.728 Y173.478 E168.06237
G1 X68.308 Y173.145 E168.12669
G1 X67.942 Y172.753 E168.19104
G1 X67.639 Y172.311 E168.25535
G1 X67.404 Y171.828 E168.31981
G1 X67.244 Y171.317 E168.38406
G1 X67.161 Y170.787 E168.44844
G1 X67.150 Y170.500 E168.48290
G1 X67.150 Y54.500 E182.40290
G1 X67.190 Y53.965 E182.46728
G1 X67.309 Y53.442 E182.53165
G1 X67.504 Y52.943 E182.59594
G1 X67.772 Y52.478 E182.66034
G1 X68.105 Y52.058 E182.72466
G1 X68.497 Y51.692 E182.78902
G1 X68.939 Y51.389 E182.85332
G1 X69.422 Y51.154 E182.91778
G1 X69.933 Y50.994 E182.98203
G1 X70.463 Y50.911 E183.04641
G1 X70.750 Y50.900 E183.08087
G1 X159.250 Y50.900 E193.70087
G1 X159.785 Y50.940 E193.76525
G1 X160.308 Y51.059 E193.82962
G1 X160.807 Y51.254 E193.89391
G1 X161.272 Y51.522 E193.95831
G1 X161.692 Y51.855 E194.02263
G1 X162.058 Y52.247 E194.08699
G1 X162.361 Y52.689 E194.15129
G1 X162.596 Y53.172 E194.21575
G1 X162.756 Y53.683 E194.28001
G1 X162.839 Y54.213 E194.34438
G1 X162.850 Y54.500 E194.37885
G1 X162.850 Y170.500 E208.29885
G1 X162.810 Y171.035 E208.36322
G1 X162.691 Y171.558 E208.42759
G1 X162.496 Y172.057 E208.49188
G1 X162.228 Y172.522 E208.55628
G1 X161.895 Y172.942 E208.62060
G1 X161.503 Y173.308 E208.68496
G1 X161.061 Y173.611 E208.74926
G1 X160.578 Y173.846 E208.81372
G1 X160.067 Y174.006 E208.87798
G1 X159.537 Y174.089 E208.94235
G1 X159.250 Y174.100 E208.97682
G0 F9000.00000 X159.250 Y173.700
G1 F1800.000 X70.750 Y173.700 E219.59682
G1 X70.246 Y173.660 E219.65749
G1 X69.755 Y173.541 E219.71811
G1 X69.288 Y173.347 E219.77880
G1 X68.858 Y173.081 E219.83947
G1 X68.475 Y172.751 E219.90014
G1 X68.149 Y172.364 E219.96086
G1 X67.888 Y171.931 E220.02153
G1 X67.698 Y171.463 E220.08214
G1 X67.585 Y170.970 E220.14283
G1 X67.550 Y170.500 E220.19939
G1 X67.550 Y54.500 E234.11939
G1 X67.590 Y53.996 E234.18006
G1 X67.709 Y53.505 E234.24069
G1 X67.903 Y53.038 E234.30137
G1 X68.169 Y52.608 E234.36204
G1 X68.499 Y52.225 E234.42271
G1 X68.886 Y51.899 E234.48343
G1 X69.319 Y51.638 E234.54410
G1 X69.787 Y51.448 E234.60471
G1 X70.280 Y51.335 E234.66541
G1 X70.750 Y51.300 E234.72196
G1 X159.250 Y51.300 E245.34196
G1 X159.754 Y51.340 E245.40263
G1 X160.245 Y51.459 E245.46326
G1 X160.712 Y51.653 E245.52394
G1 X161.142 Y51.919 E245.58462
G1 X161.525 Y52.249 E245.64529
G1 X161.851 Y52.636 E245.70601
G1 X162.112 Y53.069 E245.76668
G1 X162.302 Y53.537 E245.82729
G1 X162.415 Y54.030 E245.88798
G1 X162.450 Y54.500 E245.94454
G1 X162.450 Y170.500 E259.86454
G1 X162.410 Y171.004 E259.92521
G1 X162.291 Y171.495 E259.98583
G1 X162.097 Y171.962 E260.04652
G1 X161.831 Y172.392 E260.10719
G1 X161.501 Y172.775 E260.16786
G1 X161.114 Y173.101 E260.22858
G1 X160.681 Y173.362 E260.28925
G1 X160.213 Y173.552 E260.34986
G1 X159.720 Y173.665 E260.41056
G1 X159.250 Y173.700 E260.46711
G10
G0 F9000.00000 X158.974 Y172.028
G0 X158.622 Y169.872
G0 X158.580 Y169.830
G0 X158.650 Y169.900
;TYPE:WALL-INNER
G11
G1 F1800.000 X71.350 Y169.900 E270.94311
G1 X71.350 Y55.100 E284.71911
G1 X158.650 Y55.100 E295.19511
G1 X158.650 Y169.900 E308.97111
G0 F9000.00000 X159.050 Y170.300
;TYPE:WALL-OUTER
G1 F1800.000 X70.950 Y170.300 E319.54311
G1 X70.950 Y54.700 E333.41511
G1 X159.050 Y54.700 E343.98711
G1 X159.050 Y170.300 E357.85911
G0 F9000.00000 X158.250 Y169.500
;TYPE:SKIN
G1 F1800.000 X71.750 Y169.500 E368.23911
G1 X71.750 Y55.500 E381.91911
G1 X158.250 Y55.500 E392.29911
G1 X158.250 Y169.500 E405.97911
G0 F9000.00000 X157.850 Y169.100
G1 F1800.000 X72.150 Y169.100 E416.26311
G1 X72.150 Y55.900 E429.84711
G1 X157.850 Y55.900 E440.13111
G1 X157.850 Y169.100 E453.71511
G0 F9000.00000 X157.450 Y168.700
G1 F1800.000 X72.550 Y168.700 E463.90311
G1 X72.550 Y56.300 E477.39111
G1 X157.450 Y56.300 E487.57911
G1 X157.450 Y168.700 E501.06711
G0 F9000.00000 X157.050 Y168.300
G1 F1800.000 X72.950 Y168.300 E511.15911
G1 X72.950 Y56.700 E524.55111
G1 X157.050 Y56.700 E534.64311
G1 X157.050 Y168.300 E548.03511
G0 F9000.00000 X156.650 Y167.900
G1 F1800.000 X73.350 Y167.900 E558.03111
G1 X73.350 Y57.100 E571.32711
G1 X156.650 Y57.100 E581.32311
G1 X156.650 Y167.900 E594.61911
G0 F9000.00000 X156.250 Y167.500
G1 F1800.000 X73.750 Y167.500 E604.51911
G1 X73.750 Y57.500 E617.71911
G1 X156.250 Y57.500 E627.61911
G1 X156.250 Y167.500 E640.81911
G0 F9000.00000 X155.850 Y167.100
G1 F1800.000 X74.150 Y167.100 E650.62311
G1 X74.150 Y57.900 E663.72711
G1 X155.850 Y57.900 E673.53111
G1 X155.850 Y167.100 E686.63511
G0 F9000.00000 X155.450 Y166.700
G1 F1800.000 X74.550 Y166.700 E696.34311
G1 X74.550 Y58.300 E709.35111
G1 X155.450 Y58.300 E719.05911
G1 X155.450 Y166.700 E732.06711
G0 F9000.00000 X155.050 Y166.300
G1 F1800.000 X74.950 Y166.300 E741.67911
G1 X74.950 Y58.700 E754.59111
G1 X155.050 Y58.700 E764.20311
G1 X155.050 Y166.300 E777.11511
G0 F9000.00000 X154.650 Y165.900
G1 F1800.000 X75.350 Y165.900 E786.63111
G1 X75.350 Y59.100 E799.44711
G1 X154.650 Y59.100 E808.96311
G1 X154.650 Y165.900 E821.77911
G0 F9000.00000 X154.250 Y165.500
G1 F1800.000 X75.750 Y165.500 E831.19911
G1 X75.750 Y59.500 E843.91911
G1 X154.250 Y59.500 E853.33911
G1 X154.250 Y165.500 E866.05911
G0 F9000.00000 X153.850 Y165.100
G1 F1800.000 X76.150 Y165.100 E875.38311
G1 X76.150 Y59.900 E888.00711
G1 X153.850 Y59.900 E897.33111
G1 X153.850 Y165.100 E909.95511
G0 F9000.00000 X153.450 Y164.700
G1 F1800.000 X76.550 Y164.700 E919.18311
G1 X76.550 Y60.300 E931.71111
G1 X153.450 Y60.300 E940.93911
G1 X153.450 Y164.700 E953.46711
G0 F9000.00000 X153.050 Y164.300
G1 F1800.000 X76.950 Y164.300 E962.59911
G1 X76.950 Y60.700 E975.03111
G1 X153.050 Y60.700 E984.16311
G1 X153.050 Y164.300 E996.59511
G0 F9000.00000 X152.650 Y163.900
G1 F1800.000 X77.350 Y163.900 E1005.63111
G1 X77.350 Y61.100 E1017.96711
G1 X152.650 Y61.100 E1027.00311
G1 X152.650 Y163.900 E1039.33911
G0 F9000.00000 X152.250 Y163.500
G1 F1800.000 X77.750 Y163.500 E1048.27911
G1 X77.750 Y61.500 E1060.51911
G1 X152.250 Y61.500 E1069.45911
G1 X152.250 Y163.500 E1081.69911
G0 F9000.00000 X151.850 Y163.100
G1 F1800.000 X78.150 Y163.100 E1090.54311
G1 X78.150 Y61.900 E1102.68711
G1 X151.850 Y61.900 E1111.53111
G1 X151.850 Y163.100 E1123.67511
G0 F9000.00000 X151.450 Y162.700
G1 F1800.000 X78.550 Y162.700 E1132.42311
G1 X78.550 Y62.300 E1144.47111
G1 X151.450 Y62.300 E1153.21911
G1 X151.450 Y162.700 E1165.26711
G0 F9000.00000 X151.050 Y162.300
G1 F1800.000 X78.950 Y162.300 E1173.91911
G1 X78.950 Y62.700 E1185.87111
G1 X151.050 Y62.700 E1194.52311
G1 X151.050 Y162.300 E1206.47511
G0 F9000.00000 X150.650 Y161.900
G1 F1800.000 X79.350 Y161.900 E1215.03111
G1 X79.350 Y63.100 E1226.88711
G1 X150.650 Y63.100 E1235.44311
G1 X150.650 Y161.900 E1247.29911
G0 F9000.00000 X150.250 Y161.500
G1 F1800.000 X79.750 Y161.500 E1255.75911
G1 X79.750 Y63.500 E1267.51911
G1 X150.250 Y63.500 E1275.97911
G1 X150.250 Y161.500 E1287.73911
G0 F9000.00000 X149.850 Y161.100
G1 F1800.000 X80.150 Y161.100 E1296.10311
G1 X80.150 Y63.900 E1307.76711
G1 X149.850 Y63.900 E1316.13111
G1 X149.850 Y161.100 E1327.79511
G0 F9000.00000 X149.450 Y160.700
G1 F1800.000 X80.550 Y160.700 E1336.06311
G1 X80.550 Y64.300 E1347.63111
G1 X149.450 Y64.300 E1355.89911
G1 X149.450 Y160.700 E1367.46711
G0 F9000.00000 X149.050 Y160.300
G1 F1800.000 X80.950 Y160.300 E1375.63911
G1 X80.950 Y64.700 E1387.11111
G1 X149.050 Y64.700 E1395.28311
G1 X149.050 Y160.300 E1406.75511
G0 F9000.00000 X148.650 Y159.900
G1 F1800.000 X81.350 Y159.900 E1414.83111
G1 X81.350 Y65.100 E1426.20711
G1 X148.650 Y65.100 E1434.28311
G1 X148.650 Y159.900 E1445.65911
G0 F9000.00000 X148.250 Y159.500
G1 F1800.000 X81.750 Y159.500 E1453.63911
G1 X81.750 Y65.500 E1464.91911
G1 X148.250 Y65.500 E1472.89911
G1 X148.250 Y159.500 E1484.17911
G0 F9000.00000 X147.850 Y159.100
G1 F1800.000 X82.150 Y159.100 E1492.06311
G1 X82.150 Y65.900 E1503.24711
G1 X147.850 Y65.900 E1511.13111
G1 X147.850 Y159.100 E1522.31511
G0 F9000.00000 X147.450 Y158.700
G1 F1800.000 X82.550 Y158.700 E1530.10311
G1 X82.550 Y66.300 E1541.19111
G1 X147.450 Y66.300 E1548.97911
G1 X147.450 Y158.700 E1560.06711
G0 F9000.00000 X147.050 Y158.300
G1 F1800.000 X82.950 Y158.300 E1567.75911
G1 X82.950 Y66.700 E1578.75111
G1 X147.050 Y66.700 E1586.44311
G1 X147.050 Y158.300 E1597.43511
G0 F9000.00000 X146.650 Y157.900
G1 F1800.000 X83.350 Y157.900 E1605.03111
G1 X83.350 Y67.100 E1615.92711
G1 X146.650 Y67.100 E1623.52311
G1 X146.650 Y157.900 E1634.41911
G0 F9000.00000 X146.250 Y157.500
G1 F1800.000 X83.750 Y157.500 E1641.91911
G1 X83.750 Y67.500 E1652.71911
G1 X146.250 Y67.500 E1660.21911
G1 X146.250 Y157.500 E1671.01911
G0 F9000.00000 X145.850 Y157.100
G1 F1800.000 X84.150 Y157.100 E1678.42311
G1 X84.150 Y67.900 E1689.12711
G1 X145.850 Y67.900 E1696.53111
G1 X145.850 Y157.100 E1707.23511
G0 F9000.00000 X145.450 Y156.700
G1 F1800.000 X84.550 Y156.700 E1714.54311
G1 X84.550 Y68.300 E1725.15111
G1 X145.450 Y68.300 E1732.45911
G1 X145.450 Y156.700 E1743.06711
G0 F9000.00000 X145.050 Y156.300
G1 F1800.000 X84.950 Y156.300 E1750.27911
G1 X84.950 Y68.700 E1760.79111
G1 X145.050 Y68.700 E1768.00311
G1 X145.050 Y156.300 E1778.51511
G0 F9000.00000 X144.650 Y155.900
G1 F1800.000 X85.350 Y155.900 E1785.63111
G1 X85.350 Y69.100 E1796.04711
G1 X144.650 Y69.100 E1803.16311
G1 X144.650 Y155.900 E1813.57911
G0 F9000.00000 X144.250 Y155.500
G1 F1800.000 X85.750 Y155.500 E1820.59911
G1 X85.750 Y69.500 E1830.91911
G1 X144.250 Y69.500 E1837.93911
G1 X144.250 Y155.500 E1848.25911
G0 F9000.00000 X143.850 Y155.100
G1 F1800.000 X86.150 Y155.100 E1855.18311
G1 X86.150 Y69.900 E1865.40711
G1 X143.850 Y69.900 E1872.33111
G1 X143.850 Y155.100 E1882.55511
G0 F9000.00000 X143.450 Y154.700
G1 F1800.000 X86.550 Y154.700 E1889.38311
G1 X86.550 Y70.300 E1899.51111
G1 X143.450 Y70.300 E1906.33911
G1 X143.450 Y154.700 E1916.46711
G0 F9000.00000 X143.050 Y154.300
G1 F1800.000 X86.950 Y154.300 E1923.19911
G1 X86.950 Y70.700 E1933.23111
G1 X143.050 Y70.700 E1939.96311
G1 X143.050 Y154.300 E1949.99511
G0 F9000.00000 X142.650 Y153.900
G1 F1800.000 X87.350 Y153.900 E1956.63111
G1 X87.350 Y71.100 E1966.56711
G1 X142.650 Y71.100 E1973.20311
G1 X142.650 Y153.900 E1983.13911
G0 F9000.00000 X142.250 Y153.500
G1 F1800.000 X87.750 Y153.500 E1989.67911
G1 X87.750 Y71.500 E1999.51911
G1 X142.250 Y71.500 E2006.05911
G1 X142.250 Y153.500 E2015.89911
G0 F9000.00000 X141.850 Y153.100
G1 F1800.000 X88.150 Y153.100 E2022.34311
G1 X88.150 Y71.900 E2032.08711
G1 X141.850 Y71.900 E2038.53111
G1 X141.850 Y153.100 E2048.27511
G0 F9000.00000 X141.450 Y152.700
G1 F1800.000 X88.550 Y152.700 E2054.62311
G1 X88.550 Y72.300 E2064.27111
G1 X141.450 Y72.300 E2070.61911
G1 X141.450 Y152.700 E2080.26711
G0 F9000.00000 X141.050 Y152.300
G1 F1800.000 X88.950 Y152.300 E2086.51911
G1 X88.950 Y72.700 E2096.07111
G1 X141.050 Y72.700 E2102.32311
G1 X141.050 Y152.300 E2111.87511
G0 F9000.00000 X140.650 Y151.900
G1 F1800.000 X89.350 Y151.900 E2118.03111
G1 X89.350 Y73.100 E2127.48711
G1 X140.650 Y73.100 E2133.64311
G1 X140.650 Y151.900 E2143.09911
