;FLAVOR:UltiGCode
;TIME:17721
;MATERIAL:56018
;MATERIAL2:0
;POSTPROCESSED
;Generated with Cura_SteamEngine 1.99.0-dev.20151117
;LAYER_COUNT:258
;LAYER:0
M107
G0 F9000.000000 X67.675 Y52.117 Z0.300
G0 X70.707 Y50.800
;TYPE:SKIRT
G1 F1800.000 X159.042 Y50.800 E10.60020
G1 X159.748 Y50.810 E10.68493
G1 X159.905 Y50.817 E10.70379
G1 X160.222 Y50.846 E10.74199
G1 X160.244 Y50.849 E10.74465
G1 X160.255 Y50.851 E10.74599
G1 X160.405 Y50.882 E10.76437
G1 X160.704 Y50.959 E10.80142
G1 X160.757 Y50.974 E10.80803
G1 X160.888 Y51.024 E10.82486
G1 X161.199 Y51.159 E10.86554
G1 X161.203 Y51.160 E10.86604
G1 X161.231 Y51.175 E10.86985
G1 X161.333 Y51.234 E10.88399
G1 X161.622 Y51.418 E10.92510
G1 X161.623 Y51.419 E10.92527
G1 X161.630 Y51.424 E10.92630
G1 X161.779 Y51.545 E10.94934
G1 X162.003 Y51.743 E10.98521
G1 X162.029 Y51.769 E10.98963
G1 X162.109 Y51.858 E11.00399
G1 X162.328 Y52.125 E11.04543
G1 X162.337 Y52.136 E11.04713
G1 X162.348 Y52.151 E11.04936
G1 X162.425 Y52.271 E11.06647
G1 X162.599 Y52.569 E11.10788
G1 X162.604 Y52.577 E11.10901
G1 X162.665 Y52.717 E11.12734
G1 X162.790 Y53.037 E11.16857
G1 X162.797 Y53.058 E11.17122
G1 X162.828 Y53.178 E11.18609
G1 X162.890 Y53.465 E11.22133
G1 X162.938 Y53.981 E11.28352
G1 X162.939 Y54.000 E11.28580
G1 X162.947 Y54.247 E11.31546
G1 X162.949 Y54.406 E11.33454
G1 X162.949 Y170.293 E25.24098
G1 X162.939 Y170.999 E25.32571
G1 X162.932 Y171.156 E25.34456
G1 X162.903 Y171.470 E25.38240
G1 X162.900 Y171.495 E25.38543
G1 X162.899 Y171.504 E25.38651
G1 X162.870 Y171.643 E25.40355
G1 X162.788 Y171.961 E25.44296
G1 X162.779 Y171.995 E25.44718
G1 X162.776 Y172.005 E25.44843
G1 X162.725 Y172.139 E25.46564
G1 X162.599 Y172.431 E25.50380
G1 X162.589 Y172.454 E25.50681
G1 X162.574 Y172.482 E25.51062
G1 X162.515 Y172.584 E25.52476
G1 X162.331 Y172.873 E25.56588
G1 X162.325 Y172.882 E25.56717
G1 X162.204 Y173.030 E25.59011
G1 X162.009 Y173.251 E25.62548
G1 X161.980 Y173.280 E25.63040
G1 X161.896 Y173.356 E25.64400
G1 X161.609 Y173.591 E25.68851
G1 X161.607 Y173.593 E25.68885
G1 X161.597 Y173.599 E25.69025
G1 X161.478 Y173.676 E25.70726
G1 X161.175 Y173.853 E25.74937
G1 X161.165 Y173.858 E25.75071
G1 X161.032 Y173.916 E25.76812
G1 X160.712 Y174.041 E25.80934
G1 X160.710 Y174.042 E25.80961
G1 X160.691 Y174.048 E25.81200
G1 X160.571 Y174.079 E25.82688
G1 X160.284 Y174.141 E25.86211
G1 X159.768 Y174.189 E25.92430
G1 X159.748 Y174.190 E25.92670
G1 X159.502 Y174.198 E25.95624
G1 X159.292 Y174.200 E25.98144
G1 X70.957 Y174.200 E36.58164
G1 X70.251 Y174.190 E36.66637
G1 X70.094 Y174.183 E36.68522
G1 X69.777 Y174.154 E36.72342
G1 X69.755 Y174.151 E36.72609
G1 X69.744 Y174.149 E36.72743
G1 X69.594 Y174.118 E36.74581
G1 X69.289 Y174.039 E36.78362
G1 X69.242 Y174.026 E36.78947
G1 X69.109 Y173.975 E36.80656
G1 X68.800 Y173.841 E36.84698
G1 X68.796 Y173.840 E36.84747
G1 X68.768 Y173.825 E36.85129
G1 X68.666 Y173.766 E36.86543
G1 X68.376 Y173.581 E36.90670
G1 X68.365 Y173.573 E36.90834
G1 X68.361 Y173.570 E36.90894
G1 X68.220 Y173.455 E36.93077
G1 X67.993 Y173.254 E36.96715
G1 X67.970 Y173.231 E36.97106
G1 X67.889 Y173.141 E36.98559
G1 X67.659 Y172.860 E37.02916
G1 X67.651 Y172.849 E37.03079
G1 X67.651 Y172.848 E37.03091
G1 X67.574 Y172.729 E37.04792
G1 X67.397 Y172.426 E37.09003
G1 X67.391 Y172.414 E37.09164
G1 X67.334 Y172.283 E37.10879
G1 X67.208 Y171.960 E37.15039
G1 X67.202 Y171.942 E37.15267
G1 X67.171 Y171.822 E37.16754
G1 X67.109 Y171.535 E37.20278
G1 X67.061 Y171.019 E37.26496
G1 X67.060 Y170.999 E37.26737
G1 X67.052 Y170.753 E37.29690
G1 X67.050 Y170.543 E37.32210
G1 X67.050 Y54.707 E51.22242
G1 X67.060 Y54.000 E51.30727
G1 X67.067 Y53.836 E51.32697
G1 X67.096 Y53.527 E51.36421
G1 X67.100 Y53.496 E51.36796
G1 X67.101 Y53.494 E51.36823
G1 X67.132 Y53.344 E51.38661
G1 X67.211 Y53.037 E51.42465
G1 X67.224 Y52.992 E51.43027
G1 X67.274 Y52.861 E51.44710
G1 X67.410 Y52.547 E51.48816
G1 X67.425 Y52.518 E51.49208
G1 X67.484 Y52.416 E51.50622
G1 X67.675 Y52.117 E51.54879
G1 X67.676 Y52.116 E51.54896
G1 X67.795 Y51.970 E51.57157
G1 X67.993 Y51.746 E51.60744
G1 X68.020 Y51.719 E51.61202
G1 X68.110 Y51.638 E51.62655
G1 X68.390 Y51.409 E51.66996
G1 X68.392 Y51.407 E51.67030
G1 X68.402 Y51.401 E51.67170
G1 X68.521 Y51.324 E51.68871
G1 X68.824 Y51.147 E51.73082
G1 X68.839 Y51.140 E51.73280
G1 X68.967 Y51.084 E51.74957
G1 X69.290 Y50.958 E51.79117
G1 X69.308 Y50.952 E51.79345
G1 X69.428 Y50.921 E51.80832
G1 X69.715 Y50.859 E51.84356
G1 X70.231 Y50.811 E51.90575
G1 X70.251 Y50.810 E51.90815
G1 X70.497 Y50.802 E51.93768
G1 X70.707 Y50.800 E51.96289
G10
G0 F9000.00000 X70.707 Y52.460
G0 X70.707 Y54.240
G0 X70.520 Y54.270
G0 X70.450 Y54.200
;TYPE:WALL-OUTER
G11
G1 F3000.000 X159.549 Y54.200 E62.65477
G1 X159.549 Y170.800 E76.64677
G1 X70.450 Y170.800 E87.33865
G1 X70.450 Y54.200 E101.33065
G0 F9000.00000 X70.850 Y54.600
;TYPE:SKIN
G1 F3000.000 X159.149 Y54.600 E111.92653
G1 X159.149 Y170.400 E125.82253
G1 X70.850 Y170.400 E136.41841
G1 X70.850 Y54.600 E150.31441
G0 F9000.00000 X71.250 Y55.000
G1 F3000.000 X158.749 Y55.000 E160.81429
G1 X158.749 Y170.000 E174.61429
G1 X71.250 Y170.000 E185.11417
G1 X71.250 Y55.000 E198.91417
G0 F9000.00000 X71.650 Y55.400
G1 F3000.000 X158.349 Y55.400 E209.31805
G1 X158.349 Y169.600 E223.02205
G1 X71.650 Y169.600 E233.42593
G1 X71.650 Y55.400 E247.12993
G0 F9000.00000 X72.050 Y55.800
G1 F3000.000 X157.949 Y55.800 E257.43781
G1 X157.949 Y169.200 E271.04581
G1 X72.050 Y169.200 E281.35369
G1 X72.050 Y55.800 E294.96169
G0 F9000.00000 X72.450 Y56.200
G1 F3000.000 X157.549 Y56.200 E305.17357
G1 X157.549 Y168.800 E318.68557
G1 X72.450 Y168.800 E328.89745
G1 X72.450 Y56.200 E342.40945
G0 F9000.00000 X72.850 Y56.600
G1 F3000.000 X157.149 Y56.600 E352.52533
G1 X157.149 Y168.400 E365.94133
G1 X72.850 Y168.400 E376.05721
G1 X72.850 Y56.600 E389.47321
G0 F9000.00000 X73.250 Y57.000
G1 F3000.000 X156.749 Y57.000 E399.49309
G1 X156.749 Y168.000 E412.81309
G1 X73.250 Y168.000 E422.83297
G1 X73.250 Y57.000 E436.15297
G0 F9000.00000 X73.650 Y57.400
G1 F3000.000 X156.349 Y57.400 E446.07685
G1 X156.349 Y167.600 E459.30085
G1 X73.650 Y167.600 E469.22473
G1 X73.650 Y57.400 E482.44873
G0 F9000.00000 X74.050 Y57.800
G1 F3000.000 X155.949 Y57.800 E492.27661
G1 X155.949 Y167.200 E505.40461
G1 X74.050 Y167.200 E515.23249
G1 X74.050 Y57.800 E528.36049
G0 F9000.00000 X74.450 Y58.200
G1 F3000.000 X155.549 Y58.200 E538.09237
G1 X155.549 Y166.800 E551.12437
G1 X74.450 Y166.800 E560.85625
G1 X74.450 Y58.200 E573.88825
G0 F9000.00000 X74.850 Y58.600
G1 F3000.000 X155.149 Y58.600 E583.52413
G1 X155.149 Y166.400 E596.46013
G1 X74.850 Y166.400 E606.09601
G1 X74.850 Y58.600 E619.03201
G0 F9000.00000 X75.250 Y59.000
G1 F3000.000 X154.749 Y59.000 E628.57189
G1 X154.749 Y166.000 E641.41189
G1 X75.250 Y166.000 E650.95177
G1 X75.250 Y59.000 E663.79177
G0 F9000.00000 X75.650 Y59.400
G1 F3000.000 X154.349 Y59.400 E673.23565
G1 X154.349 Y165.600 E685.97965
G1 X75.650 Y165.600 E695.42353
G1 X75.650 Y59.400 E708.16753
G0 F9000.00000 X76.050 Y59.800
G1 F3000.000 X153.949 Y59.800 E717.51541
G1 X153.949 Y165.200 E730.16341
G1 X76.050 Y165.200 E739.51129
G1 X76.050 Y59.800 E752.15929
G0 F9000.00000 X76.450 Y60.200
G1 F3000.000 X153.549 Y60.200 E761.41117
G1 X153.549 Y164.800 E773.96317
G1 X76.450 Y164.800 E783.21505
G1 X76.450 Y60.200 E795.76705
G0 F9000.00000 X76.850 Y60.600
G1 F3000.000 X153.149 Y60.600 E804.92293
G1 X153.149 Y164.400 E817.37893
G1 X76.850 Y164.400 E826.53481
G1 X76.850 Y60.600 E838.99081
G0 F9000.00000 X77.250 Y61.000
G1 F3000.000 X152.749 Y61.000 E848.05069
G1 X152.749 Y164.000 E860.41069
G1 X77.250 Y164.000 E869.47057
G1 X77.250 Y61.000 E881.83057
G0 F9000.00000 X77.650 Y61.400
G1 F3000.000 X152.349 Y61.400 E890.79445
G1 X152.349 Y163.600 E903.05845
G1 X77.650 Y163.600 E912.02233
G1 X77.650 Y61.400 E924.28633
G0 F9000.00000 X78.050 Y61.800
G1 F3000.000 X151.949 Y61.800 E933.15421
G1 X151.949 Y163.200 E945.32221
G1 X78.050 Y163.200 E954.19009
G1 X78.050 Y61.800 E966.35809
G0 F9000.00000 X78.450 Y62.200
G1 F3000.000 X151.549 Y62.200 E975.12997
G1 X151.549 Y162.800 E987.20197
G1 X78.450 Y162.800 E995.97385
G1 X78.450 Y62.200 E1008.04585
G0 F9000.00000 X78.850 Y62.600
G1 F3000.000 X151.149 Y62.600 E1016.72173
G1 X151.149 Y162.400 E1028.69773
G1 X78.850 Y162.400 E1037.37361
G1 X78.850 Y62.600 E1049.34961
G0 F9000.00000 X79.250 Y63.000
G1 F3000.000 X150.749 Y63.000 E1057.92949
G1 X150.749 Y162.000 E1069.80949
G1 X79.250 Y162.000 E1078.38937
G1 X79.250 Y63.000 E1090.26937
G0 F9000.00000 X79.650 Y63.400
G1 F3000.000 X150.349 Y63.400 E1098.75325
G1 X150.349 Y161.600 E1110.53725
G1 X79.650 Y161.600 E1119.02113
G1 X79.650 Y63.400 E1130.80513
G0 F9000.00000 X80.050 Y63.800
G1 F3000.000 X149.949 Y63.800 E1139.19301
G1 X149.949 Y161.200 E1150.88101
G1 X80.050 Y161.200 E1159.26889
G1 X80.050 Y63.800 E1170.95689
G0 F9000.00000 X80.450 Y64.200
G1 F3000.000 X149.549 Y64.200 E1179.24877
G1 X149.549 Y160.800 E1190.84077
G1 X80.450 Y160.800 E1199.13265
G1 X80.450 Y64.200 E1210.72465
G0 F9000.00000 X80.850 Y64.600
G1 F3000.000 X149.149 Y64.600 E1218.92053
G1 X149.149 Y160.400 E1230.41653
G1 X80.850 Y160.400 E1238.61241
G1 X80.850 Y64.600 E1250.10841
G0 F9000.00000 X81.250 Y65.000
G1 F3000.000 X148.749 Y65.000 E1258.20829
G1 X148.749 Y160.000 E1269.60829
G1 X81.250 Y160.000 E1277.70817
G1 X81.250 Y65.000 E1289.10817
G0 F9000.00000 X81.650 Y65.400
G1 F3000.000 X148.349 Y65.400 E1297.11205
G1 X148.349 Y159.600 E1308.41605
G1 X81.650 Y159.600 E1316.41993
G1 X81.650 Y65.400 E1327.72393
G0 F9000.00000 X82.050 Y65.800
G1 F3000.000 X147.949 Y65.800 E1335.63181
G1 X147.949 Y159.200 E1346.83981
G1 X82.050 Y159.200 E1354.74769
G1 X82.050 Y65.800 E1365.95569
G0 F9000.00000 X82.450 Y66.200
G1 F3000.000 X147.549 Y66.200 E1373.76757
G1 X147.549 Y158.800 E1384.87957
G1 X82.450 Y158.800 E1392.69145
G1 X82.450 Y66.200 E1403.80345
G0 F9000.00000 X82.850 Y66.600
G1 F3000.000 X147.149 Y66.600 E1411.51933
G1 X147.149 Y158.400 E1422.53533
G1 X82.850 Y158.400 E1430.25121
G1 X82.850 Y66.600 E1441.26721
G0 F9000.00000 X83.250 Y67.000
G1 F3000.000 X146.749 Y67.000 E1448.88709
G1 X146.749 Y158.000 E1459.80709
G1 X83.250 Y158.000 E1467.42697
G1 X83.250 Y67.000 E1478.34697
G0 F9000.00000 X83.650 Y67.400
G1 F3000.000 X146.349 Y67.400 E1485.87085
G1 X146.349 Y157.600 E1496.69485
G1 X83.650 Y157.600 E1504.21873
G1 X83.650 Y67.400 E1515.04273
G0 F9000.00000 X84.050 Y67.800
G1 F3000.000 X145.949 Y67.800 E1522.47061
G1 X145.949 Y157.200 E1533.19861
G1 X84.050 Y157.200 E1540.62649
G1 X84.050 Y67.800 E1551.35449
G0 F9000.00000 X84.450 Y68.200
G1 F3000.000 X145.549 Y68.200 E1558.68637
G1 X145.549 Y156.800 E1569.31837
G1 X84.450 Y156.800 E1576.65025
G1 X84.450 Y68.200 E1587.28225
G0 F9000.00000 X84.850 Y68.600
G1 F3000.000 X145.149 Y68.600 E1594.51813
G1 X145.149 Y156.400 E1605.05413
G1 X84.850 Y156.400 E1612.29001
G1 X84.850 Y68.600 E1622.82601
G0 F9000.00000 X85.250 Y69.000
G1 F3000.000 X144.749 Y69.000 E1629.96589
G1 X144.749 Y156.000 E1640.40589
G1 X85.250 Y156.000 E1647.54577
G1 X85.250 Y69.000 E1657.98577
G0 F9000.00000 X85.650 Y69.400
G1 F3000.000 X144.349 Y69.400 E1665.02965
G1 X144.349 Y155.600 E1675.37365
G1 X85.650 Y155.600 E1682.41753
G1 X85.650 Y69.400 E1692.76153
G0 F9000.00000 X86.050 Y69.800
G1 F3000.000 X143.949 Y69.800 E1699.70941
G1 X143.949 Y155.200 E1709.95741
G1 X86.050 Y155.200 E1716.90529
G1 X86.050 Y69.800 E1727.15329
G0 F9000.00000 X86.450 Y70.200
G1 F3000.000 X143.549 Y70.200 E1734.00517
G1 X143.549 Y154.800 E1744.15717
G1 X86.450 Y154.800 E1751.00905
G1 X86.450 Y70.200 E1761.16105
G0 F9000.00000 X86.850 Y70.600
G1 F3000.000 X143.149 Y70.600 E1767.91693
G1 X143.149 Y154.400 E1777.97293
G1 X86.850 Y154.400 E1784.72881
G1 X86.850 Y70.600 E1794.78481
G0 F9000.00000 X87.250 Y71.000
G1 F3000.000 X142.749 Y71.000 E1801.44469
G1 X142.749 Y154.000 E1811.40469
G1 X87.250 Y154.000 E1818.06457
G1 X87.250 Y71.000 E1828.02457
G0 F9000.00000 X87.650 Y71.400
G1 F3000.000 X142.349 Y71.400 E1834.58845
G1 X142.349 Y153.600 E1844.45245
G1 X87.650 Y153.600 E1851.01633
G1 X87.650 Y71.400 E1860.88033
G0 F9000.00000 X88.050 Y71.800
G1 F3000.000 X141.949 Y71.800 E1867.34821
G1 X141.949 Y153.200 E1877.11621
G1 X88.050 Y153.200 E1883.58409
G1 X88.050 Y71.800 E1893.35209
G0 F9000.00000 X88.450 Y72.200
G1 F3000.000 X141.549 Y72.200 E1899.72397
G1 X141.549 Y152.800 E1909.39597
G1 X88.450 Y152.800 E1915.76785
G1 X88.450 Y72.200 E1925.43985
G0 F9000.00000 X88.850 Y72.600
G1 F3000.000 X141.149 Y72.600 E1931.71573
G1 X141.149 Y152.400 E1941.29173
G1 X88.850 Y152.400 E1947.56761
G1 X88.850 Y72.600 E1957.14361
G0 F9000.00000 X89.250 Y73.000
G1 F3000.000 X140.749 Y73.000 E1963.32349
G1 X140.749 Y152.000 E1972.80349
G1 X89.250 Y152.000 E1978.98337
G1 X89.250 Y73.000 E1988.46337
G0 F9000.00000 X89.650 Y73.400
G1 F3000.000 X140.349 Y73.400 E1994.54725
G1 X140.349 Y151.600 E2003.93125
G1 X89.650 Y151.600 E2010.01513
G1 X89.650 Y73.400 E2019.39913
G0 F9000.00000 X90.050 Y73.800
G1 F3000.000 X139.949 Y73.800 E2025.38701
G1 X139.949 Y151.200 E2034.67501
G1 X90.050 Y151.200 E2040.66289
G1 X90.050 Y73.800 E2049.95089
G0 F9000.00000 X90.450 Y74.200
G1 F3000.000 X139.549 Y74.200 E2055.84277
G1 X139.549 Y150.800 E2065.03477
G1 X90.450 Y150.800 E2070.92665
G1 X90.450 Y74.200 E2080.11865
G0 F9000.00000 X90.850 Y74.600
G1 F3000.000 X139.149 Y74.600 E2085.91453
G1 X139.149 Y150.400 E2095.01053
G1 X90.850 Y150.400 E2100.80641
G1 X90.850 Y74.600 E2109.90241
G0 F9000.00000 X91.250 Y75.000
G1 F3000.000 X138.749 Y75.000 E2115.60229
G1 X138.749 Y150.000 E2124.60229
G1 X91.250 Y150.000 E2130.30217
G1 X91.250 Y75.000 E2139.30217
G0 F9000.00000 X91.650 Y75.400
G1 F3000.000 X138.349 Y75.400 E2144.90605
G1 X138.349 Y149.600 E2153.81005
G1 X91.650 Y149.600 E2159.41393
G1 X91.650 Y75.400 E2168.31793
G0 F9000.00000 X92.050 Y75.800
G1 F3000.000 X137.949 Y75.800 E2173.82581
G1 X137.949 Y149.200 E2182.63381
G1 X92.050 Y149.200 E2188.14169
G1 X92.050 Y75.800 E2196.94969
G0 F9000.00000 X92.450 Y76.200
G1 F3000.000 X137.549 Y76.200 E2202.36157
G1 X137.549 Y148.800 E2211.07357
G1 X92.450 Y148.800 E2216.48545
G1 X92.450 Y76.200 E2225.19745
G0 F9000.00000 X92.850 Y76.600
G1 F3000.000 X137.149 Y76.600 E2230.51333
G1 X137.149 Y148.400 E2239.12933
G1 X92.850 Y148.400 E2244.44521
G1 X92.850 Y76.600 E2253.06121
G0 F9000.00000 X93.250 Y77.000
G1 F3000.000 X136.749 Y77.000 E2258.28109
G1 X136.749 Y148.000 E2266.80109
G1 X93.250 Y148.000 E2272.02097
G1 X93.250 Y77.000 E2280.54097
G0 F9000.00000 X93.650 Y77.400
G1 F3000.000 X136.349 Y77.400 E2285.66485
G1 X136.349 Y147.600 E2294.08885
G1 X93.650 Y147.600 E2299.21273
G1 X93.650 Y77.400 E2307.63673
G0 F9000.00000 X94.050 Y77.800
G1 F3000.000 X135.949 Y77.800 E2312.66461
G1 X135.949 Y147.200 E2320.99261
G1 X94.050 Y147.200 E2326.02049
G1 X94.050 Y77.800 E2334.34849
G0 F9000.00000 X94.450 Y78.200
G1 F3000.000 X135.549 Y78.200 E2339.28037
G1 X135.549 Y146.800 E2347.51237
G1 X94.450 Y146.800 E2352.44425
G1 X94.450 Y78.200 E2360.67625
G0 F9000.00000 X94.850 Y78.600
G1 F3000.000 X135.149 Y78.600 E2365.51213
G1 X135.149 Y146.400 E2373.64813
G1 X94.850 Y146.400 E2378.48401
G1 X94.850 Y78.600 E2386.62001
G0 F9000.00000 X95.250 Y79.000
G1 F3000.000 X134.749 Y79.000 E2391.35989
G1 X134.749 Y146.000 E2399.39989
G1 X95.250 Y146.000 E2404.13977
G1 X95.250 Y79.000 E2412.17977
G0 F9000.00000 X95.650 Y79.400
G1 F3000.000 X134.349 Y79.400 E2416.82365
G1 X134.349 Y145.600 E2424.76765
G1 X95.650 Y145.600 E2429.41153
G1 X95.650 Y79.400 E2437.35553
G0 F9000.00000 X96.050 Y79.800
G1 F3000.000 X133.949 Y79.800 E2441.90341
G1 X133.949 Y145.200 E2449.75141
G1 X96.050 Y145.200 E2454.29929
G1 X96.050 Y79.800 E2462.14729
G0 F9000.00000 X96.450 Y80.200
G1 F3000.000 X133.549 Y80.200 E2466.59917
G1 X133.549 Y144.800 E2474.35117
G1 X96.450 Y144.800 E2478.80305
G1 X96.450 Y80.200 E2486.55505
G0 F9000.00000 X96.850 Y80.600
G1 F3000.000 X133.149 Y80.600 E2490.91093
G1 X133.149 Y144.400 E2498.56693
G1 X96.850 Y144.400 E2502.92281
G1 X96.850 Y80.600 E2510.57881
G0 F9000.00000 X97.250 Y81.000
G1 F3000.000 X132.749 Y81.000 E2514.83869
G1 X132.749 Y144.000 E2522.39869
G1 X97.250 Y144.000 E2526.65857
