;FLAVOR:UltiGCode
;TIME:11971
;MATERIAL:38137
;MATERIAL2:0

;Layer count: 130
;LAYER:0
M107
G0 F6000 X67.787 Y51.179 Z0.300
;TYPE:SKIRT
G1 F1800 X160.886 Y51.179 E11.17188
G1 X160.886 Y171.778 E25.64376
G1 X67.787 Y171.778 E36.81564
G1 X67.787 Y51.179 E51.28752
G0 F6000 X68.187 Y51.579
G1 F1800 X160.486 Y51.579 E62.36340
G1 X160.486 Y171.378 E76.73928
G1 X68.187 Y171.378 E87.81516
G1 X68.187 Y51.579 E102.19104
G0 F6000 X68.587 Y51.979
G1 F1800 X160.086 Y51.979 E113.17092
G1 X160.086 Y170.978 E127.45080
G1 X68.587 Y170.978 E138.43068
G1 X68.587 Y51.979 E152.71056
G0 F6000 X68.987 Y52.379
G1 F1800 X159.686 Y52.379 E163.59444
G1 X159.686 Y170.578 E177.77832
G1 X68.987 Y170.578 E188.66220
G1 X68.987 Y52.379 E202.84608
G0 F6000 X69.387 Y52.779
G1 F1800 X159.286 Y52.779 E213.63396
G1 X159.286 Y170.178 E227.72184
G1 X69.387 Y170.178 E238.50972
G1 X69.387 Y52.779 E252.59760
G0 F6000 X69.787 Y53.179
;TYPE:WALL-OUTER
G1 F1800 X158.886 Y53.179 E263.28948
G1 X158.886 Y169.778 E277.28136
G1 X69.787 Y169.778 E287.97324
G1 X69.787 Y53.179 E301.96512
G0 F6000 X70.007 Y53.319
;TYPE:SKIN
G1 F1800 X158.746 Y142.058 E317.02463
G0 F6000 X158.746 Y142.624
G1 F1800 X69.926 Y53.804 E332.09788
G0 F6000 X69.926 Y54.370
G1 F1800 X158.746 Y143.189 E347.17105
G0 F6000 X158.746 Y143.755
G1 F1800 X69.926 Y54.935 E362.24430
G0 F6000 X69.926 Y55.501
G1 F1800 X158.746 Y144.321 E377.31756
G0 F6000 X158.746 Y144.886
G1 F1800 X69.926 Y56.067 E392.39073
G0 F6000 X69.926 Y56.632
G1 F1800 X158.746 Y145.452 E407.46398
G0 F6000 X158.746 Y146.018
G1 F1800 X69.926 Y57.198 E422.53723
G0 F6000 X69.926 Y57.764
G1 F1800 X158.746 Y146.583 E437.61040
G0 F6000 X158.746 Y147.149
G1 F1800 X69.926 Y58.329 E452.68366
G0 F6000 X69.926 Y58.895
G1 F1800 X158.746 Y147.715 E467.75691
G0 F6000 X158.746 Y148.280
G1 F1800 X69.926 Y59.461 E482.83008
G0 F6000 X70.087 Y59.461
G0 X70.572 Y53.479
G0 X70.572 Y53.319
G1 F1800 X158.746 Y141.492 E497.79362
G0 F6000 X158.746 Y140.927
G1 F1800 X71.138 Y53.319 E512.66119
G0 F6000 X71.704 Y53.319
G1 F1800 X158.746 Y140.361 E527.43271
G0 F6000 X158.586 Y140.361
G0 X158.586 Y148.846
G0 X158.746 Y148.846
G1 F1800 X69.926 Y60.027 E542.50588
G0 F6000 X69.926 Y60.592
G1 F1800 X158.746 Y149.412 E557.57913
G0 F6000 X158.746 Y149.978
G1 F1800 X69.926 Y61.158 E572.65238
G0 F6000 X69.926 Y61.724
G1 F1800 X158.746 Y150.543 E587.72555
G0 F6000 X158.746 Y151.109
G1 F1800 X69.926 Y62.289 E602.79881
G0 F6000 X69.926 Y62.855
G1 F1800 X158.746 Y151.675 E617.87206
G0 F6000 X158.746 Y152.240
G1 F1800 X69.926 Y63.421 E632.94523
G0 F6000 X69.926 Y63.986
G1 F1800 X158.746 Y152.806 E648.01848
G0 F6000 X158.746 Y153.372
G1 F1800 X69.926 Y64.552 E663.09174
G0 F6000 X69.926 Y65.118
G1 F1800 X158.746 Y153.937 E678.16491
G0 F6000 X158.746 Y154.503
G1 F1800 X69.926 Y65.683 E693.23816
G0 F6000 X69.926 Y66.249
G1 F1800 X158.746 Y155.069 E708.31141
G0 F6000 X158.746 Y155.634
G1 F1800 X69.926 Y66.815 E723.38458
G0 F6000 X69.926 Y67.380
G1 F1800 X158.746 Y156.200 E738.45784
G0 F6000 X158.746 Y156.766
G1 F1800 X69.926 Y67.946 E753.53109
G0 F6000 X69.926 Y68.512
G1 F1800 X158.746 Y157.331 E768.60426
G0 F6000 X158.746 Y157.897
G1 F1800 X69.926 Y69.077 E783.67751
G0 F6000 X69.926 Y69.643
G1 F1800 X158.746 Y158.463 E798.75077
G0 F6000 X158.746 Y159.029
G1 F1800 X69.926 Y70.209 E813.82402
G0 F6000 X69.926 Y70.775
G1 F1800 X158.746 Y159.594 E828.89719
G0 F6000 X158.746 Y160.160
G1 F1800 X69.926 Y71.340 E843.97044
G0 F6000 X69.926 Y71.906
G1 F1800 X158.746 Y160.726 E859.04370
G0 F6000 X158.746 Y161.291
G1 F1800 X69.926 Y72.472 E874.11687
G0 F6000 X69.926 Y73.037
G1 F1800 X158.746 Y161.857 E889.19012
G0 F6000 X158.746 Y162.423
G1 F1800 X69.926 Y73.603 E904.26337
G0 F6000 X69.926 Y74.169
G1 F1800 X158.746 Y162.988 E919.33654
G0 F6000 X158.746 Y163.554
G1 F1800 X69.926 Y74.734 E934.40980
G0 F6000 X69.926 Y75.300
G1 F1800 X158.746 Y164.120 E949.48305
G0 F6000 X158.746 Y164.685
G1 F1800 X69.926 Y75.866 E964.55622
G0 F6000 X69.926 Y76.431
G1 F1800 X158.746 Y165.251 E979.62947
G0 F6000 X158.746 Y165.817
G1 F1800 X69.926 Y76.997 E994.70273
G0 F6000 X69.926 Y77.563
G1 F1800 X158.746 Y166.382 E1009.77590
G0 F6000 X158.746 Y166.948
G1 F1800 X69.926 Y78.128 E1024.84915
G0 F6000 X69.926 Y78.694
G1 F1800 X158.746 Y167.514 E1039.92240
G0 F6000 X158.746 Y168.079
G1 F1800 X69.926 Y79.260 E1054.99557
G0 F6000 X69.926 Y79.825
G1 F1800 X158.746 Y168.645 E1070.06883
G0 F6000 X158.746 Y169.211
G1 F1800 X69.926 Y80.391 E1085.14208
G0 F6000 X69.926 Y80.957
G1 F1800 X158.606 Y169.637 E1100.19158
G0 F6000 X158.040 Y169.637
G1 F1800 X69.926 Y81.523 E1115.14502
G0 F6000 X69.926 Y82.088
G1 F1800 X157.474 Y169.637 E1130.00249
G0 F6000 X156.909 Y169.637
G1 F1800 X69.926 Y82.654 E1144.76400
G0 F6000 X69.926 Y83.220
G1 F1800 X156.343 Y169.637 E1159.42945
G0 F6000 X155.777 Y169.637
G1 F1800 X69.926 Y83.785 E1173.99893
G0 F6000 X69.926 Y84.351
G1 F1800 X155.212 Y169.637 E1188.47244
G0 F6000 X154.646 Y169.637
G1 F1800 X69.926 Y84.917 E1202.84990
G0 F6000 X69.926 Y85.482
G1 F1800 X154.080 Y169.637 E1217.13140
G0 F6000 X153.515 Y169.637
G1 F1800 X69.926 Y86.048 E1231.31692
G0 F6000 X69.926 Y86.614
G1 F1800 X152.949 Y169.637 E1245.40639
G0 F6000 X152.383 Y169.637
G1 F1800 X69.926 Y87.179 E1259.39989
G0 F6000 X69.926 Y87.745
G1 F1800 X151.817 Y169.637 E1273.29734
G0 F6000 X151.252 Y169.637
G1 F1800 X69.926 Y88.311 E1287.09882
G0 F6000 X69.926 Y88.876
G1 F1800 X150.686 Y169.637 E1300.80433
G0 F6000 X150.120 Y169.637
G1 F1800 X69.926 Y89.442 E1314.41379
G0 F6000 X69.926 Y90.008
G1 F1800 X149.555 Y169.637 E1327.92728
G0 F6000 X148.989 Y169.637
G1 F1800 X69.926 Y90.574 E1341.34472
G0 F6000 X69.926 Y91.139
G1 F1800 X148.423 Y169.637 E1354.66618
G0 F6000 X147.858 Y169.637
G1 F1800 X69.926 Y91.705 E1367.89168
G0 F6000 X69.926 Y92.271
G1 F1800 X147.292 Y169.637 E1381.02113
G0 F6000 X146.726 Y169.637
G1 F1800 X69.926 Y92.836 E1394.05460
G0 F6000 X69.926 Y93.402
G1 F1800 X146.161 Y169.637 E1406.99211
G0 F6000 X145.595 Y169.637
G1 F1800 X69.926 Y93.968 E1419.83357
G0 F6000 X69.926 Y94.533
G1 F1800 X145.029 Y169.637 E1432.57905
G0 F6000 X144.464 Y169.637
G1 F1800 X69.926 Y95.099 E1445.22857
G0 F6000 X69.926 Y95.665
G1 F1800 X143.898 Y169.637 E1457.78204
G0 F6000 X143.332 Y169.637
G1 F1800 X69.926 Y96.230 E1470.23953
G0 F6000 X69.926 Y96.796
G1 F1800 X142.766 Y169.637 E1482.60098
G0 F6000 X142.201 Y169.637
G1 F1800 X69.926 Y97.362 E1494.86645
G0 F6000 X69.926 Y97.927
G1 F1800 X141.635 Y169.637 E1507.03596
G0 F6000 X141.069 Y169.637
G1 F1800 X69.926 Y98.493 E1519.10941
G0 F6000 X69.926 Y99.059
G1 F1800 X140.504 Y169.637 E1531.08689
G0 F6000 X139.938 Y169.637
G1 F1800 X69.926 Y99.624 E1542.96841
G0 F6000 X69.926 Y100.190
G1 F1800 X139.372 Y169.637 E1554.75387
G0 F6000 X138.807 Y169.637
G1 F1800 X69.926 Y100.756 E1566.44336
G0 F6000 X69.926 Y101.322
G1 F1800 X138.241 Y169.637 E1578.03680
G0 F6000 X137.675 Y169.637
G1 F1800 X69.926 Y101.887 E1589.53427
G0 F6000 X69.926 Y102.453
G1 F1800 X137.110 Y169.637 E1600.93578
G0 F6000 X136.544 Y169.637
G1 F1800 X69.926 Y103.019 E1612.24123
G0 F6000 X69.926 Y103.584
G1 F1800 X135.978 Y169.637 E1623.45071
G0 F6000 X135.413 Y169.637
G1 F1800 X69.926 Y104.150 E1634.56422
G0 F6000 X69.926 Y104.716
G1 F1800 X134.847 Y169.637 E1645.58168
G0 F6000 X134.281 Y169.637
G1 F1800 X69.926 Y105.281 E1656.50317
G0 F6000 X69.926 Y105.847
G1 F1800 X133.716 Y169.637 E1667.32869
G0 F6000 X133.150 Y169.637
G1 F1800 X69.926 Y106.413 E1678.05816
G0 F6000 X69.926 Y106.978
G1 F1800 X132.584 Y169.637 E1688.69166
G0 F6000 X132.018 Y169.637
G1 F1800 X69.926 Y107.544 E1699.22911
G0 F6000 X69.926 Y108.110
G1 F1800 X131.453 Y169.637 E1709.67058
G0 F6000 X130.887 Y169.637
G1 F1800 X69.926 Y108.675 E1720.01609
G0 F6000 X69.926 Y109.241
G1 F1800 X130.321 Y169.637 E1730.26555
G0 F6000 X129.756 Y169.637
G1 F1800 X69.926 Y109.807 E1740.41904
G0 F6000 X69.926 Y110.373
G1 F1800 X129.190 Y169.637 E1750.47647
G0 F6000 X128.624 Y169.637
G1 F1800 X69.926 Y110.938 E1760.43794
G0 F6000 X69.926 Y111.504
G1 F1800 X128.059 Y169.637 E1770.30344
G0 F6000 X127.493 Y169.637
G1 F1800 X69.926 Y112.070 E1780.07288
G0 F6000 X69.926 Y112.635
G1 F1800 X126.927 Y169.637 E1789.74635
G0 F6000 X126.362 Y169.637
G1 F1800 X69.926 Y113.201 E1799.32386
G0 F6000 X69.926 Y113.767
G1 F1800 X125.796 Y169.637 E1808.80531
G0 F6000 X125.230 Y169.637
G1 F1800 X69.926 Y114.332 E1818.19080
G0 F6000 X69.926 Y114.898
G1 F1800 X124.665 Y169.637 E1827.48032
G0 F6000 X124.099 Y169.637
G1 F1800 X69.926 Y115.464 E1836.67378
G0 F6000 X69.926 Y116.029
G1 F1800 X123.533 Y169.637 E1845.77127
G0 F6000 X122.967 Y169.637
G1 F1800 X69.926 Y116.595 E1854.77271
G0 F6000 X69.926 Y117.161
G1 F1800 X122.402 Y169.637 E1863.67819
G0 F6000 X121.836 Y169.637
G1 F1800 X69.926 Y117.726 E1872.48769
G0 F6000 X69.926 Y118.292
G1 F1800 X121.270 Y169.637 E1881.20114
G0 F6000 X120.705 Y169.637
G1 F1800 X69.926 Y118.858 E1889.81862
G0 F6000 X69.926 Y119.423
G1 F1800 X120.139 Y169.637 E1898.34014
G0 F6000 X119.573 Y169.637
G1 F1800 X69.926 Y119.989 E1906.76560
G0 F6000 X69.926 Y120.555
G1 F1800 X119.008 Y169.637 E1915.09509
G0 F6000 X118.442 Y169.637
G1 F1800 X69.926 Y121.121 E1923.32853
G0 F6000 X69.926 Y121.686
G1 F1800 X117.876 Y169.637 E1931.46600
G0 F6000 X117.311 Y169.637
G1 F1800 X69.926 Y122.252 E1939.50750
G0 F6000 X69.926 Y122.818
G1 F1800 X116.745 Y169.637 E1947.45295
G0 F6000 X116.179 Y169.637
G1 F1800 X69.926 Y123.383 E1955.30243
G0 F6000 X69.926 Y123.949
G1 F1800 X115.614 Y169.637 E1963.05594
G0 F6000 X115.048 Y169.637
G1 F1800 X69.926 Y124.515 E1970.71339
G0 F6000 X69.926 Y125.080
G1 F1800 X114.482 Y169.637 E1978.27488
G0 F6000 X113.917 Y169.637
G1 F1800 X69.926 Y125.646 E1985.74040
G0 F6000 X69.926 Y126.212
G1 F1800 X113.351 Y169.637 E1993.10987
G0 F6000 X112.785 Y169.637
G1 F1800 X69.926 Y126.777 E2000.38337
G0 F6000 X69.926 Y127.343
G1 F1800 X112.219 Y169.637 E2007.56081
G0 F6000 X111.654 Y169.637
G1 F1800 X69.926 Y127.909 E2014.64229
G0 F6000 X69.926 Y128.474
G1 F1800 X111.088 Y169.637 E2021.62780
G0 F6000 X110.522 Y169.637
G1 F1800 X69.926 Y129.040 E2028.51725
G0 F6000 X69.926 Y129.606
G1 F1800 X109.957 Y169.637 E2035.31074
G0 F6000 X109.391 Y169.637
G1 F1800 X69.926 Y130.171 E2042.00825
G0 F6000 X69.926 Y130.737
G1 F1800 X108.825 Y169.637 E2048.60972
G0 F6000 X108.260 Y169.637
G1 F1800 X69.926 Y131.303 E2055.11521
G0 F6000 X69.926 Y131.869
G1 F1800 X107.694 Y169.637 E2061.52466
G0 F6000 X107.128 Y169.637
G1 F1800 X69.926 Y132.434 E2067.83813
G0 F6000 X69.926 Y133.000
G1 F1800 X106.563 Y169.637 E2074.05563
G0 F6000 X105.997 Y169.637
G1 F1800 X69.926 Y133.566 E2080.17709
G0 F6000 X69.926 Y134.131
G1 F1800 X105.431 Y169.637 E2086.20257
G0 F6000 X104.866 Y169.637
G1 F1800 X69.926 Y134.697 E2092.13208
G0 F6000 X69.926 Y135.263
G1 F1800 X104.300 Y169.637 E2097.96555
G0 F6000 X103.734 Y169.637
G1 F1800 X69.926 Y135.828 E2103.70304
G0 F6000 X69.926 Y136.394
G1 F1800 X103.169 Y169.637 E2109.34456
G0 F6000 X102.603 Y169.637
G1 F1800 X69.926 Y136.960 E2114.89003
G0 F6000 X69.926 Y137.525
G1 F1800 X102.037 Y169.637 E2120.33954
G0 F6000 X101.471 Y169.637
G1 F1800 X69.926 Y138.091 E2125.69298
G0 F6000 X69.926 Y138.657
G1 F1800 X100.906 Y169.637 E2130.95046
G0 F6000 X100.340 Y169.637
G1 F1800 X69.926 Y139.222 E2136.11198
G0 F6000 X69.926 Y139.788
G1 F1800 X99.774 Y169.637 E2141.17744
G0 F6000 X99.209 Y169.637
G1 F1800 X69.926 Y140.354 E2146.14692
G0 F6000 X69.926 Y140.920
G1 F1800 X98.643 Y169.637 E2151.02036
G0 F6000 X98.077 Y169.637
G1 F1800 X69.926 Y141.485 E2155.79783
G0 F6000 X69.926 Y142.051
G1 F1800 X97.512 Y169.637 E2160.47933
G0 F6000 X96.946 Y169.637
G1 F1800 X69.926 Y142.617 E2165.06477
G0 F6000 X69.926 Y143.182
G1 F1800 X96.380 Y169.637 E2169.55425
G0 F6000 X95.815 Y169.637
G1 F1800 X69.926 Y143.748 E2173.94776
G0 F6000 X69.926 Y144.314
G1 F1800 X95.249 Y169.637 E2178.24522
G0 F6000 X94.683 Y169.637
G1 F1800 X69.926 Y144.879 E2182.44670
G0 F6000 X69.926 Y145.445
G1 F1800 X94.118 Y169.637 E2186.55222
G0 F6000 X93.552 Y169.637
G1 F1800 X69.926 Y146.011 E2190.56169
G0 F6000 X69.926 Y146.576
G1 F1800 X92.986 Y169.637 E2194.47518
G0 F6000 X92.420 Y169.637
G1 F1800 X69.926 Y147.142 E2198.29263
G0 F6000 X69.926 Y147.708
G1 F1800 X91.855 Y169.637 E2202.01410
G0 F6000 X91.289 Y169.637
G1 F1800 X69.926 Y148.273 E2205.63961
G0 F6000 X69.926 Y148.839
G1 F1800 X90.723 Y169.637 E2209.16906
G0 F6000 X90.158 Y169.637
G1 F1800 X69.926 Y149.405 E2212.60255
G0 F6000 X69.926 Y149.970
G1 F1800 X89.592 Y169.637 E2215.94006
G0 F6000 X89.026 Y169.637
G1 F1800 X69.926 Y150.536 E2219.18152
G0 F6000 X69.926 Y151.102
G1 F1800 X88.461 Y169.637 E2222.32702
G0 F6000 X87.895 Y169.637
G1 F1800 X69.926 Y151.668 E2225.37646
G0 F6000 X69.926 Y152.233
G1 F1800 X87.329 Y169.637 E2228.32993
G0 F6000 X86.764 Y169.637
G1 F1800 X69.926 Y152.799 E2231.18743
G0 F6000 X69.926 Y153.365
G1 F1800 X86.198 Y169.637 E2233.94888
G0 F6000 X85.632 Y169.637
G1 F1800 X69.926 Y153.930 E2236.61436
G0 F6000 X69.926 Y154.496
G1 F1800 X85.067 Y169.637 E2239.18388
G0 F6000 X84.501 Y169.637
G1 F1800 X69.926 Y155.062 E2241.65734
G0 F6000 X69.926 Y155.627
G1 F1800 X83.935 Y169.637 E2244.03483
G0 F6000 X83.370 Y169.637
G1 F1800 X69.926 Y156.193 E2246.31635
G0 F6000 X69.926 Y156.759
G1 F1800 X82.804 Y169.637 E2248.50182
G0 F6000 X82.238 Y169.637
G1 F1800 X69.926 Y157.324 E2250.59132
G0 F6000 X69.926 Y157.890
G1 F1800 X81.672 Y169.637 E2252.58477
G0 F6000 X81.107 Y169.637
G1 F1800 X69.926 Y158.456 E2254.48225
G0 F6000 X69.926 Y159.021
G1 F1800 X80.541 Y169.637 E2256.28376
G0 F6000 X79.975 Y169.637
G1 F1800 X69.926 Y159.587 E2257.98921
G0 F6000 X69.926 Y160.153
G1 F1800 X79.410 Y169.637 E2259.59870
G0 F6000 X78.844 Y169.637
G1 F1800 X69.926 Y160.719 E2261.11214
G0 F6000 X69.926 Y161.284
G1 F1800 X78.278 Y169.637 E2262.52960
G0 F6000 X77.713 Y169.637
G1 F1800 X69.926 Y161.850 E2263.85110
G0 F6000 X69.926 Y162.416
G1 F1800 X77.147 Y169.637 E2265.07654
G0 F6000 X76.581 Y169.637
G1 F1800 X69.926 Y162.981 E2266.20602
G0 F6000 X69.926 Y163.547
G1 F1800 X76.016 Y169.637 E2267.23953
G0 F6000 X75.450 Y169.637
G1 F1800 X69.926 Y164.113 E2268.17698
G0 F6000 X69.926 Y164.678
G1 F1800 X74.884 Y169.637 E2269.01847
G0 F6000 X74.319 Y169.637
G1 F1800 X69.926 Y165.244 E2269.76398
G0 F6000 X69.926 Y165.810
G1 F1800 X73.753 Y169.637 E2270.41345
G0 F6000 X73.187 Y169.637
G1 F1800 X69.926 Y166.375 E2270.96694
G0 F6000 X69.926 Y166.941
G1 F1800 X72.621 Y169.637 E2271.42438
G0 F6000 X72.056 Y169.637
G1 F1800 X69.926 Y167.507 E2271.78586
G0 F6000 X69.926 Y168.072
G1 F1800 X71.490 Y169.637 E2272.05136
G0 F6000 X70.924 Y169.637
G1 F1800 X69.926 Y168.638 E2272.22081
G0 F6000 X69.926 Y169.204
G1 F1800 X70.359 Y169.637 E2272.29429
G0 F6000 X70.359 Y169.478
G0 X158.586 Y139.795
G0 X158.746 Y139.795
G1 F1800 X72.269 Y53.319 E2286.96984
G0 F6000 X72.835 Y53.319
G1 F1800 X158.746 Y139.230 E2301.54942
G0 F6000 X158.746 Y138.664
G1 F1800 X73.401 Y53.319 E2316.03295
G0 F6000 X73.966 Y53.319
G1 F1800 X158.746 Y138.098 E2330.42051
G0 F6000 X158.746 Y137.532
G1 F1800 X74.532 Y53.319 E2344.71201
G0 F6000 X75.098 Y53.319
G1 F1800 X158.746 Y136.967 E2358.90755
G0 F6000 X158.746 Y136.401
G1 F1800 X75.663 Y53.319 E2373.00712
G0 F6000 X76.229 Y53.319
G1 F1800 X158.746 Y135.835 E2387.01063
G0 F6000 X158.746 Y135.270
G1 F1800 X76.795 Y53.319 E2400.91818
G0 F6000 X77.361 Y53.319
G1 F1800 X158.746 Y134.704 E2414.72967
G0 F6000 X158.746 Y134.138
G1 F1800 X77.926 Y53.319 E2428.44519
G0 F6000 X78.492 Y53.319
G1 F1800 X158.746 Y133.573 E2442.06475
G0 F6000 X158.746 Y133.007
G1 F1800 X79.058 Y53.319 E2455.58825
G0 F6000 X79.623 Y53.319
G1 F1800 X158.746 Y132.441 E2469.01578
G0 F6000 X158.746 Y131.876
G1 F1800 X80.189 Y53.319 E2482.34735
G0 F6000 X80.755 Y53.319
G1 F1800 X158.746 Y131.310 E2495.58286
G0 F6000 X158.746 Y130.744
G1 F1800 X81.320 Y53.319 E2508.72240
G0 F6000 X81.886 Y53.319
G1 F1800 X158.746 Y130.179 E2521.76598
G0 F6000 X158.746 Y129.613
G1 F1800 X82.452 Y53.319 E2534.71350
G0 F6000 X83.017 Y53.319
G1 F1800 X158.746 Y129.047 E2547.56505
G0 F6000 X158.746 Y128.482
G1 F1800 X83.583 Y53.319 E2560.32064
G0 F6000 X84.149 Y53.319
G1 F1800 X158.746 Y127.916 E2572.98017
