;FLAVOR:UltiGCode
;TIME:17032
;MATERIAL:51080
;MATERIAL2:0
;POSTPROCESSED
;Generated with Cura_SteamEngine 1.99.0-dev.20151117
;LAYER_COUNT:165
;LAYER:0
M107
G0 F9000.000000 X68.100 Y52.066 Z0.300
G0 X71.132 Y50.749
;TYPE:SKIRT
G1 F1800.000 X159.467 Y50.749 E10.60020
G1 X160.173 Y50.759 E10.68493
G1 X160.330 Y50.766 E10.70379
G1 X160.647 Y50.795 E10.74199
G1 X160.669 Y50.798 E10.74465
G1 X160.680 Y50.800 E10.74599
G1 X160.830 Y50.831 E10.76437
G1 X161.129 Y50.908 E10.80142
G1 X161.182 Y50.923 E10.80803
G1 X161.313 Y50.973 E10.82486
G1 X161.624 Y51.108 E10.86554
G1 X161.628 Y51.109 E10.86604
G1 X161.656 Y51.124 E10.86985
G1 X161.758 Y51.183 E10.88399
G1 X162.047 Y51.367 E10.92510
G1 X162.048 Y51.368 E10.92527
G1 X162.055 Y51.373 E10.92630
G1 X162.204 Y51.494 E10.94934
G1 X162.428 Y51.692 E10.98521
G1 X162.454 Y51.718 E10.98963
G1 X162.534 Y51.807 E11.00399
G1 X162.753 Y52.074 E11.04543
G1 X162.762 Y52.085 E11.04713
G1 X162.773 Y52.100 E11.04936
G1 X162.850 Y52.220 E11.06647
G1 X163.024 Y52.518 E11.10788
G1 X163.029 Y52.526 E11.10901
G1 X163.090 Y52.666 E11.12734
G1 X163.215 Y52.986 E11.16857
G1 X163.222 Y53.007 E11.17122
G1 X163.253 Y53.127 E11.18609
G1 X163.315 Y53.414 E11.22133
G1 X163.363 Y53.930 E11.28352
G1 X163.364 Y53.949 E11.28580
G1 X163.372 Y54.196 E11.31546
G1 X163.374 Y54.355 E11.33454
G1 X163.374 Y170.241 E25.24086
G1 X163.364 Y170.947 E25.32559
G1 X163.357 Y171.104 E25.34444
G1 X163.328 Y171.418 E25.38228
G1 X163.325 Y171.443 E25.38531
G1 X163.324 Y171.452 E25.38639
G1 X163.295 Y171.591 E25.40343
G1 X163.213 Y171.909 E25.44284
G1 X163.204 Y171.943 E25.44706
G1 X163.201 Y171.953 E25.44831
G1 X163.150 Y172.087 E25.46552
G1 X163.024 Y172.379 E25.50368
G1 X163.014 Y172.402 E25.50669
G1 X162.999 Y172.430 E25.51050
G1 X162.940 Y172.532 E25.52464
G1 X162.756 Y172.821 E25.56576
G1 X162.750 Y172.830 E25.56705
G1 X162.629 Y172.978 E25.58999
G1 X162.434 Y173.199 E25.62536
G1 X162.405 Y173.228 E25.63028
G1 X162.321 Y173.304 E25.64388
G1 X162.034 Y173.539 E25.68839
G1 X162.032 Y173.541 E25.68873
G1 X162.022 Y173.547 E25.69013
G1 X161.903 Y173.624 E25.70714
G1 X161.600 Y173.801 E25.74925
G1 X161.590 Y173.806 E25.75059
G1 X161.457 Y173.864 E25.76800
G1 X161.137 Y173.989 E25.80922
G1 X161.135 Y173.990 E25.80949
G1 X161.116 Y173.996 E25.81188
G1 X160.996 Y174.027 E25.82676
G1 X160.709 Y174.089 E25.86199
G1 X160.193 Y174.137 E25.92418
G1 X160.173 Y174.138 E25.92658
G1 X159.927 Y174.146 E25.95612
G1 X159.717 Y174.148 E25.98132
G1 X71.382 Y174.148 E36.58152
G1 X70.676 Y174.138 E36.66625
G1 X70.519 Y174.131 E36.68510
G1 X70.202 Y174.102 E36.72330
G1 X70.180 Y174.099 E36.72597
G1 X70.169 Y174.097 E36.72731
G1 X70.019 Y174.066 E36.74569
G1 X69.714 Y173.987 E36.78350
G1 X69.667 Y173.974 E36.78935
G1 X69.534 Y173.923 E36.80644
G1 X69.225 Y173.789 E36.84686
G1 X69.221 Y173.788 E36.84735
G1 X69.193 Y173.773 E36.85117
G1 X69.091 Y173.714 E36.86531
G1 X68.801 Y173.529 E36.90658
G1 X68.790 Y173.521 E36.90822
G1 X68.786 Y173.518 E36.90882
G1 X68.645 Y173.403 E36.93065
G1 X68.418 Y173.202 E36.96703
G1 X68.395 Y173.179 E36.97094
G1 X68.314 Y173.089 E36.98547
G1 X68.084 Y172.808 E37.02904
G1 X68.076 Y172.797 E37.03067
G1 X68.076 Y172.796 E37.03079
G1 X67.999 Y172.677 E37.04780
G1 X67.822 Y172.374 E37.08991
G1 X67.816 Y172.362 E37.09152
G1 X67.759 Y172.231 E37.10867
G1 X67.633 Y171.908 E37.15027
G1 X67.627 Y171.890 E37.15255
G1 X67.596 Y171.770 E37.16742
G1 X67.534 Y171.483 E37.20266
G1 X67.486 Y170.967 E37.26484
G1 X67.485 Y170.947 E37.26725
G1 X67.477 Y170.701 E37.29678
G1 X67.475 Y170.491 E37.32198
G1 X67.475 Y54.656 E51.22218
G1 X67.485 Y53.949 E51.30703
G1 X67.492 Y53.785 E51.32673
G1 X67.521 Y53.476 E51.36397
G1 X67.525 Y53.445 E51.36772
G1 X67.526 Y53.443 E51.36799
G1 X67.557 Y53.293 E51.38637
G1 X67.636 Y52.986 E51.42441
G1 X67.649 Y52.941 E51.43003
G1 X67.699 Y52.810 E51.44686
G1 X67.835 Y52.496 E51.48792
G1 X67.850 Y52.467 E51.49184
G1 X67.909 Y52.365 E51.50598
G1 X68.100 Y52.066 E51.54855
G1 X68.101 Y52.065 E51.54872
G1 X68.220 Y51.919 E51.57133
G1 X68.418 Y51.695 E51.60720
G1 X68.445 Y51.668 E51.61178
G1 X68.535 Y51.587 E51.62631
G1 X68.815 Y51.358 E51.66972
G1 X68.817 Y51.356 E51.67006
G1 X68.827 Y51.350 E51.67146
G1 X68.946 Y51.273 E51.68847
G1 X69.249 Y51.096 E51.73058
G1 X69.264 Y51.089 E51.73256
G1 X69.392 Y51.033 E51.74933
G1 X69.715 Y50.907 E51.79093
G1 X69.733 Y50.901 E51.79321
G1 X69.853 Y50.870 E51.80808
G1 X70.140 Y50.808 E51.84332
G1 X70.656 Y50.760 E51.90551
G1 X70.676 Y50.759 E51.90791
G1 X70.922 Y50.751 E51.93744
G1 X71.132 Y50.749 E51.96265
G10
G0 F9000.00000 X71.194 Y52.408
G0 X71.303 Y54.577
G0 X71.345 Y54.619
G0 X71.275 Y54.549
;TYPE:WALL-INNER
G11
G1 F3000.000 X159.574 Y54.549 E62.55853
G1 X159.574 Y170.348 E76.45441
G1 X71.275 Y170.348 E87.05029
G1 X71.275 Y54.549 E100.94617
G0 F9000.00000 X70.875 Y54.149
;TYPE:WALL-OUTER
G1 F3000.000 X159.974 Y54.149 E111.63805
G1 X159.974 Y170.748 E125.62993
G1 X70.875 Y170.748 E136.32181
G1 X70.875 Y54.149 E150.31369
G0 F9000.00000 X71.675 Y54.949
;TYPE:SKIN
G1 F3000.000 X159.174 Y54.949 E160.81357
G1 X159.174 Y169.948 E174.61345
G1 X71.675 Y169.948 E185.11333
G1 X71.675 Y54.949 E198.91321
G0 F9000.00000 X72.075 Y55.349
G1 F3000.000 X158.774 Y55.349 E209.31709
G1 X158.774 Y169.548 E223.02097
G1 X72.075 Y169.548 E233.42485
G1 X72.075 Y55.349 E247.12873
G0 F9000.00000 X72.475 Y55.749
G1 F3000.000 X158.374 Y55.749 E257.43661
G1 X158.374 Y169.148 E271.04449
G1 X72.475 Y169.148 E281.35237
G1 X72.475 Y55.749 E294.96025
G0 F9000.00000 X72.875 Y56.149
G1 F3000.000 X157.974 Y56.149 E305.17213
G1 X157.974 Y168.748 E318.68401
G1 X72.875 Y168.748 E328.89589
G1 X72.875 Y56.149 E342.40777
G0 F9000.00000 X73.275 Y56.549
G1 F3000.000 X157.574 Y56.549 E352.52365
G1 X157.574 Y168.348 E365.93953
G1 X73.275 Y168.348 E376.05541
G1 X73.275 Y56.549 E389.47129
G0 F9000.00000 X73.675 Y56.949
G1 F3000.000 X157.174 Y56.949 E399.49117
G1 X157.174 Y167.948 E412.81105
G1 X73.675 Y167.948 E422.83093
G1 X73.675 Y56.949 E436.15081
G0 F9000.00000 X74.075 Y57.349
G1 F3000.000 X156.774 Y57.349 E446.07469
G1 X156.774 Y167.548 E459.29857
G1 X74.075 Y167.548 E469.22245
G1 X74.075 Y57.349 E482.44633
G0 F9000.00000 X74.475 Y57.749
G1 F3000.000 X156.374 Y57.749 E492.27421
G1 X156.374 Y167.148 E505.40209
G1 X74.475 Y167.148 E515.22997
G1 X74.475 Y57.749 E528.35785
G0 F9000.00000 X74.875 Y58.149
G1 F3000.000 X155.974 Y58.149 E538.08973
G1 X155.974 Y166.748 E551.12161
G1 X74.875 Y166.748 E560.85349
G1 X74.875 Y58.149 E573.88537
G0 F9000.00000 X75.275 Y58.549
G1 F3000.000 X155.574 Y58.549 E583.52125
G1 X155.574 Y166.348 E596.45713
G1 X75.275 Y166.348 E606.09301
G1 X75.275 Y58.549 E619.02889
G0 F9000.00000 X75.675 Y58.949
G1 F3000.000 X155.174 Y58.949 E628.56877
G1 X155.174 Y165.948 E641.40865
G1 X75.675 Y165.948 E650.94853
G1 X75.675 Y58.949 E663.78841
G0 F9000.00000 X76.075 Y59.349
G1 F3000.000 X154.774 Y59.349 E673.23229
G1 X154.774 Y165.548 E685.97617
G1 X76.075 Y165.548 E695.42005
G1 X76.075 Y59.349 E708.16393
G0 F9000.00000 X76.475 Y59.749
G1 F3000.000 X154.374 Y59.749 E717.51181
G1 X154.374 Y165.148 E730.15969
G1 X76.475 Y165.148 E739.50757
G1 X76.475 Y59.749 E752.15545
G0 F9000.00000 X76.875 Y60.149
G1 F3000.000 X153.974 Y60.149 E761.40733
G1 X153.974 Y164.748 E773.95921
G1 X76.875 Y164.748 E783.21109
G1 X76.875 Y60.149 E795.76297
G0 F9000.00000 X77.275 Y60.549
G1 F3000.000 X153.574 Y60.549 E804.91885
G1 X153.574 Y164.348 E817.37473
G1 X77.275 Y164.348 E826.53061
G1 X77.275 Y60.549 E838.98649
G0 F9000.00000 X77.675 Y60.949
G1 F3000.000 X153.174 Y60.949 E848.04637
G1 X153.174 Y163.948 E860.40625
G1 X77.675 Y163.948 E869.46613
G1 X77.675 Y60.949 E881.82601
G0 F9000.00000 X78.075 Y61.349
G1 F3000.000 X152.774 Y61.349 E890.78989
G1 X152.774 Y163.548 E903.05377
G1 X78.075 Y163.548 E912.01765
G1 X78.075 Y61.349 E924.28153
G0 F9000.00000 X78.475 Y61.749
G1 F3000.000 X152.374 Y61.749 E933.14941
G1 X152.374 Y163.148 E945.31729
G1 X78.475 Y163.148 E954.18517
G1 X78.475 Y61.749 E966.35305
G0 F9000.00000 X78.875 Y62.149
G1 F3000.000 X151.974 Y62.149 E975.12493
G1 X151.974 Y162.748 E987.19681
G1 X78.875 Y162.748 E995.96869
G1 X78.875 Y62.149 E1008.04057
G0 F9000.00000 X79.275 Y62.549
G1 F3000.000 X151.574 Y62.549 E1016.71645
G1 X151.574 Y162.348 E1028.69233
G1 X79.275 Y162.348 E1037.36821
G1 X79.275 Y62.549 E1049.34409
G0 F9000.00000 X79.675 Y62.949
G1 F3000.000 X151.174 Y62.949 E1057.92397
G1 X151.174 Y161.948 E1069.80385
G1 X79.675 Y161.948 E1078.38373
G1 X79.675 Y62.949 E1090.26361
G0 F9000.00000 X80.075 Y63.349
G1 F3000.000 X150.774 Y63.349 E1098.74749
G1 X150.774 Y161.548 E1110.53137
G1 X80.075 Y161.548 E1119.01525
G1 X80.075 Y63.349 E1130.79913
G0 F9000.00000 X80.475 Y63.749
G1 F3000.000 X150.374 Y63.749 E1139.18701
G1 X150.374 Y161.148 E1150.87489
G1 X80.475 Y161.148 E1159.26277
G1 X80.475 Y63.749 E1170.95065
G0 F9000.00000 X80.875 Y64.149
G1 F3000.000 X149.974 Y64.149 E1179.24253
G1 X149.974 Y160.748 E1190.83441
G1 X80.875 Y160.748 E1199.12629
G1 X80.875 Y64.149 E1210.71817
G0 F9000.00000 X81.275 Y64.549
G1 F3000.000 X149.574 Y64.549 E1218.91405
G1 X149.574 Y160.348 E1230.40993
G1 X81.275 Y160.348 E1238.60581
G1 X81.275 Y64.549 E1250.10169
G0 F9000.00000 X81.675 Y64.949
G1 F3000.000 X149.174 Y64.949 E1258.20157
G1 X149.174 Y159.948 E1269.60145
G1 X81.675 Y159.948 E1277.70133
G1 X81.675 Y64.949 E1289.10121
G0 F9000.00000 X82.075 Y65.349
G1 F3000.000 X148.774 Y65.349 E1297.10509
G1 X148.774 Y159.548 E1308.40897
G1 X82.075 Y159.548 E1316.41285
G1 X82.075 Y65.349 E1327.71673
G0 F9000.00000 X82.475 Y65.749
G1 F3000.000 X148.374 Y65.749 E1335.62461
G1 X148.374 Y159.148 E1346.83249
G1 X82.475 Y159.148 E1354.74037
G1 X82.475 Y65.749 E1365.94825
G0 F9000.00000 X82.875 Y66.149
G1 F3000.000 X147.974 Y66.149 E1373.76013
G1 X147.974 Y158.748 E1384.87201
G1 X82.875 Y158.748 E1392.68389
G1 X82.875 Y66.149 E1403.79577
G0 F9000.00000 X83.275 Y66.549
G1 F3000.000 X147.574 Y66.549 E1411.51165
G1 X147.574 Y158.348 E1422.52753
G1 X83.275 Y158.348 E1430.24341
G1 X83.275 Y66.549 E1441.25929
G0 F9000.00000 X83.675 Y66.949
G1 F3000.000 X147.174 Y66.949 E1448.87917
G1 X147.174 Y157.948 E1459.79905
G1 X83.675 Y157.948 E1467.41893
G1 X83.675 Y66.949 E1478.33881
G0 F9000.00000 X84.075 Y67.349
G1 F3000.000 X146.774 Y67.349 E1485.86269
G1 X146.774 Y157.548 E1496.68657
G1 X84.075 Y157.548 E1504.21045
G1 X84.075 Y67.349 E1515.03433
G0 F9000.00000 X84.475 Y67.749
G1 F3000.000 X146.374 Y67.749 E1522.46221
G1 X146.374 Y157.148 E1533.19009
G1 X84.475 Y157.148 E1540.61797
G1 X84.475 Y67.749 E1551.34585
G0 F9000.00000 X84.875 Y68.149
G1 F3000.000 X145.974 Y68.149 E1558.67773
G1 X145.974 Y156.748 E1569.30961
G1 X84.875 Y156.748 E1576.64149
G1 X84.875 Y68.149 E1587.27337
G0 F9000.00000 X85.275 Y68.549
G1 F3000.000 X145.574 Y68.549 E1594.50925
G1 X145.574 Y156.348 E1605.04513
G1 X85.275 Y156.348 E1612.28101
G1 X85.275 Y68.549 E1622.81689
G0 F9000.00000 X85.675 Y68.949
G1 F3000.000 X145.174 Y68.949 E1629.95677
G1 X145.174 Y155.948 E1640.39665
G1 X85.675 Y155.948 E1647.53653
G1 X85.675 Y68.949 E1657.97641
G0 F9000.00000 X86.075 Y69.349
G1 F3000.000 X144.774 Y69.349 E1665.02029
G1 X144.774 Y155.548 E1675.36417
G1 X86.075 Y155.548 E1682.40805
G1 X86.075 Y69.349 E1692.75193
G0 F9000.00000 X86.475 Y69.749
G1 F3000.000 X144.374 Y69.749 E1699.69981
G1 X144.374 Y155.148 E1709.94769
G1 X86.475 Y155.148 E1716.89557
G1 X86.475 Y69.749 E1727.14345
G0 F9000.00000 X86.875 Y70.149
G1 F3000.000 X143.974 Y70.149 E1733.99533
G1 X143.974 Y154.748 E1744.14721
G1 X86.875 Y154.748 E1750.99909
G1 X86.875 Y70.149 E1761.15097
G0 F9000.00000 X87.275 Y70.549
G1 F3000.000 X143.574 Y70.549 E1767.90685
G1 X143.574 Y154.348 E1777.96273
G1 X87.275 Y154.348 E1784.71861
G1 X87.275 Y70.549 E1794.77449
G0 F9000.00000 X87.675 Y70.949
G1 F3000.000 X143.174 Y70.949 E1801.43437
G1 X143.174 Y153.948 E1811.39425
G1 X87.675 Y153.948 E1818.05413
G1 X87.675 Y70.949 E1828.01401
G0 F9000.00000 X88.075 Y71.349
G1 F3000.000 X142.774 Y71.349 E1834.57789
G1 X142.774 Y153.548 E1844.44177
G1 X88.075 Y153.548 E1851.00565
G1 X88.075 Y71.349 E1860.86953
G0 F9000.00000 X88.475 Y71.749
G1 F3000.000 X142.374 Y71.749 E1867.33741
G1 X142.374 Y153.148 E1877.10529
G1 X88.475 Y153.148 E1883.57317
G1 X88.475 Y71.749 E1893.34105
G0 F9000.00000 X88.875 Y72.149
G1 F3000.000 X141.974 Y72.149 E1899.71293
G1 X141.974 Y152.748 E1909.38481
G1 X88.875 Y152.748 E1915.75669
G1 X88.875 Y72.149 E1925.42857
G0 F9000.00000 X89.275 Y72.549
G1 F3000.000 X141.574 Y72.549 E1931.70445
G1 X141.574 Y152.348 E1941.28033
G1 X89.275 Y152.348 E1947.55621
G1 X89.275 Y72.549 E1957.13209
G0 F9000.00000 X89.675 Y72.949
G1 F3000.000 X141.174 Y72.949 E1963.31197
G1 X141.174 Y151.948 E1972.79185
G1 X89.675 Y151.948 E1978.97173
G1 X89.675 Y72.949 E1988.45161
G0 F9000.00000 X90.075 Y73.349
G1 F3000.000 X140.774 Y73.349 E1994.53549
G1 X140.774 Y151.548 E2003.91937
G1 X90.075 Y151.548 E2010.00325
G1 X90.075 Y73.349 E2019.38713
G0 F9000.00000 X90.475 Y73.749
G1 F3000.000 X140.374 Y73.749 E2025.37501
G1 X140.374 Y151.148 E2034.66289
G1 X90.475 Y151.148 E2040.65077
G1 X90.475 Y73.749 E2049.93865
G0 F9000.00000 X90.875 Y74.149
G1 F3000.000 X139.974 Y74.149 E2055.83053
G1 X139.974 Y150.748 E2065.02241
G1 X90.875 Y150.748 E2070.91429
G1 X90.875 Y74.149 E2080.10617
G0 F9000.00000 X91.275 Y74.549
G1 F3000.000 X139.574 Y74.549 E2085.90205
G1 X139.574 Y150.348 E2094.99793
G1 X91.275 Y150.348 E2100.79381
G1 X91.275 Y74.549 E2109.88969
G0 F9000.00000 X91.675 Y74.949
G1 F3000.000 X139.174 Y74.949 E2115.58957
G1 X139.174 Y149.948 E2124.58945
G1 X91.675 Y149.948 E2130.28933
G1 X91.675 Y74.949 E2139.28921
G0 F9000.00000 X92.075 Y75.349
G1 F3000.000 X138.774 Y75.349 E2144.89309
G1 X138.774 Y149.548 E2153.79697
G1 X92.075 Y149.548 E2159.40085
G1 X92.075 Y75.349 E2168.30473
G0 F9000.00000 X92.475 Y75.749
G1 F3000.000 X138.374 Y75.749 E2173.81261
G1 X138.374 Y149.148 E2182.62049
G1 X92.475 Y149.148 E2188.12837
G1 X92.475 Y75.749 E2196.93625
G0 F9000.00000 X92.875 Y76.149
G1 F3000.000 X137.974 Y76.149 E2202.34813
G1 X137.974 Y148.748 E2211.06001
G1 X92.875 Y148.748 E2216.47189
G1 X92.875 Y76.149 E2225.18377
G0 F9000.00000 X93.275 Y76.549
G1 F3000.000 X137.574 Y76.549 E2230.49965
G1 X137.574 Y148.348 E2239.11553
G1 X93.275 Y148.348 E2244.43141
G1 X93.275 Y76.549 E2253.04729
G0 F9000.00000 X93.675 Y76.949
G1 F3000.000 X137.174 Y76.949 E2258.26717
G1 X137.174 Y147.948 E2266.78705
G1 X93.675 Y147.948 E2272.00693
G1 X93.675 Y76.949 E2280.52681
G0 F9000.00000 X94.075 Y77.349
G1 F3000.000 X136.774 Y77.349 E2285.65069
G1 X136.774 Y147.548 E2294.07457
G1 X94.075 Y147.548 E2299.19845
G1 X94.075 Y77.349 E2307.62233
G0 F9000.00000 X94.475 Y77.749
G1 F3000.000 X136.374 Y77.749 E2312.65021
G1 X136.374 Y147.148 E2320.97809
G1 X94.475 Y147.148 E2326.00597
G1 X94.475 Y77.749 E2334.33385
G0 F9000.00000 X94.875 Y78.149
G1 F3000.000 X135.974 Y78.149 E2339.26573
G1 X135.974 Y146.748 E2347.49761
G1 X94.875 Y146.748 E2352.42949
G1 X94.875 Y78.149 E2360.66137
G0 F9000.00000 X95.275 Y78.549
G1 F3000.000 X135.574 Y78.549 E2365.49725
G1 X135.574 Y146.348 E2373.63313
G1 X95.275 Y146.348 E2378.46901
G1 X95.275 Y78.549 E2386.60489
G0 F9000.00000 X95.675 Y78.949
G1 F3000.000 X135.174 Y78.949 E2391.34477
G1 X135.174 Y145.948 E2399.38465
G1 X95.675 Y145.948 E2404.12453
G1 X95.675 Y78.949 E2412.16441
G0 F9000.00000 X96.075 Y79.349
G1 F3000.000 X134.774 Y79.349 E2416.80829
G1 X134.774 Y145.548 E2424.75217
G1 X96.075 Y145.548 E2429.39605
G1 X96.075 Y79.349 E2437.33993
G0 F9000.00000 X96.475 Y79.749
G1 F3000.000 X134.374 Y79.749 E2441.88781
G1 X134.374 Y145.148 E2449.73569
G1 X96.475 Y145.148 E2454.28357
G1 X96.475 Y79.749 E2462.13145
G0 F9000.00000 X96.875 Y80.149
G1 F3000.000 X133.974 Y80.149 E2466.58333
G1 X133.974 Y144.748 E2474.33521
G1 X96.875 Y144.748 E2478.78709
G1 X96.875 Y80.149 E2486.53897
G0 F9000.00000 X97.275 Y80.549
G1 F3000.000 X133.574 Y80.549 E2490.89485
G1 X133.574 Y144.348 E2498.55073
G1 X97.275 Y144.348 E2502.90661
G1 X97.275 Y80.549 E2510.56249
G0 F9000.00000 X97.675 Y80.949
G1 F3000.000 X133.174 Y80.949 E2514.82237
G1 X133.174 Y143.948 E2522.38225
