;FLAVOR:UltiGCode
;TIME:11731
;MATERIAL:36240
;MATERIAL2:0
;POSTPROCESSED
;Generated with Cura_SteamEngine 1.99.0-dev.20151117
;LAYER_COUNT:38
;LAYER:0
M107
G0 F9000.000000 X52.770 Y53.513 Z0.300
G0 X55.457 Y52.594
;TYPE:SKIRT
G1 F1800.000 X64.293 Y52.594 E1.06032
G1 X64.999 Y52.604 E1.14505
G1 X65.156 Y52.611 E1.16391
G1 X65.473 Y52.640 E1.20211
G1 X65.495 Y52.643 E1.20477
G1 X65.506 Y52.645 E1.20611
G1 X65.656 Y52.676 E1.22449
G1 X65.955 Y52.753 E1.26154
G1 X66.008 Y52.768 E1.26815
G1 X66.139 Y52.818 E1.28498
G1 X66.454 Y52.955 E1.32620
G1 X66.627 Y53.035 E1.34907
G1 X69.207 Y54.194 E1.68848
G1 X71.818 Y55.280 E2.02782
G1 X74.460 Y56.291 E2.36728
G1 X77.128 Y57.227 E2.70657
G1 X79.823 Y58.088 E3.04607
G1 X82.540 Y58.872 E3.38541
G1 X85.279 Y59.578 E3.72484
G1 X88.036 Y60.207 E4.06418
G1 X90.811 Y60.758 E4.40368
G1 X93.599 Y61.230 E4.74300
G1 X96.400 Y61.623 E5.08241
G1 X99.211 Y61.937 E5.42183
G1 X102.030 Y62.171 E5.76127
G1 X104.854 Y62.325 E6.10066
G1 X108.895 Y62.407 E6.58568
G1 X121.102 Y62.407 E8.05052
G1 X123.930 Y62.367 E8.38991
G1 X126.756 Y62.247 E8.72934
G1 X129.577 Y62.047 E9.06871
G1 X132.392 Y61.768 E9.40816
G1 X135.197 Y61.409 E9.74751
G1 X137.991 Y60.970 E10.08690
G1 X140.772 Y60.453 E10.42634
G1 X143.537 Y59.858 E10.76573
G1 X146.284 Y59.184 E11.10515
G1 X149.011 Y58.434 E11.44454
G1 X151.715 Y57.606 E11.78389
G1 X154.395 Y56.702 E12.12330
G1 X157.049 Y55.723 E12.46275
G1 X159.674 Y54.669 E12.80220
G1 X162.267 Y53.541 E13.14152
G1 X163.360 Y53.035 E13.28606
G1 X163.717 Y52.878 E13.33286
G1 X164.040 Y52.752 E13.37446
G1 X164.058 Y52.746 E13.37674
G1 X164.178 Y52.715 E13.39161
G1 X164.465 Y52.653 E13.42685
G1 X164.981 Y52.605 E13.48903
G1 X165.001 Y52.604 E13.49144
G1 X165.247 Y52.596 E13.52097
G1 X165.457 Y52.594 E13.54617
G1 X174.293 Y52.594 E14.60649
G1 X174.999 Y52.604 E14.69122
G1 X175.156 Y52.611 E14.71008
G1 X175.473 Y52.640 E14.74828
G1 X175.495 Y52.643 E14.75094
G1 X175.506 Y52.645 E14.75228
G1 X175.656 Y52.676 E14.77067
G1 X175.955 Y52.753 E14.80772
G1 X176.008 Y52.768 E14.81433
G1 X176.139 Y52.818 E14.83115
G1 X176.450 Y52.953 E14.87184
G1 X176.454 Y52.954 E14.87233
G1 X176.482 Y52.969 E14.87614
G1 X176.584 Y53.028 E14.89028
G1 X176.873 Y53.212 E14.93140
G1 X176.874 Y53.213 E14.93156
G1 X176.881 Y53.218 E14.93260
G1 X177.030 Y53.339 E14.95563
G1 X177.254 Y53.537 E14.99151
G1 X177.280 Y53.563 E14.99592
G1 X177.360 Y53.652 E15.01028
G1 X177.579 Y53.919 E15.05172
G1 X177.588 Y53.930 E15.05342
G1 X177.599 Y53.945 E15.05566
G1 X177.676 Y54.065 E15.07277
G1 X177.850 Y54.363 E15.11417
G1 X177.855 Y54.371 E15.11531
G1 X177.916 Y54.511 E15.13363
G1 X178.041 Y54.831 E15.17486
G1 X178.048 Y54.852 E15.17751
G1 X178.079 Y54.972 E15.19239
G1 X178.141 Y55.259 E15.22762
G1 X178.189 Y55.775 E15.28981
G1 X178.190 Y55.794 E15.29209
G1 X178.198 Y56.041 E15.32175
G1 X178.200 Y56.200 E15.34083
G1 X178.200 Y61.192 E15.93987
G1 X178.251 Y64.373 E16.32164
G1 X178.298 Y65.853 E16.49933
G1 X178.300 Y66.064 E16.52465
G1 X178.300 Y158.599 E27.62885
G1 X178.290 Y159.305 E27.71358
G1 X178.210 Y162.132 E28.05295
G1 X178.200 Y163.547 E28.22276
G1 X178.200 Y168.412 E28.80656
G1 X178.190 Y169.118 E28.89129
G1 X178.183 Y169.275 E28.91014
G1 X178.154 Y169.592 E28.94834
G1 X178.151 Y169.614 E28.95101
G1 X178.150 Y169.623 E28.95209
G1 X178.121 Y169.762 E28.96913
G1 X178.039 Y170.080 E29.00854
G1 X178.030 Y170.114 E29.01276
G1 X178.027 Y170.124 E29.01402
G1 X177.976 Y170.258 E29.03122
G1 X177.841 Y170.569 E29.07191
G1 X177.840 Y170.573 E29.07240
G1 X177.825 Y170.601 E29.07621
G1 X177.766 Y170.703 E29.09035
G1 X177.588 Y170.982 E29.13007
G1 X177.576 Y171.001 E29.13276
G1 X177.455 Y171.149 E29.15570
G1 X177.258 Y171.372 E29.19141
G1 X177.231 Y171.399 E29.19599
G1 X177.147 Y171.475 E29.20958
G1 X176.860 Y171.710 E29.25410
G1 X176.858 Y171.712 E29.25444
G1 X176.848 Y171.718 E29.25584
G1 X176.729 Y171.795 E29.27284
G1 X176.426 Y171.972 E29.31495
G1 X176.416 Y171.977 E29.31629
G1 X176.283 Y172.035 E29.33371
G1 X175.963 Y172.160 E29.37493
G1 X175.961 Y172.161 E29.37520
G1 X175.942 Y172.167 E29.37759
G1 X175.822 Y172.198 E29.39246
G1 X175.535 Y172.260 E29.42770
G1 X175.019 Y172.308 E29.48989
G1 X174.999 Y172.309 E29.49229
G1 X174.753 Y172.317 E29.52182
G1 X174.543 Y172.319 E29.54703
G1 X165.707 Y172.319 E30.60735
G1 X165.001 Y172.309 E30.69207
G1 X164.844 Y172.302 E30.71093
G1 X164.527 Y172.273 E30.74913
G1 X164.505 Y172.270 E30.75180
G1 X164.494 Y172.268 E30.75314
G1 X164.344 Y172.237 E30.77152
G1 X164.039 Y172.158 E30.80933
G1 X163.992 Y172.145 E30.81518
G1 X163.859 Y172.094 E30.83227
G1 X163.546 Y171.958 E30.87322
G1 X163.373 Y171.878 E30.89610
G1 X160.793 Y170.719 E31.23550
G1 X158.182 Y169.633 E31.57484
G1 X155.540 Y168.622 E31.91430
G1 X152.872 Y167.686 E32.25359
G1 X150.177 Y166.825 E32.59310
G1 X147.460 Y166.041 E32.93244
G1 X144.721 Y165.335 E33.27186
G1 X141.964 Y164.706 E33.61120
G1 X139.189 Y164.155 E33.95070
G1 X136.401 Y163.683 E34.29002
G1 X133.600 Y163.290 E34.62944
G1 X130.789 Y162.976 E34.96885
G1 X127.970 Y162.742 E35.30830
G1 X125.146 Y162.588 E35.64768
G1 X121.105 Y162.506 E36.13270
G1 X108.994 Y162.506 E37.58602
G1 X106.166 Y162.546 E37.92541
G1 X103.340 Y162.666 E38.26484
G1 X100.519 Y162.866 E38.60421
G1 X97.704 Y163.145 E38.94366
G1 X94.899 Y163.504 E39.28301
G1 X92.105 Y163.943 E39.62240
G1 X89.324 Y164.460 E39.96184
G1 X86.559 Y165.055 E40.30124
G1 X83.812 Y165.729 E40.64065
G1 X81.085 Y166.479 E40.98004
G1 X78.381 Y167.307 E41.31940
G1 X75.701 Y168.211 E41.65880
G1 X73.047 Y169.190 E41.99826
G1 X70.422 Y170.244 E42.33770
G1 X67.829 Y171.372 E42.67703
G1 X66.481 Y171.996 E42.85528
G1 X66.196 Y172.122 E42.89267
G1 X65.876 Y172.247 E42.93390
G1 X65.874 Y172.248 E42.93417
G1 X65.855 Y172.254 E42.93656
G1 X65.740 Y172.284 E42.95082
G1 X65.448 Y172.347 E42.98666
G1 X64.932 Y172.395 E43.04885
G1 X64.912 Y172.396 E43.05126
G1 X64.666 Y172.404 E43.08079
G1 X64.456 Y172.406 E43.10599
G1 X55.707 Y172.406 E44.15587
G1 X55.001 Y172.396 E44.24060
G1 X54.844 Y172.389 E44.25946
G1 X54.527 Y172.360 E44.29766
G1 X54.505 Y172.357 E44.30032
G1 X54.494 Y172.355 E44.30166
G1 X54.344 Y172.324 E44.32004
G1 X54.039 Y172.245 E44.35785
G1 X53.992 Y172.232 E44.36370
G1 X53.859 Y172.181 E44.38080
G1 X53.550 Y172.047 E44.42121
G1 X53.546 Y172.046 E44.42171
G1 X53.518 Y172.031 E44.42552
G1 X53.416 Y171.972 E44.43966
G1 X53.126 Y171.787 E44.48094
G1 X53.115 Y171.779 E44.48257
G1 X53.111 Y171.776 E44.48317
G1 X52.970 Y171.661 E44.50500
G1 X52.746 Y171.463 E44.54088
G1 X52.721 Y171.438 E44.54512
G1 X52.708 Y171.424 E44.54742
G1 X52.639 Y171.347 E44.55982
G1 X52.409 Y171.066 E44.60340
G1 X52.401 Y171.055 E44.60503
G1 X52.401 Y171.054 E44.60515
G1 X52.324 Y170.935 E44.62216
G1 X52.147 Y170.632 E44.66427
G1 X52.142 Y170.621 E44.66572
G1 X52.084 Y170.489 E44.68302
G1 X51.958 Y170.166 E44.72462
G1 X51.952 Y170.148 E44.72690
G1 X51.921 Y170.028 E44.74177
G1 X51.859 Y169.741 E44.77701
G1 X51.811 Y169.225 E44.83920
G1 X51.809 Y169.190 E44.84340
G1 X51.802 Y168.959 E44.87114
G1 X51.800 Y168.741 E44.89730
G1 X51.800 Y163.721 E45.49970
G1 X51.749 Y160.540 E45.88147
G1 X51.702 Y159.060 E46.05915
G1 X51.700 Y158.849 E46.08448
G1 X51.700 Y66.314 E57.18868
G1 X51.710 Y65.607 E57.27352
G1 X51.790 Y62.781 E57.61278
G1 X51.800 Y61.366 E57.78258
G1 X51.800 Y56.501 E58.36638
G1 X51.810 Y55.794 E58.45123
G1 X51.817 Y55.630 E58.47093
G1 X51.846 Y55.321 E58.50817
G1 X51.850 Y55.290 E58.51192
G1 X51.852 Y55.280 E58.51315
G1 X51.882 Y55.138 E58.53056
G1 X51.961 Y54.831 E58.56860
G1 X51.974 Y54.786 E58.57423
G1 X52.024 Y54.655 E58.59105
G1 X52.160 Y54.341 E58.63211
G1 X52.175 Y54.312 E58.63603
G1 X52.234 Y54.210 E58.65017
G1 X52.425 Y53.911 E58.69275
G1 X52.426 Y53.910 E58.69292
G1 X52.545 Y53.764 E58.71552
G1 X52.743 Y53.540 E58.75140
G1 X52.770 Y53.513 E58.75598
G1 X52.860 Y53.432 E58.77051
G1 X53.140 Y53.203 E58.81391
G1 X53.142 Y53.201 E58.81425
G1 X53.152 Y53.195 E58.81565
G1 X53.271 Y53.118 E58.83266
G1 X53.574 Y52.941 E58.87477
G1 X53.589 Y52.934 E58.87676
G1 X53.717 Y52.878 E58.89352
G1 X54.040 Y52.752 E58.93513
G1 X54.058 Y52.746 E58.93740
G1 X54.178 Y52.715 E58.95228
G1 X54.465 Y52.653 E58.98751
G1 X54.981 Y52.605 E59.04970
G1 X55.001 Y52.604 E59.05210
G1 X55.247 Y52.596 E59.08164
G1 X55.457 Y52.594 E59.10684
G10
G0 F9000.00000 X55.606 Y54.253
G0 X56.785 Y67.347
G0 X56.800 Y67.507
;TYPE:SUPPORT
G11
G1 F3000.000 X173.200 Y67.507 E73.07484
G1 X173.200 Y157.406 E83.86272
G1 X56.800 Y157.406 E97.83072
G1 X56.800 Y67.507 E108.61860
G0 F9000.00000 X57.400 Y68.807
G0 X58.100 Y68.807
G1 F3000.000 X58.100 Y156.106 E119.09448
G1 X171.900 Y156.106 E132.75048
G1 X171.900 Y68.807 E143.22636
G1 X58.100 Y68.807 E156.88236
G10
G0 F9000.00000 X57.400 Y68.807
G0 X57.472 Y68.179
G0 X57.518 Y68.245
G0 X57.726 Y67.266
G0 X58.100 Y65.467
G0 X55.270 Y65.437
G0 X55.200 Y65.507
;TYPE:WALL-OUTER
G11
G1 F3000.000 X55.200 Y55.994 E158.02392
G1 X64.800 Y55.994 E159.17592
G1 X64.800 Y65.507 E160.31748
G1 X55.200 Y65.507 E161.46948
G0 F9000.00000 X55.270 Y65.407
G0 X57.628 Y61.355
G0 X57.724 Y61.331
G1 F3000.000 X57.875 Y61.751 E161.52304
G1 X58.102 Y62.135 E161.57657
G1 X58.379 Y62.453 E161.62717
G1 X58.753 Y62.740 E161.68375
G1 X59.151 Y62.940 E161.73720
G1 X59.557 Y63.060 E161.78800
G1 X60.027 Y63.099 E161.84459
G1 X60.471 Y63.052 E161.89817
G1 X60.899 Y62.921 E161.95188
G1 X61.294 Y62.712 E162.00551
G1 X61.639 Y62.433 E162.05875
G1 X61.916 Y62.115 E162.10936
G1 X62.139 Y61.727 E162.16306
G1 X62.285 Y61.304 E162.21676
G1 X62.349 Y60.862 E162.27035
G1 X62.322 Y60.390 E162.32709
G1 X62.211 Y59.956 E162.38084
G1 X62.021 Y59.552 E162.43442
G1 X61.758 Y59.194 E162.48772
G1 X61.454 Y58.901 E162.53839
G1 X61.054 Y58.652 E162.59493
G1 X60.663 Y58.495 E162.64549
G1 X60.229 Y58.411 E162.69854
G1 X59.999 Y58.400 E162.72617
G1 X59.744 Y58.415 E162.75682
G1 X59.313 Y58.505 E162.80966
G1 X58.900 Y58.675 E162.86325
G1 X58.528 Y58.920 E162.91670
G1 X58.224 Y59.212 E162.96729
G1 X57.964 Y59.575 E163.02087
G1 X57.773 Y60.006 E163.07744
G1 X57.673 Y60.417 E163.12820
G1 X57.655 Y60.890 E163.18500
G1 X57.724 Y61.331 E163.23856
G0 F9000.00000 X57.628 Y61.355
G0 X57.616 Y59.372
;TYPE:SKIN
G1 F3000.000 X57.393 Y59.877 E163.30481
G1 X57.275 Y60.361 E163.36459
G1 X57.254 Y60.913 E163.43088
G1 X57.335 Y61.434 E163.49415
G1 X57.511 Y61.921 E163.55629
G1 X57.775 Y62.369 E163.61869
G1 X58.103 Y62.744 E163.67847
G1 X58.540 Y63.080 E163.74462
G1 X59.003 Y63.313 E163.80682
G1 X59.487 Y63.456 E163.86738
G1 X60.029 Y63.501 E163.93264
G1 X60.553 Y63.446 E163.99587
G1 X61.052 Y63.293 E164.05850
G1 X61.515 Y63.048 E164.12136
G1 X61.917 Y62.723 E164.18339
G1 X62.244 Y62.349 E164.24301
G1 X62.507 Y61.891 E164.30639
G1 X62.675 Y61.400 E164.36866
G1 X62.751 Y60.882 E164.43148
G1 X62.719 Y60.325 E164.49843
G1 X62.589 Y59.821 E164.56089
G1 X62.367 Y59.348 E164.62360
G1 X62.058 Y58.927 E164.68626
G1 X61.704 Y58.585 E164.74533
G1 X61.234 Y58.294 E164.81166
G1 X60.778 Y58.110 E164.87067
G1 X60.276 Y58.013 E164.93203
G1 X59.997 Y58.000 E164.96554
G1 X59.689 Y58.017 E165.00256
G1 X59.195 Y58.121 E165.06314
G1 X58.711 Y58.320 E165.12593
G1 X58.281 Y58.604 E165.18777
G1 X57.919 Y58.952 E165.24803
G1 X57.616 Y59.372 E165.31018
G0 F9000.00000 X58.033 Y58.288
G1 F3000.000 X57.614 Y58.691 E165.37994
G1 X57.269 Y59.170 E165.45078
G1 X57.013 Y59.749 E165.52675
G1 X56.877 Y60.305 E165.59543
G1 X56.853 Y60.936 E165.67121
G1 X56.946 Y61.536 E165.74407
G1 X57.147 Y62.092 E165.81501
G1 X57.448 Y62.603 E165.88618
G1 X57.827 Y63.036 E165.95523
G1 X58.327 Y63.420 E166.03089
G1 X58.855 Y63.685 E166.10178
G1 X59.417 Y63.852 E166.17213
G1 X60.031 Y63.903 E166.24607
G1 X60.633 Y63.840 E166.31870
G1 X61.207 Y63.664 E166.39075
G1 X61.736 Y63.383 E166.46263
G1 X62.195 Y63.013 E166.53337
G1 X62.571 Y62.583 E166.60192
G1 X62.874 Y62.054 E166.67507
G1 X63.065 Y61.496 E166.74585
G1 X63.152 Y60.902 E166.81789
G1 X63.116 Y60.260 E166.89505
G1 X62.967 Y59.686 E166.96621
G1 X62.713 Y59.144 E167.03804
G1 X62.358 Y58.660 E167.11007
G1 X61.953 Y58.269 E167.17762
G1 X61.414 Y57.936 E167.25365
G1 X60.893 Y57.725 E167.32110
G1 X60.323 Y57.615 E167.39076
G1 X59.996 Y57.599 E167.43005
G1 X59.634 Y57.619 E167.47356
G1 X59.075 Y57.737 E167.54212
G1 X58.524 Y57.964 E167.61363
G1 X58.033 Y58.288 E167.68422
G0 F9000.00000 X56.400 Y62.079
G1 F3000.000 X56.698 Y62.027 E167.72052
G1 X56.784 Y62.264 E167.75077
G1 X57.121 Y62.837 E167.83054
G1 X57.551 Y63.328 E167.90886
G1 X58.116 Y63.762 E167.99436
G1 X58.651 Y64.030 E168.06616
G1 X58.585 Y64.307 E168.10033
G1 X56.400 Y64.307 E168.36253
G1 X56.400 Y62.079 E168.62989
G0 F9000.00000 X57.341 Y63.696
G1 F3000.000 X57.245 Y63.907 E168.65771
G1 X56.800 Y63.907 E168.71111
G1 X56.800 Y63.431 E168.76823
G1 X57.034 Y63.344 E168.79819
G1 X57.341 Y63.696 E168.85424
G0 F9000.00000 X56.000 Y64.707
G1 F3000.000 X56.000 Y56.794 E169.80380
G1 X64.000 Y56.794 E170.76380
G1 X64.000 Y64.707 E171.71336
G1 X56.000 Y64.707 E172.67336
G0 F9000.00000 X55.600 Y65.107
G1 F3000.000 X55.600 Y56.394 E173.71892
G1 X64.400 Y56.394 E174.77492
G1 X64.400 Y65.107 E175.82048
G1 X55.600 Y65.107 E176.87648
G0 F9000.00000 X56.686 Y59.500
G1 F3000.000 X56.400 Y59.440 E176.91154
G1 X56.400 Y57.194 E177.18106
G1 X58.581 Y57.194 E177.44278
G1 X58.638 Y57.484 E177.47825
G1 X58.335 Y57.609 E177.51758
G1 X57.785 Y57.972 E177.59666
G1 X57.309 Y58.430 E177.67593
G1 X56.922 Y58.968 E177.75546
G1 X56.686 Y59.500 E177.82530
G0 F9000.00000 X57.366 Y57.819
G1 F3000.000 X57.019 Y58.154 E177.88317
G1 X56.800 Y58.061 E177.91173
G1 X56.800 Y57.594 E177.96777
G1 X57.275 Y57.594 E178.02477
G1 X57.366 Y57.819 E178.05389
G0 F9000.00000 X61.599 Y57.580
G1 F3000.000 X61.366 Y57.485 E178.08409
G1 X61.423 Y57.194 E178.11967
G1 X63.600 Y57.194 E178.38091
G1 X63.600 Y59.430 E178.64923
G1 X63.318 Y59.493 E178.68390
G1 X63.058 Y58.938 E178.75745
G1 X62.660 Y58.396 E178.83814
G1 X62.200 Y57.950 E178.91503
G1 X61.599 Y57.580 E178.99972
G0 F9000.00000 X63.200 Y58.055
G1 F3000.000 X62.981 Y58.148 E179.02827
G1 X62.640 Y57.819 E179.08513
G1 X62.731 Y57.594 E179.11426
G1 X63.200 Y57.594 E179.17054
G1 X63.200 Y58.055 E179.22586
G0 F9000.00000 X62.967 Y63.347
G1 F3000.000 X63.200 Y63.434 E179.25570
G1 X63.200 Y63.907 E179.31246
G1 X62.743 Y63.907 E179.36730
G1 X62.659 Y63.666 E179.39793
G1 X62.752 Y63.592 E179.41219
G1 X62.967 Y63.347 E179.45130
G0 F9000.00000 X63.240 Y62.220
G1 F3000.000 X63.299 Y62.047 E179.47324
G1 X63.600 Y62.097 E179.50985
G1 X63.600 Y64.307 E179.77505
G1 X61.430 Y64.307 E180.03545
G1 X61.362 Y64.034 E180.06921
G1 X61.957 Y63.718 E180.15006
G1 X62.473 Y63.303 E180.22952
G1 X62.900 Y62.815 E180.30733
G1 X63.240 Y62.220 E180.38957
G0 F9000.00000 X63.308 Y62.742
G1 X63.111 Y63.111 E180.42082
G1 X62.270 Y63.967 E180.53890
G1 F8591.88544 X60.878 Y64.272 E180.71802
G1 F8163.26531 X60.339 Y64.299 E180.78942
G1 F9000.00000 X59.759 Y64.284 E180.85852
G1 F8314.08776 X59.142 Y64.233 E180.93894
G1 F8759.12409 X58.805 Y64.462 E180.98918
G1 F9000.00000 X57.706 Y63.929 E181.02326
G0 X56.771 Y62.994
G1 X56.463 Y61.554 E181.16463
G1 F7578.94737 X56.446 Y60.971 E181.24774
G1 F8071.74888 X56.432 Y60.391 E181.32536
G1 F7302.23124 X56.465 Y59.860 E181.40405
G1 F9000.00000 X56.653 Y58.916 E181.50107
G1 X56.763 Y58.460 E181.53429
G1 F8294.93088 X57.591 Y57.591 E181.69057
G1 F9000.00000 X58.028 Y57.462 E181.72652
G1 X58.982 Y57.285 E181.81763
G1 F7594.93671 X59.467 Y57.205 E181.88752
G1 F8977.55611 X60.030 Y57.202 E181.95525
G1 F8801.95599 X60.653 Y57.258 E182.03200
G1 F7692.30769 X61.081 Y57.121 E182.09510
G1 F9000.00000 X62.101 Y57.576 E182.14368
G1 X62.525 Y57.434 E182.17802
G1 X63.152 Y58.626 E182.22328
G1 X63.355 Y58.264 E182.26897
G1 X63.696 Y59.736 E182.31158
G1 F7086.61417 X63.504 Y60.110 E182.37565
G1 F7843.13725 X63.564 Y60.736 E182.46225
G1 F7982.26164 X63.563 Y61.300 E182.53856
G1 F7392.19713 X63.419 Y61.722 E182.60370
G0 F9000.00000 X63.262 Y61.565
G10
G0 X59.270 Y65.467
G0 X59.270 Y65.507
G0 X59.270 Y67.267
G0 X59.270 Y68.247
G0 X59.270 Y69.947
G0 X59.270 Y69.977
G0 X59.200 Y69.907
;TYPE:WALL-OUTER
G11
G1 F3000.000 X170.800 Y69.907 E195.99570
