;FLAVOR:UltiGCode
;TIME:3110
;MATERIAL:6387
;MATERIAL2:0
;POSTPROCESSED
;Generated with Cura_SteamEngine 1.99.0-dev.20151117
;LAYER_COUNT:38
;LAYER:0
M107
G0 F9000.000000 X52.770 Y53.513 Z0.300
G0 X55.457 Y52.594
;TYPE:SKIRT
G1 F1800.000 X64.293 Y52.594 E1.06032
G1 X64.999 Y52.604 E1.14505
G1 X65.156 Y52.611 E1.16391
G1 X65.473 Y52.640 E1.20211
G1 X65.495 Y52.643 E1.20477
G1 X65.506 Y52.645 E1.20611
G1 X65.656 Y52.676 E1.22449
G1 X65.955 Y52.753 E1.26154
G1 X66.008 Y52.768 E1.26815
G1 X66.139 Y52.818 E1.28498
G1 X66.454 Y52.955 E1.32620
G1 X66.627 Y53.035 E1.34907
G1 X69.207 Y54.194 E1.68848
G1 X71.818 Y55.280 E2.02782
G1 X74.460 Y56.291 E2.36728
G1 X77.128 Y57.227 E2.70657
G1 X79.823 Y58.088 E3.04607
G1 X82.540 Y58.872 E3.38541
G1 X85.279 Y59.578 E3.72484
G1 X88.036 Y60.207 E4.06418
G1 X90.811 Y60.758 E4.40368
G1 X93.599 Y61.230 E4.74300
G1 X96.400 Y61.623 E5.08241
G1 X99.211 Y61.937 E5.42183
G1 X102.030 Y62.171 E5.76127
G1 X104.854 Y62.325 E6.10066
G1 X108.895 Y62.407 E6.58568
G1 X121.102 Y62.407 E8.05052
G1 X123.930 Y62.367 E8.38991
G1 X126.756 Y62.247 E8.72934
G1 X129.577 Y62.047 E9.06871
G1 X132.392 Y61.768 E9.40816
G1 X135.197 Y61.409 E9.74751
G1 X137.991 Y60.970 E10.08690
G1 X140.772 Y60.453 E10.42634
G1 X143.537 Y59.858 E10.76573
G1 X146.284 Y59.184 E11.10515
G1 X149.011 Y58.434 E11.44454
G1 X151.715 Y57.606 E11.78389
G1 X154.395 Y56.702 E12.12330
G1 X157.049 Y55.723 E12.46275
G1 X159.674 Y54.669 E12.80220
G1 X162.267 Y53.541 E13.14152
G1 X163.360 Y53.035 E13.28606
G1 X163.717 Y52.878 E13.33286
G1 X164.040 Y52.752 E13.37446
G1 X164.058 Y52.746 E13.37674
G1 X164.178 Y52.715 E13.39161
G1 X164.465 Y52.653 E13.42685
G1 X164.981 Y52.605 E13.48903
G1 X165.001 Y52.604 E13.49144
G1 X165.247 Y52.596 E13.52097
G1 X165.457 Y52.594 E13.54617
G1 X174.293 Y52.594 E14.60649
G1 X174.999 Y52.604 E14.69122
G1 X175.156 Y52.611 E14.71008
G1 X175.473 Y52.640 E14.74828
G1 X175.495 Y52.643 E14.75094
G1 X175.506 Y52.645 E14.75228
G1 X175.656 Y52.676 E14.77067
G1 X175.955 Y52.753 E14.80772
G1 X176.008 Y52.768 E14.81433
G1 X176.139 Y52.818 E14.83115
G1 X176.450 Y52.953 E14.87184
G1 X176.454 Y52.954 E14.87233
G1 X176.482 Y52.969 E14.87614
G1 X176.584 Y53.028 E14.89028
G1 X176.873 Y53.212 E14.93140
G1 X176.874 Y53.213 E14.93156
G1 X176.881 Y53.218 E14.93260
G1 X177.030 Y53.339 E14.95563
G1 X177.254 Y53.537 E14.99151
G1 X177.280 Y53.563 E14.99592
G1 X177.360 Y53.652 E15.01028
G1 X177.579 Y53.919 E15.05172
G1 X177.588 Y53.930 E15.05342
G1 X177.599 Y53.945 E15.05566
G1 X177.676 Y54.065 E15.07277
G1 X177.850 Y54.363 E15.11417
G1 X177.855 Y54.371 E15.11531
G1 X177.916 Y54.511 E15.13363
G1 X178.041 Y54.831 E15.17486
G1 X178.048 Y54.852 E15.17751
G1 X178.079 Y54.972 E15.19239
G1 X178.141 Y55.259 E15.22762
G1 X178.189 Y55.775 E15.28981
G1 X178.190 Y55.794 E15.29209
G1 X178.198 Y56.041 E15.32175
G1 X178.200 Y56.200 E15.34083
G1 X178.200 Y61.192 E15.93987
G1 X178.251 Y64.373 E16.32164
G1 X178.298 Y65.853 E16.49933
G1 X178.300 Y66.064 E16.52465
G1 X178.300 Y158.599 E27.62885
G1 X178.290 Y159.305 E27.71358
G1 X178.210 Y162.132 E28.05295
G1 X178.200 Y163.547 E28.22276
G1 X178.200 Y168.412 E28.80656
G1 X178.190 Y169.118 E28.89129
G1 X178.183 Y169.275 E28.91014
G1 X178.154 Y169.592 E28.94834
G1 X178.151 Y169.614 E28.95101
G1 X178.150 Y169.623 E28.95209
G1 X178.121 Y169.762 E28.96913
G1 X178.039 Y170.080 E29.00854
G1 X178.030 Y170.114 E29.01276
G1 X178.027 Y170.124 E29.01402
G1 X177.976 Y170.258 E29.03122
G1 X177.841 Y170.569 E29.07191
G1 X177.840 Y170.573 E29.07240
G1 X177.825 Y170.601 E29.07621
G1 X177.766 Y170.703 E29.09035
G1 X177.588 Y170.982 E29.13007
G1 X177.576 Y171.001 E29.13276
G1 X177.455 Y171.149 E29.15570
G1 X177.258 Y171.372 E29.19141
G1 X177.231 Y171.399 E29.19599
G1 X177.147 Y171.475 E29.20958
G1 X176.860 Y171.710 E29.25410
G1 X176.858 Y171.712 E29.25444
G1 X176.848 Y171.718 E29.25584
G1 X176.729 Y171.795 E29.27284
G1 X176.426 Y171.972 E29.31495
G1 X176.416 Y171.977 E29.31629
G1 X176.283 Y172.035 E29.33371
G1 X175.963 Y172.160 E29.37493
G1 X175.961 Y172.161 E29.37520
G1 X175.942 Y172.167 E29.37759
G1 X175.822 Y172.198 E29.39246
G1 X175.535 Y172.260 E29.42770
G1 X175.019 Y172.308 E29.48989
G1 X174.999 Y172.309 E29.49229
G1 X174.753 Y172.317 E29.52182
G1 X174.543 Y172.319 E29.54703
G1 X165.707 Y172.319 E30.60735
G1 X165.001 Y172.309 E30.69207
G1 X164.844 Y172.302 E30.71093
G1 X164.527 Y172.273 E30.74913
G1 X164.505 Y172.270 E30.75180
G1 X164.494 Y172.268 E30.75314
G1 X164.344 Y172.237 E30.77152
G1 X164.039 Y172.158 E30.80933
G1 X163.992 Y172.145 E30.81518
G1 X163.859 Y172.094 E30.83227
G1 X163.546 Y171.958 E30.87322
G1 X163.373 Y171.878 E30.89610
G1 X160.793 Y170.719 E31.23550
G1 X158.182 Y169.633 E31.57484
G1 X155.540 Y168.622 E31.91430
G1 X152.872 Y167.686 E32.25359
G1 X150.177 Y166.825 E32.59310
G1 X147.460 Y166.041 E32.93244
G1 X144.721 Y165.335 E33.27186
G1 X141.964 Y164.706 E33.61120
G1 X139.189 Y164.155 E33.95070
G1 X136.401 Y163.683 E34.29002
G1 X133.600 Y163.290 E34.62944
G1 X130.789 Y162.976 E34.96885
G1 X127.970 Y162.742 E35.30830
G1 X125.146 Y162.588 E35.64768
G1 X121.105 Y162.506 E36.13270
G1 X108.994 Y162.506 E37.58602
G1 X106.166 Y162.546 E37.92541
G1 X103.340 Y162.666 E38.26484
G1 X100.519 Y162.866 E38.60421
G1 X97.704 Y163.145 E38.94366
G1 X94.899 Y163.504 E39.28301
G1 X92.105 Y163.943 E39.62240
G1 X89.324 Y164.460 E39.96184
G1 X86.559 Y165.055 E40.30124
G1 X83.812 Y165.729 E40.64065
G1 X81.085 Y166.479 E40.98004
G1 X78.381 Y167.307 E41.31940
G1 X75.701 Y168.211 E41.65880
G1 X73.047 Y169.190 E41.99826
G1 X70.422 Y170.244 E42.33770
G1 X67.829 Y171.372 E42.67703
G1 X66.481 Y171.996 E42.85528
G1 X66.196 Y172.122 E42.89267
G1 X65.876 Y172.247 E42.93390
G1 X65.874 Y172.248 E42.93417
G1 X65.855 Y172.254 E42.93656
G1 X65.740 Y172.284 E42.95082
G1 X65.448 Y172.347 E42.98666
G1 X64.932 Y172.395 E43.04885
G1 X64.912 Y172.396 E43.05126
G1 X64.666 Y172.404 E43.08079
G1 X64.456 Y172.406 E43.10599
G1 X55.707 Y172.406 E44.15587
G1 X55.001 Y172.396 E44.24060
G1 X54.844 Y172.389 E44.25946
G1 X54.527 Y172.360 E44.29766
G1 X54.505 Y172.357 E44.30032
G1 X54.494 Y172.355 E44.30166
G1 X54.344 Y172.324 E44.32004
G1 X54.039 Y172.245 E44.35785
G1 X53.992 Y172.232 E44.36370
G1 X53.859 Y172.181 E44.38080
G1 X53.550 Y172.047 E44.42121
G1 X53.546 Y172.046 E44.42171
G1 X53.518 Y172.031 E44.42552
G1 X53.416 Y171.972 E44.43966
G1 X53.126 Y171.787 E44.48094
G1 X53.115 Y171.779 E44.48257
G1 X53.111 Y171.776 E44.48317
G1 X52.970 Y171.661 E44.50500
G1 X52.746 Y171.463 E44.54088
G1 X52.721 Y171.438 E44.54512
G1 X52.708 Y171.424 E44.54742
G1 X52.639 Y171.347 E44.55982
G1 X52.409 Y171.066 E44.60340
G1 X52.401 Y171.055 E44.60503
G1 X52.401 Y171.054 E44.60515
G1 X52.324 Y170.935 E44.62216
G1 X52.147 Y170.632 E44.66427
G1 X52.142 Y170.621 E44.66572
G1 X52.084 Y170.489 E44.68302
G1 X51.958 Y170.166 E44.72462
G1 X51.952 Y170.148 E44.72690
G1 X51.921 Y170.028 E44.74177
G1 X51.859 Y169.741 E44.77701
G1 X51.811 Y169.225 E44.83920
G1 X51.809 Y169.190 E44.84340
G1 X51.802 Y168.959 E44.87114
G1 X51.800 Y168.741 E44.89730
G1 X51.800 Y163.721 E45.49970
G1 X51.749 Y160.540 E45.88147
G1 X51.702 Y159.060 E46.05915
G1 X51.700 Y158.849 E46.08448
G1 X51.700 Y66.314 E57.18868
G1 X51.710 Y65.607 E57.27352
G1 X51.790 Y62.781 E57.61278
G1 X51.800 Y61.366 E57.78258
G1 X51.800 Y56.501 E58.36638
G1 X51.810 Y55.794 E58.45123
G1 X51.817 Y55.630 E58.47093
G1 X51.846 Y55.321 E58.50817
G1 X51.850 Y55.290 E58.51192
G1 X51.852 Y55.280 E58.51315
G1 X51.882 Y55.138 E58.53056
G1 X51.961 Y54.831 E58.56860
G1 X51.974 Y54.786 E58.57423
G1 X52.024 Y54.655 E58.59105
G1 X52.160 Y54.341 E58.63211
G1 X52.175 Y54.312 E58.63603
G1 X52.234 Y54.210 E58.65017
G1 X52.425 Y53.911 E58.69275
G1 X52.426 Y53.910 E58.69292
G1 X52.545 Y53.764 E58.71552
G1 X52.743 Y53.540 E58.75140
G1 X52.770 Y53.513 E58.75598
G1 X52.860 Y53.432 E58.77051
G1 X53.140 Y53.203 E58.81391
G1 X53.142 Y53.201 E58.81425
G1 X53.152 Y53.195 E58.81565
G1 X53.271 Y53.118 E58.83266
G1 X53.574 Y52.941 E58.87477
G1 X53.589 Y52.934 E58.87676
G1 X53.717 Y52.878 E58.89352
G1 X54.040 Y52.752 E58.93513
G1 X54.058 Y52.746 E58.93740
G1 X54.178 Y52.715 E58.95228
G1 X54.465 Y52.653 E58.98751
G1 X54.981 Y52.605 E59.04970
G1 X55.001 Y52.604 E59.05210
G1 X55.247 Y52.596 E59.08164
G1 X55.457 Y52.594 E59.10684
G10
G0 F9000.00000 X55.457 Y54.254
G0 X55.457 Y56.034
G0 X55.270 Y56.064
G0 X55.200 Y55.994
;TYPE:WALL-OUTER
G11
G1 F3000.000 X64.800 Y55.994 E60.25884
G1 X64.800 Y65.907 E61.44840
G1 X165.200 Y65.907 E73.49640
G1 X165.200 Y55.994 E74.68596
G1 X174.800 Y55.994 E75.83796
G1 X174.800 Y168.919 E89.38896
G1 X165.200 Y168.919 E90.54096
G1 X165.200 Y159.006 E91.73052
G1 X64.713 Y159.006 E103.78896
G1 X64.713 Y169.006 E104.98896
G1 X55.200 Y169.006 E106.13052
G1 X55.200 Y55.994 E119.69196
G0 F9000.00000 X55.300 Y56.064
G0 X58.854 Y58.587
G0 X58.900 Y58.675
G1 F3000.000 X58.528 Y58.920 E119.74541
G1 X58.224 Y59.212 E119.79599
G1 X57.964 Y59.575 E119.84957
G1 X57.773 Y60.006 E119.90615
G1 X57.673 Y60.417 E119.95690
G1 X57.655 Y60.890 E120.01371
G1 X57.724 Y61.331 E120.06727
G1 X57.875 Y61.751 E120.12083
G1 X58.102 Y62.135 E120.17436
G1 X58.379 Y62.453 E120.22496
G1 X58.753 Y62.740 E120.28154
G1 X59.151 Y62.940 E120.33499
G1 X59.557 Y63.060 E120.38579
G1 X60.027 Y63.099 E120.44238
G1 X60.471 Y63.052 E120.49596
G1 X60.899 Y62.921 E120.54967
G1 X61.294 Y62.712 E120.60330
G1 X61.639 Y62.433 E120.65654
G1 X61.916 Y62.115 E120.70715
G1 X62.139 Y61.727 E120.76085
G1 X62.285 Y61.304 E120.81455
G1 X62.349 Y60.862 E120.86814
G1 X62.322 Y60.390 E120.92488
G1 X62.211 Y59.956 E120.97863
G1 X62.021 Y59.552 E121.03221
G1 X61.758 Y59.194 E121.08551
G1 X61.454 Y58.901 E121.13618
G1 X61.054 Y58.652 E121.19272
G1 X60.663 Y58.495 E121.24328
G1 X60.229 Y58.411 E121.29633
G1 X59.999 Y58.400 E121.32396
G1 X59.744 Y58.415 E121.35461
G1 X59.313 Y58.505 E121.40745
G1 X58.900 Y58.675 E121.46104
G0 F9000.00000 X58.854 Y58.587
G0 X58.194 Y59.186
G0 X57.930 Y59.556
G0 X57.736 Y59.994
G0 X57.634 Y60.412
G0 X57.616 Y60.892
G0 X58.800 Y69.507
G1 F3000.000 X58.800 Y155.406 E131.76892
G1 X171.200 Y155.406 E145.25692
G1 X171.200 Y69.507 E155.56480
G1 X58.800 Y69.507 E169.05280
G0 F9000.00000 X58.730 Y69.437
G0 X58.772 Y155.434
G0 X59.596 Y161.885
G1 F3000.000 X59.163 Y161.995 E169.10641
G1 X58.759 Y162.185 E169.15999
G1 X58.400 Y162.448 E169.21339
G1 X58.109 Y162.753 E169.26398
G1 X57.867 Y163.129 E169.31763
G1 X57.701 Y163.543 E169.37116
G1 X57.618 Y163.978 E169.42430
G1 X57.607 Y164.207 E169.45181
G1 X57.622 Y164.461 E169.48234
G1 X57.711 Y164.894 E169.53539
G1 X57.882 Y165.306 E169.58892
G1 X58.127 Y165.678 E169.64237
G1 X58.417 Y165.983 E169.69288
G1 X58.782 Y166.243 E169.74665
G1 X59.213 Y166.434 E169.80322
G1 X59.624 Y166.533 E169.85395
G1 X60.096 Y166.551 E169.91063
G1 X60.537 Y166.482 E169.96420
G1 X60.958 Y166.332 E170.01783
G1 X61.341 Y166.104 E170.07132
G1 X61.658 Y165.829 E170.12168
G1 X61.935 Y165.477 E170.17543
G1 X62.140 Y165.080 E170.22904
G1 X62.265 Y164.651 E170.28266
G1 X62.308 Y164.205 E170.33643
G1 X62.258 Y163.735 E170.39315
G1 X62.128 Y163.308 E170.44671
G1 X61.919 Y162.913 E170.50034
G1 X61.638 Y162.566 E170.55392
G1 X61.321 Y162.291 E170.60428
G1 X60.933 Y162.067 E170.65804
G1 X60.511 Y161.922 E170.71159
G1 X60.067 Y161.857 E170.76543
G1 X59.596 Y161.885 E170.82205
G0 F9000.00000 X59.581 Y161.787
G0 X64.685 Y158.978
G0 X165.228 Y158.978
G0 X167.672 Y163.828
G1 F3000.000 X167.654 Y164.302 E170.87897
G1 X167.723 Y164.743 E170.93254
G1 X167.874 Y165.163 E170.98610
G1 X168.101 Y165.546 E171.03952
G1 X168.377 Y165.863 E171.08996
G1 X168.728 Y166.140 E171.14362
G1 X169.125 Y166.345 E171.19723
G1 X169.555 Y166.470 E171.25097
G1 X170.001 Y166.513 E171.30474
G1 X170.470 Y166.463 E171.36134
G1 X170.898 Y166.333 E171.41501
G1 X171.292 Y166.124 E171.46853
G1 X171.622 Y165.863 E171.51902
G1 X171.915 Y165.526 E171.57261
G1 X172.138 Y165.138 E171.62631
G1 X172.284 Y164.716 E171.67990
G1 X172.348 Y164.274 E171.73349
G1 X172.321 Y163.801 E171.79034
G1 X172.210 Y163.368 E171.84398
G1 X172.020 Y162.964 E171.89756
G1 X171.757 Y162.605 E171.95096
G1 X171.453 Y162.314 E172.00146
G1 X171.077 Y162.072 E172.05512
G1 X170.662 Y161.906 E172.10875
G1 X170.228 Y161.823 E172.16178
G1 X169.999 Y161.812 E172.18929
G1 X169.744 Y161.827 E172.21994
G1 X169.312 Y161.916 E172.27287
G1 X168.899 Y162.086 E172.32646
G1 X168.527 Y162.332 E172.37998
G1 X168.223 Y162.623 E172.43048
G1 X167.963 Y162.987 E172.48416
G1 X167.772 Y163.418 E172.54073
G1 X167.672 Y163.828 E172.59137
G0 F9000.00000 X167.573 Y163.815
G0 X167.774 Y155.445
G0 X58.772 Y155.434
G0 X58.772 Y69.479
G0 X169.849 Y69.465
G0 X170.001 Y63.102
G1 F3000.000 X170.470 Y63.052 E172.64797
G1 X170.898 Y62.921 E172.70168
G1 X171.293 Y62.712 E172.75531
G1 X171.638 Y62.433 E172.80855
G1 X171.915 Y62.115 E172.85916
G1 X172.138 Y61.727 E172.91286
G1 X172.284 Y61.304 E172.96656
G1 X172.348 Y60.862 E173.02016
G1 X172.321 Y60.390 E173.07689
G1 X172.210 Y59.956 E173.13064
G1 X172.020 Y59.553 E173.18411
G1 X171.757 Y59.194 E173.23751
G1 X171.453 Y58.901 E173.28818
G1 X171.053 Y58.652 E173.34472
G1 X170.662 Y58.495 E173.39528
G1 X170.228 Y58.411 E173.44833
G1 X169.999 Y58.401 E173.47583
G1 X169.744 Y58.415 E173.50648
G1 X169.312 Y58.505 E173.55943
G1 X168.899 Y58.675 E173.61303
G1 X168.527 Y58.920 E173.66648
G1 X168.223 Y59.212 E173.71706
G1 X167.963 Y59.576 E173.77074
G1 X167.772 Y60.006 E173.82720
G1 X167.672 Y60.417 E173.87796
G1 X167.654 Y60.890 E173.93476
G1 X167.723 Y61.331 E173.98832
G1 X167.874 Y61.751 E174.04188
G1 X168.101 Y62.135 E174.09541
G1 X168.378 Y62.453 E174.14602
G1 X168.752 Y62.740 E174.20259
G1 X169.150 Y62.940 E174.25604
G1 X169.555 Y63.059 E174.30670
G1 X170.001 Y63.102 E174.36046
G0 F9000.00000 X168.539 Y63.080
;TYPE:SKIN
G1 F3000.000 X169.002 Y63.313 E174.42266
G1 X169.482 Y63.454 E174.48270
G1 X170.002 Y63.504 E174.54538
G1 X170.552 Y63.446 E174.61175
G1 X171.051 Y63.293 E174.67438
G1 X171.514 Y63.048 E174.73724
G1 X171.916 Y62.723 E174.79927
G1 X172.243 Y62.349 E174.85889
G1 X172.506 Y61.891 E174.92227
G1 X172.674 Y61.400 E174.98454
G1 X172.750 Y60.882 E175.04737
G1 X172.718 Y60.325 E175.11432
G1 X172.589 Y59.823 E175.17651
G1 X172.365 Y59.347 E175.23964
G1 X172.057 Y58.927 E175.30214
G1 X171.703 Y58.585 E175.36121
G1 X171.233 Y58.294 E175.42754
G1 X170.777 Y58.110 E175.48655
G1 X170.274 Y58.013 E175.54802
G1 X169.997 Y58.001 E175.58129
G1 X169.690 Y58.017 E175.61818
G1 X169.194 Y58.121 E175.67900
G1 X168.710 Y58.320 E175.74179
G1 X168.279 Y58.604 E175.80373
G1 X167.917 Y58.952 E175.86399
G1 X167.615 Y59.373 E175.92616
G1 X167.392 Y59.877 E175.99230
G1 X167.274 Y60.361 E176.05208
G1 X167.253 Y60.913 E176.11837
G1 X167.334 Y61.434 E176.18164
G1 X167.510 Y61.921 E176.24378
G1 X167.774 Y62.369 E176.30618
G1 X168.102 Y62.744 E176.36596
G1 X168.539 Y63.080 E176.43211
G0 F9000.00000 X167.447 Y62.603
G1 F3000.000 X167.826 Y63.036 E176.50117
G1 X168.326 Y63.420 E176.57682
G1 X168.854 Y63.686 E176.64777
G1 X169.409 Y63.849 E176.71718
G1 X170.003 Y63.906 E176.78879
G1 X170.633 Y63.840 E176.86480
G1 X171.206 Y63.664 E176.93673
G1 X171.735 Y63.383 E177.00861
G1 X172.194 Y63.013 E177.07936
G1 X172.570 Y62.583 E177.14790
G1 X172.873 Y62.054 E177.22106
G1 X173.064 Y61.496 E177.29183
G1 X173.151 Y60.902 E177.36387
G1 X173.115 Y60.260 E177.44103
G1 X172.968 Y59.690 E177.51167
G1 X172.709 Y59.138 E177.58484
G1 X172.363 Y58.666 E177.65507
G1 X171.949 Y58.267 E177.72407
G1 X171.413 Y57.936 E177.79966
G1 X170.892 Y57.725 E177.86711
G1 X170.321 Y57.614 E177.93692
G1 X169.995 Y57.600 E177.97607
G1 X169.636 Y57.619 E178.01921
G1 X169.076 Y57.737 E178.08789
G1 X168.522 Y57.965 E178.15978
G1 X168.031 Y58.288 E178.23030
G1 X167.612 Y58.691 E178.30007
G1 X167.268 Y59.171 E178.37093
G1 X167.012 Y59.749 E178.44679
G1 X166.876 Y60.305 E178.51548
G1 X166.852 Y60.936 E178.59125
G1 X166.945 Y61.536 E178.66411
G1 X167.146 Y62.092 E178.73506
G1 X167.447 Y62.603 E178.80622
G0 F9000.00000 X169.548 Y63.098
G0 X170.001 Y63.142
G0 X170.478 Y63.091
G0 X173.239 Y62.220
G1 F3000.000 X173.299 Y62.044 E178.82854
G1 X173.600 Y62.094 E178.86515
