;FLAVOR:UltiGCode
;TIME:3839
;MATERIAL:7413
;MATERIAL2:0
;POSTPROCESSED
;Generated with Cura_SteamEngine 1.99.0-dev.20151117
;LAYER_COUNT:38
;LAYER:0
M107
G0 F9000.000000 X51.669 Y52.620 Z0.300
G0 X54.357 Y51.700
;TYPE:SKIRT
G1 F1800.000 X63.393 Y51.700 E1.08432
G1 X64.099 Y51.710 E1.16905
G1 X64.256 Y51.717 E1.18791
G1 X64.573 Y51.746 E1.22611
G1 X64.595 Y51.749 E1.22877
G1 X64.606 Y51.751 E1.23011
G1 X64.756 Y51.782 E1.24849
G1 X65.055 Y51.859 E1.28554
G1 X65.108 Y51.874 E1.29215
G1 X65.239 Y51.924 E1.30898
G1 X65.550 Y52.059 E1.34966
G1 X66.353 Y52.433 E1.45596
G1 X68.933 Y53.592 E1.79537
G1 X71.545 Y54.677 E2.13477
G1 X74.187 Y55.688 E2.47423
G1 X76.856 Y56.624 E2.81364
G1 X79.550 Y57.484 E3.15299
G1 X82.268 Y58.268 E3.49245
G1 X85.006 Y58.974 E3.83175
G1 X87.764 Y59.603 E4.17121
G1 X90.538 Y60.153 E4.51057
G1 X93.327 Y60.625 E4.85001
G1 X96.128 Y61.018 E5.18942
G1 X98.939 Y61.331 E5.52883
G1 X101.758 Y61.565 E5.86827
G1 X104.582 Y61.719 E6.20765
G1 X108.611 Y61.800 E6.69123
G1 X121.709 Y61.800 E8.26299
G1 X124.537 Y61.760 E8.60239
G1 X127.363 Y61.640 E8.94181
G1 X130.184 Y61.440 E9.28118
G1 X132.999 Y61.161 E9.62064
G1 X135.804 Y60.802 E9.95998
G1 X138.598 Y60.363 E10.29938
G1 X141.379 Y59.846 E10.63881
G1 X144.144 Y59.251 E10.97821
G1 X146.891 Y58.577 E11.31763
G1 X149.618 Y57.827 E11.65702
G1 X152.322 Y56.999 E11.99637
G1 X155.002 Y56.095 E12.33577
G1 X157.656 Y55.116 E12.67523
G1 X160.281 Y54.062 E13.01467
G1 X162.874 Y52.934 E13.35400
G1 X164.551 Y52.157 E13.57579
G1 X164.717 Y52.084 E13.59755
G1 X165.040 Y51.958 E13.63916
G1 X165.058 Y51.952 E13.64143
G1 X165.178 Y51.921 E13.65631
G1 X165.465 Y51.859 E13.69154
G1 X165.981 Y51.811 E13.75373
G1 X166.001 Y51.810 E13.75613
G1 X166.247 Y51.802 E13.78567
G1 X166.457 Y51.800 E13.81087
G1 X175.293 Y51.800 E14.87119
G1 X175.999 Y51.810 E14.95592
G1 X176.156 Y51.817 E14.97477
G1 X176.473 Y51.846 E15.01297
G1 X176.495 Y51.849 E15.01564
G1 X176.506 Y51.851 E15.01698
G1 X176.656 Y51.882 E15.03536
G1 X176.955 Y51.959 E15.07241
G1 X177.008 Y51.974 E15.07902
G1 X177.139 Y52.024 E15.09585
G1 X177.450 Y52.159 E15.13653
G1 X177.454 Y52.160 E15.13703
G1 X177.482 Y52.175 E15.14084
G1 X177.584 Y52.234 E15.15498
G1 X177.873 Y52.418 E15.19609
G1 X177.874 Y52.419 E15.19626
G1 X177.881 Y52.424 E15.19729
G1 X178.029 Y52.544 E15.22016
G1 X178.254 Y52.743 E15.25620
G1 X178.280 Y52.769 E15.26061
G1 X178.361 Y52.859 E15.27514
G1 X178.579 Y53.125 E15.31641
G1 X178.588 Y53.136 E15.31812
G1 X178.599 Y53.151 E15.32035
G1 X178.676 Y53.271 E15.33746
G1 X178.850 Y53.569 E15.37887
G1 X178.853 Y53.574 E15.37957
G1 X178.913 Y53.709 E15.39730
G1 X179.041 Y54.037 E15.43955
G1 X179.048 Y54.058 E15.44221
G1 X179.079 Y54.178 E15.45708
G1 X179.141 Y54.465 E15.49231
G1 X179.189 Y54.981 E15.55450
G1 X179.190 Y55.000 E15.55678
G1 X179.198 Y55.237 E15.58524
G1 X179.200 Y55.406 E15.60552
G1 X179.200 Y155.485 E27.61500
G1 X179.251 Y158.666 E27.99677
G1 X179.298 Y160.146 E28.17446
G1 X179.300 Y160.357 E28.19978
G1 X179.300 Y169.393 E29.28410
G1 X179.290 Y170.099 E29.36883
G1 X179.283 Y170.256 E29.38769
G1 X179.254 Y170.570 E29.42553
G1 X179.251 Y170.595 E29.42855
G1 X179.250 Y170.604 E29.42964
G1 X179.221 Y170.743 E29.44668
G1 X179.139 Y171.061 E29.48608
G1 X179.130 Y171.095 E29.49030
G1 X179.127 Y171.105 E29.49156
G1 X179.076 Y171.239 E29.50876
G1 X178.950 Y171.531 E29.54693
G1 X178.940 Y171.554 E29.54994
G1 X178.925 Y171.582 E29.55375
G1 X178.866 Y171.684 E29.56789
G1 X178.682 Y171.973 E29.60900
G1 X178.676 Y171.982 E29.61030
G1 X178.555 Y172.130 E29.63324
G1 X178.360 Y172.351 E29.66861
G1 X178.331 Y172.380 E29.67353
G1 X178.247 Y172.456 E29.68712
G1 X177.960 Y172.691 E29.73163
G1 X177.958 Y172.693 E29.73197
G1 X177.948 Y172.699 E29.73337
G1 X177.829 Y172.776 E29.75038
G1 X177.526 Y172.953 E29.79249
G1 X177.516 Y172.958 E29.79383
G1 X177.383 Y173.016 E29.81124
G1 X177.063 Y173.141 E29.85247
G1 X177.061 Y173.142 E29.85274
G1 X177.042 Y173.148 E29.85513
G1 X176.922 Y173.179 E29.87000
G1 X176.635 Y173.241 E29.90523
G1 X176.119 Y173.289 E29.96742
G1 X176.099 Y173.290 E29.96983
G1 X175.853 Y173.298 E29.99936
G1 X175.643 Y173.300 E30.02456
G1 X166.607 Y173.300 E31.10888
G1 X165.901 Y173.290 E31.19361
G1 X165.744 Y173.283 E31.21247
G1 X165.427 Y173.254 E31.25067
G1 X165.405 Y173.251 E31.25333
G1 X165.394 Y173.249 E31.25467
G1 X165.244 Y173.218 E31.27305
G1 X164.939 Y173.139 E31.31086
G1 X164.892 Y173.126 E31.31671
G1 X164.759 Y173.075 E31.33381
G1 X164.450 Y172.941 E31.37422
G1 X163.647 Y172.567 E31.48052
G1 X161.067 Y171.408 E31.81993
G1 X158.455 Y170.323 E32.15933
G1 X155.813 Y169.312 E32.49879
G1 X153.144 Y168.376 E32.83820
G1 X150.450 Y167.516 E33.17755
G1 X147.732 Y166.732 E33.51701
G1 X144.994 Y166.026 E33.85631
G1 X142.236 Y165.397 E34.19577
G1 X139.462 Y164.847 E34.53513
G1 X136.673 Y164.375 E34.87457
G1 X133.872 Y163.982 E35.21398
G1 X131.061 Y163.669 E35.55339
G1 X128.242 Y163.435 E35.89283
G1 X125.418 Y163.281 E36.23221
G1 X121.389 Y163.200 E36.71579
G1 X108.602 Y163.200 E38.25023
G1 X105.774 Y163.240 E38.58963
G1 X102.948 Y163.360 E38.92905
G1 X100.127 Y163.560 E39.26842
G1 X97.312 Y163.839 E39.60788
G1 X94.507 Y164.198 E39.94722
G1 X91.713 Y164.637 E40.28662
G1 X88.932 Y165.154 E40.62605
G1 X86.167 Y165.749 E40.96545
G1 X83.420 Y166.423 E41.30487
G1 X80.693 Y167.173 E41.64426
G1 X77.989 Y168.001 E41.98361
G1 X75.309 Y168.905 E42.32301
G1 X72.655 Y169.884 E42.66247
G1 X70.030 Y170.938 E43.00191
G1 X67.437 Y172.066 E43.34124
G1 X65.689 Y172.876 E43.57243
G1 X65.540 Y172.947 E43.59223
G1 X65.383 Y173.016 E43.61281
G1 X65.063 Y173.141 E43.65404
G1 X65.061 Y173.142 E43.65431
G1 X65.042 Y173.148 E43.65670
G1 X64.922 Y173.179 E43.67157
G1 X64.635 Y173.241 E43.70680
G1 X64.119 Y173.289 E43.76899
G1 X64.099 Y173.290 E43.77139
G1 X63.853 Y173.298 E43.80093
G1 X63.643 Y173.300 E43.82613
G1 X54.607 Y173.300 E44.91045
G1 X53.901 Y173.290 E44.99518
G1 X53.744 Y173.283 E45.01404
G1 X53.427 Y173.254 E45.05224
G1 X53.405 Y173.251 E45.05490
G1 X53.394 Y173.249 E45.05624
G1 X53.244 Y173.218 E45.07462
G1 X52.939 Y173.139 E45.11243
G1 X52.892 Y173.126 E45.11828
G1 X52.759 Y173.075 E45.13538
G1 X52.450 Y172.941 E45.17579
G1 X52.446 Y172.940 E45.17629
G1 X52.418 Y172.925 E45.18010
G1 X52.316 Y172.866 E45.19424
G1 X52.026 Y172.681 E45.23552
G1 X52.015 Y172.673 E45.23715
G1 X52.011 Y172.670 E45.23775
G1 X51.870 Y172.555 E45.25958
G1 X51.643 Y172.354 E45.29597
G1 X51.620 Y172.331 E45.29987
G1 X51.539 Y172.241 E45.31440
G1 X51.309 Y171.960 E45.35798
G1 X51.301 Y171.949 E45.35961
G1 X51.301 Y171.948 E45.35973
G1 X51.224 Y171.829 E45.37674
G1 X51.047 Y171.526 E45.41885
G1 X51.041 Y171.514 E45.42046
G1 X50.984 Y171.383 E45.43760
G1 X50.858 Y171.060 E45.47920
G1 X50.852 Y171.042 E45.48148
G1 X50.821 Y170.922 E45.49635
G1 X50.759 Y170.635 E45.53159
G1 X50.711 Y170.119 E45.59378
G1 X50.710 Y170.099 E45.59618
G1 X50.702 Y169.853 E45.62571
G1 X50.700 Y169.643 E45.65092
G1 X50.700 Y160.607 E46.73524
G1 X50.710 Y159.900 E46.82008
G1 X50.790 Y157.074 E47.15934
G1 X50.800 Y155.659 E47.32914
G1 X50.800 Y69.515 E57.66642
G1 X50.749 Y66.334 E58.04819
G1 X50.702 Y64.854 E58.22588
G1 X50.700 Y64.643 E58.25120
G1 X50.700 Y55.607 E59.33552
G1 X50.710 Y54.900 E59.42037
G1 X50.717 Y54.736 E59.44007
G1 X50.746 Y54.427 E59.47731
G1 X50.750 Y54.396 E59.48106
G1 X50.751 Y54.394 E59.48133
G1 X50.782 Y54.244 E59.49971
G1 X50.861 Y53.939 E59.53752
G1 X50.874 Y53.892 E59.54337
G1 X50.927 Y53.754 E59.56111
G1 X51.059 Y53.450 E59.60088
G1 X51.060 Y53.446 E59.60138
G1 X51.075 Y53.418 E59.60519
G1 X51.134 Y53.316 E59.61933
G1 X51.325 Y53.017 E59.66190
G1 X51.445 Y52.870 E59.68468
G1 X51.643 Y52.646 E59.72055
G1 X51.669 Y52.620 E59.72496
G1 X51.759 Y52.539 E59.73949
G1 X52.042 Y52.308 E59.78333
G1 X52.052 Y52.301 E59.78480
G1 X52.171 Y52.224 E59.80180
G1 X52.474 Y52.047 E59.84391
G1 X52.489 Y52.040 E59.84590
G1 X52.617 Y51.984 E59.86267
G1 X52.940 Y51.858 E59.90427
G1 X52.939 Y51.858 E59.90439
G1 X52.958 Y51.852 E59.90678
G1 X53.078 Y51.821 E59.92165
G1 X53.365 Y51.759 E59.95689
G1 X53.881 Y51.711 E60.01908
G1 X53.901 Y51.710 E60.02148
G1 X54.147 Y51.702 E60.05101
G1 X54.357 Y51.700 E60.07622
G10
G0 F9000.00000 X54.357 Y53.360
G0 X54.357 Y55.240
G0 X54.270 Y55.270
G0 X54.200 Y55.200
;TYPE:WALL-OUTER
G11
G1 F2400.000 X63.800 Y55.200 E61.22822
G1 X63.800 Y65.200 E62.42822
G1 X175.800 Y65.200 E75.86822
G1 X175.800 Y169.800 E88.42022
G1 X166.200 Y169.800 E89.57222
G1 X166.200 Y159.800 E90.77222
G1 X63.800 Y159.800 E103.06022
G1 X63.800 Y169.800 E104.26022
G1 X54.200 Y169.800 E105.41222
G1 X54.200 Y55.200 E119.16422
G0 F9000.00000 X54.300 Y55.270
G0 X57.854 Y57.837
G0 X57.900 Y57.925
G1 F2400.000 X57.528 Y58.170 E119.21767
G1 X57.224 Y58.462 E119.26825
G1 X56.964 Y58.825 E119.32183
G1 X56.773 Y59.256 E119.37840
G1 X56.673 Y59.667 E119.42916
G1 X56.655 Y60.140 E119.48596
G1 X56.724 Y60.581 E119.53953
G1 X56.875 Y61.001 E119.59308
G1 X57.102 Y61.385 E119.64661
G1 X57.379 Y61.703 E119.69722
G1 X57.753 Y61.990 E119.75379
G1 X58.151 Y62.190 E119.80724
G1 X58.556 Y62.309 E119.85790
G1 X59.001 Y62.352 E119.91155
G1 X59.471 Y62.302 E119.96826
G1 X59.899 Y62.171 E120.02198
G1 X60.294 Y61.962 E120.07560
G1 X60.639 Y61.683 E120.12885
G1 X60.916 Y61.365 E120.17945
G1 X61.139 Y60.977 E120.23316
G1 X61.285 Y60.554 E120.28685
G1 X61.349 Y60.112 E120.34045
G1 X61.322 Y59.640 E120.39718
G1 X61.211 Y59.206 E120.45094
G1 X61.021 Y58.802 E120.50451
G1 X60.758 Y58.444 E120.55782
G1 X60.454 Y58.151 E120.60848
G1 X60.054 Y57.902 E120.66502
G1 X59.663 Y57.745 E120.71558
G1 X59.229 Y57.661 E120.76863
G1 X58.999 Y57.650 E120.79626
G1 X58.744 Y57.665 E120.82691
G1 X58.313 Y57.755 E120.87975
G1 X57.900 Y57.925 E120.93334
G0 F9000.00000 X57.854 Y57.837
G0 X57.194 Y58.436
G0 X56.930 Y58.806
G0 X56.736 Y59.244
G0 X56.634 Y59.662
G0 X56.616 Y60.142
G0 X56.686 Y60.590
G0 X59.800 Y70.050
G1 F2400.000 X59.800 Y154.950 E131.12134
G1 X170.200 Y154.950 E144.36934
G1 X170.200 Y70.050 E154.55734
G1 X59.800 Y70.050 E167.80534
G0 F9000.00000 X59.730 Y69.980
G0 X59.112 Y162.651
G1 F2400.000 X58.640 Y162.678 E167.86208
G1 X58.206 Y162.789 E167.91583
G1 X57.802 Y162.979 E167.96941
G1 X57.444 Y163.242 E168.02271
G1 X57.151 Y163.546 E168.07338
G1 X56.902 Y163.946 E168.12992
G1 X56.745 Y164.337 E168.18048
G1 X56.661 Y164.771 E168.23353
G1 X56.650 Y165.001 E168.26116
G1 X56.665 Y165.256 E168.29181
G1 X56.755 Y165.687 E168.34465
G1 X56.925 Y166.100 E168.39824
G1 X57.170 Y166.472 E168.45169
G1 X57.462 Y166.776 E168.50228
G1 X57.825 Y167.036 E168.55586
G1 X58.256 Y167.227 E168.61243
G1 X58.667 Y167.327 E168.66319
G1 X59.140 Y167.345 E168.71999
G1 X59.581 Y167.276 E168.77355
G1 X60.001 Y167.125 E168.82711
G1 X60.385 Y166.898 E168.88064
G1 X60.703 Y166.621 E168.93125
G1 X60.990 Y166.247 E168.98782
G1 X61.190 Y165.849 E169.04127
G1 X61.309 Y165.444 E169.09192
G1 X61.352 Y164.999 E169.14557
G1 X61.302 Y164.529 E169.20229
G1 X61.171 Y164.101 E169.25600
G1 X60.962 Y163.706 E169.30963
G1 X60.683 Y163.361 E169.36287
G1 X60.365 Y163.084 E169.41348
G1 X59.977 Y162.861 E169.46718
G1 X59.554 Y162.715 E169.52088
G1 X59.112 Y162.651 E169.57447
G0 F9000.00000 X63.772 Y159.772
G0 X166.228 Y159.772
G0 X168.672 Y164.666
G1 F2400.000 X168.654 Y165.139 E169.63127
G1 X168.723 Y165.580 E169.68484
G1 X168.874 Y166.000 E169.73840
G1 X169.101 Y166.384 E169.79193
G1 X169.378 Y166.702 E169.84253
G1 X169.752 Y166.989 E169.89910
G1 X170.150 Y167.189 E169.95256
G1 X170.555 Y167.308 E170.00321
G1 X171.001 Y167.351 E170.05698
G1 X171.470 Y167.301 E170.11358
G1 X171.898 Y167.170 E170.16729
G1 X172.293 Y166.961 E170.22092
G1 X172.638 Y166.682 E170.27416
G1 X172.915 Y166.364 E170.32477
G1 X173.138 Y165.976 E170.37847
G1 X173.284 Y165.553 E170.43217
G1 X173.348 Y165.111 E170.48576
G1 X173.321 Y164.639 E170.54249
G1 X173.210 Y164.205 E170.59625
G1 X173.020 Y163.801 E170.64982
G1 X172.757 Y163.443 E170.70313
G1 X172.453 Y163.150 E170.75380
G1 X172.053 Y162.901 E170.81034
G1 X171.662 Y162.744 E170.86090
G1 X171.228 Y162.660 E170.91394
G1 X170.999 Y162.649 E170.94145
G1 X170.743 Y162.664 E170.97223
G1 X170.312 Y162.754 E171.02506
G1 X169.899 Y162.924 E171.07866
G1 X169.527 Y163.169 E171.13211
G1 X169.223 Y163.461 E171.18269
G1 X168.963 Y163.824 E171.23627
G1 X168.772 Y164.255 E171.29284
G1 X168.672 Y164.666 E171.34360
G0 F9000.00000 X168.573 Y164.653
G0 X169.280 Y162.853
;TYPE:SKIN
G1 F2400.000 X168.918 Y163.201 E171.40386
G1 X168.615 Y163.621 E171.46601
G1 X168.392 Y164.126 E171.53225
G1 X168.274 Y164.610 E171.59203
G1 X168.253 Y165.162 E171.65832
G1 X168.334 Y165.683 E171.72159
G1 X168.510 Y166.170 E171.78373
G1 X168.774 Y166.618 E171.84613
G1 X169.102 Y166.993 E171.90592
G1 X169.539 Y167.329 E171.97206
G1 X170.002 Y167.562 E172.03426
G1 X170.482 Y167.703 E172.09430
G1 X171.002 Y167.753 E172.15698
G1 X171.552 Y167.695 E172.22335
G1 X172.051 Y167.542 E172.28598
G1 X172.514 Y167.297 E172.34884
G1 X172.916 Y166.972 E172.41087
G1 X173.243 Y166.598 E172.47049
G1 X173.506 Y166.140 E172.53387
G1 X173.674 Y165.649 E172.59614
G1 X173.750 Y165.131 E172.65897
G1 X173.718 Y164.574 E172.72592
G1 X173.588 Y164.070 E172.78838
G1 X173.366 Y163.597 E172.85108
G1 X173.057 Y163.176 E172.91374
G1 X172.703 Y162.834 E172.97281
G1 X172.233 Y162.543 E173.03915
G1 X171.777 Y162.359 E173.09815
G1 X171.275 Y162.262 E173.15951
G1 X170.997 Y162.249 E173.19290
G1 X170.688 Y162.266 E173.23004
G1 X170.194 Y162.370 E173.29062
G1 X169.710 Y162.569 E173.35342
G1 X169.280 Y162.853 E173.41525
G0 F9000.00000 X170.633 Y161.868
G1 F2400.000 X170.074 Y161.986 E173.48381
G1 X169.523 Y162.213 E173.55532
G1 X169.032 Y162.537 E173.62592
G1 X168.614 Y162.938 E173.69543
G1 X168.268 Y163.419 E173.76653
G1 X168.012 Y163.998 E173.84250
G1 X167.876 Y164.554 E173.91118
G1 X167.852 Y165.185 E173.98696
G1 X167.945 Y165.785 E174.05982
G1 X168.146 Y166.341 E174.13076
G1 X168.447 Y166.852 E174.20193
G1 X168.826 Y167.285 E174.27098
G1 X169.326 Y167.669 E174.34664
G1 X169.854 Y167.935 E174.41758
G1 X170.409 Y168.098 E174.48700
G1 X171.003 Y168.155 E174.55860
G1 X171.633 Y168.089 E174.63462
G1 X172.206 Y167.913 E174.70655
G1 X172.735 Y167.632 E174.77843
G1 X173.194 Y167.262 E174.84917
G1 X173.570 Y166.832 E174.91772
G1 X173.873 Y166.303 E174.99087
G1 X174.064 Y165.745 E175.06165
G1 X174.151 Y165.151 E175.13369
G1 X174.115 Y164.509 E175.21085
G1 X173.966 Y163.935 E175.28201
G1 X173.712 Y163.393 E175.35384
G1 X173.357 Y162.909 E175.42587
G1 X172.952 Y162.518 E175.49342
G1 X172.413 Y162.185 E175.56945
G1 X171.892 Y161.974 E175.63690
G1 X171.322 Y161.864 E175.70657
G1 X170.996 Y161.848 E175.74573
G1 X170.633 Y161.868 E175.78936
G0 F9000.00000 X167.921 Y163.216
G1 F2400.000 X167.686 Y163.747 E175.85904
G1 X167.400 Y163.687 E175.89411
G1 X167.400 Y158.600 E176.50455
G1 X62.600 Y158.600 E189.08055
G1 X62.600 Y163.651 E189.68667
G1 X62.327 Y163.719 E189.72043
G1 X61.968 Y163.043 E189.81228
G1 X61.553 Y162.527 E189.89174
G1 X61.065 Y162.100 E189.96955
G1 X60.470 Y161.759 E190.05185
G1 X59.842 Y161.545 E190.13146
G1 X59.172 Y161.447 E190.21272
G1 X58.445 Y161.487 E190.30009
G1 X57.802 Y161.654 E190.37981
G1 X57.186 Y161.943 E190.46146
G1 X56.646 Y162.340 E190.54189
G1 X56.200 Y162.800 E190.61877
G1 X55.830 Y163.401 E190.70346
G1 X55.691 Y163.743 E190.74777
G1 X55.400 Y163.686 E190.78335
G1 X55.400 Y61.329 E203.06619
G1 X55.698 Y61.277 E203.10249
G1 X55.784 Y61.514 E203.13274
G1 X56.121 Y62.087 E203.21251
G1 X56.551 Y62.578 E203.29083
G1 X57.114 Y63.010 E203.37599
G1 X57.707 Y63.309 E203.45569
G1 X58.335 Y63.494 E203.53425
G1 X59.004 Y63.558 E203.61489
G1 X59.713 Y63.484 E203.70044
G1 X60.362 Y63.285 E203.78190
G1 X60.957 Y62.968 E203.86280
G1 X61.473 Y62.553 E203.94226
G1 X61.900 Y62.065 E204.02007
G1 X62.240 Y61.470 E204.10231
G1 X62.299 Y61.297 E204.12424
G1 X62.600 Y61.347 E204.16085
G1 X62.600 Y66.400 E204.76721
G1 X174.600 Y66.400 E218.20721
G1 X174.600 Y163.681 E229.88093
G1 X174.318 Y163.744 E229.91561
G1 X174.057 Y163.187 E229.98942
G1 X173.659 Y162.645 E230.07011
G1 X173.199 Y162.199 E230.14700
G1 X172.598 Y161.829 E230.23169
G1 X172.005 Y161.589 E230.30846
G1 X171.370 Y161.466 E230.38608
