;FLAVOR:UltiGCode
;TIME:3908
;MATERIAL:7413
;MATERIAL2:0
;POSTPROCESSED
;Generated with Cura_SteamEngine 1.99.0-dev.20151117
;LAYER_COUNT:38
;LAYER:0
M107
G0 F9000.000000 X52.793 Y17.133 Z0.300
G0 X56.276 Y14.941
;TYPE:SKIRT
G1 F1800.000 X65.312 Y14.941 E1.08432
G1 X66.018 Y14.951 E1.16905
G1 X66.175 Y14.958 E1.18791
G1 X66.492 Y14.987 E1.22611
G1 X66.514 Y14.990 E1.22877
G1 X66.525 Y14.992 E1.23011
G1 X66.675 Y15.023 E1.24849
G1 X66.974 Y15.100 E1.28554
G1 X67.027 Y15.115 E1.29215
G1 X67.158 Y15.165 E1.30898
G1 X67.469 Y15.300 E1.34966
G1 X68.272 Y15.674 E1.45596
G1 X70.852 Y16.833 E1.79537
G1 X73.464 Y17.918 E2.13477
G1 X76.106 Y18.929 E2.47423
G1 X78.775 Y19.865 E2.81364
G1 X81.469 Y20.725 E3.15299
G1 X84.187 Y21.509 E3.49245
G1 X86.925 Y22.215 E3.83175
G1 X89.683 Y22.844 E4.17121
G1 X92.457 Y23.394 E4.51057
G1 X95.246 Y23.866 E4.85001
G1 X98.047 Y24.259 E5.18942
G1 X100.858 Y24.572 E5.52883
G1 X103.677 Y24.806 E5.86827
G1 X106.501 Y24.960 E6.20765
G1 X110.530 Y25.041 E6.69123
G1 X123.627 Y25.041 E8.26287
G1 X126.455 Y25.001 E8.60227
G1 X129.281 Y24.881 E8.94169
G1 X132.102 Y24.681 E9.28106
G1 X134.917 Y24.402 E9.62052
G1 X137.722 Y24.043 E9.95986
G1 X140.516 Y23.604 E10.29926
G1 X143.297 Y23.087 E10.63869
G1 X146.062 Y22.492 E10.97809
G1 X148.809 Y21.818 E11.31751
G1 X151.536 Y21.068 E11.65690
G1 X154.240 Y20.240 E11.99625
G1 X156.920 Y19.336 E12.33565
G1 X159.574 Y18.357 E12.67511
G1 X162.199 Y17.303 E13.01455
G1 X164.792 Y16.175 E13.35388
G1 X166.469 Y15.398 E13.57567
G1 X166.635 Y15.325 E13.59743
G1 X166.958 Y15.199 E13.63904
G1 X166.976 Y15.193 E13.64131
G1 X167.096 Y15.162 E13.65619
G1 X167.383 Y15.100 E13.69142
G1 X167.899 Y15.052 E13.75361
G1 X167.919 Y15.051 E13.75601
G1 X168.165 Y15.043 E13.78555
G1 X168.375 Y15.041 E13.81075
G1 X177.211 Y15.041 E14.87107
G1 X177.917 Y15.051 E14.95580
G1 X178.074 Y15.058 E14.97465
G1 X178.391 Y15.087 E15.01285
G1 X178.413 Y15.090 E15.01552
G1 X178.424 Y15.092 E15.01686
G1 X178.574 Y15.123 E15.03524
G1 X178.873 Y15.200 E15.07229
G1 X178.926 Y15.215 E15.07890
G1 X179.057 Y15.265 E15.09573
G1 X179.368 Y15.400 E15.13641
G1 X179.372 Y15.401 E15.13691
G1 X179.400 Y15.416 E15.14072
G1 X179.502 Y15.475 E15.15486
G1 X179.791 Y15.659 E15.19597
G1 X179.792 Y15.660 E15.19614
G1 X179.799 Y15.665 E15.19717
G1 X179.947 Y15.785 E15.22004
G1 X180.172 Y15.984 E15.25608
G1 X180.198 Y16.010 E15.26049
G1 X180.279 Y16.100 E15.27502
G1 X180.497 Y16.366 E15.31629
G1 X180.506 Y16.377 E15.31800
G1 X180.517 Y16.392 E15.32023
G1 X180.594 Y16.512 E15.33734
G1 X180.768 Y16.810 E15.37875
G1 X180.771 Y16.815 E15.37945
G1 X180.831 Y16.950 E15.39718
G1 X180.959 Y17.278 E15.43943
G1 X180.966 Y17.299 E15.44209
G1 X180.997 Y17.419 E15.45696
G1 X181.059 Y17.706 E15.49219
G1 X181.107 Y18.222 E15.55438
G1 X181.108 Y18.241 E15.55666
G1 X181.116 Y18.478 E15.58512
G1 X181.118 Y18.647 E15.60540
G1 X181.118 Y118.725 E27.61476
G1 X181.169 Y121.906 E27.99653
G1 X181.216 Y123.386 E28.17422
G1 X181.218 Y123.597 E28.19954
G1 X181.218 Y132.633 E29.28386
G1 X181.208 Y133.339 E29.36859
G1 X181.201 Y133.496 E29.38745
G1 X181.172 Y133.810 E29.42529
G1 X181.169 Y133.835 E29.42831
G1 X181.168 Y133.844 E29.42940
G1 X181.139 Y133.983 E29.44644
G1 X181.057 Y134.301 E29.48584
G1 X181.048 Y134.335 E29.49006
G1 X181.045 Y134.345 E29.49132
G1 X180.994 Y134.479 E29.50852
G1 X180.868 Y134.771 E29.54669
G1 X180.858 Y134.794 E29.54970
G1 X180.843 Y134.822 E29.55351
G1 X180.784 Y134.924 E29.56765
G1 X180.600 Y135.213 E29.60876
G1 X180.594 Y135.222 E29.61006
G1 X180.473 Y135.370 E29.63300
G1 X180.278 Y135.591 E29.66837
G1 X180.249 Y135.620 E29.67329
G1 X180.165 Y135.696 E29.68688
G1 X179.878 Y135.931 E29.73139
G1 X179.876 Y135.933 E29.73173
G1 X179.866 Y135.939 E29.73313
G1 X179.747 Y136.016 E29.75014
G1 X179.444 Y136.193 E29.79225
G1 X179.434 Y136.198 E29.79359
G1 X179.301 Y136.256 E29.81100
G1 X178.981 Y136.381 E29.85223
G1 X178.979 Y136.382 E29.85250
G1 X178.960 Y136.388 E29.85489
G1 X178.840 Y136.419 E29.86976
G1 X178.553 Y136.481 E29.90499
G1 X178.037 Y136.529 E29.96718
G1 X178.017 Y136.530 E29.96959
G1 X177.771 Y136.538 E29.99912
G1 X177.561 Y136.540 E30.02432
G1 X168.525 Y136.540 E31.10864
G1 X167.819 Y136.530 E31.19337
G1 X167.662 Y136.523 E31.21223
G1 X167.345 Y136.494 E31.25043
G1 X167.323 Y136.491 E31.25309
G1 X167.312 Y136.489 E31.25443
G1 X167.162 Y136.458 E31.27281
G1 X166.857 Y136.379 E31.31062
G1 X166.810 Y136.366 E31.31647
G1 X166.677 Y136.315 E31.33357
G1 X166.368 Y136.181 E31.37398
G1 X165.565 Y135.807 E31.48028
G1 X162.985 Y134.648 E31.81969
G1 X160.373 Y133.563 E32.15909
G1 X157.731 Y132.552 E32.49855
G1 X155.062 Y131.616 E32.83796
G1 X152.368 Y130.756 E33.17731
G1 X149.650 Y129.972 E33.51677
G1 X146.912 Y129.266 E33.85607
G1 X144.154 Y128.637 E34.19553
G1 X141.380 Y128.087 E34.53489
G1 X138.591 Y127.615 E34.87433
G1 X135.790 Y127.222 E35.21374
G1 X132.979 Y126.909 E35.55315
G1 X130.160 Y126.675 E35.89259
G1 X127.336 Y126.521 E36.23197
G1 X123.307 Y126.440 E36.71555
G1 X110.521 Y126.440 E38.24987
G1 X107.693 Y126.480 E38.58927
G1 X104.867 Y126.600 E38.92869
G1 X102.046 Y126.800 E39.26806
G1 X99.231 Y127.079 E39.60752
G1 X96.426 Y127.438 E39.94686
G1 X93.632 Y127.877 E40.28626
G1 X90.851 Y128.394 E40.62569
G1 X88.086 Y128.989 E40.96509
G1 X85.339 Y129.663 E41.30451
G1 X82.612 Y130.413 E41.64390
G1 X79.908 Y131.241 E41.98325
G1 X77.228 Y132.145 E42.32265
G1 X74.574 Y133.124 E42.66211
G1 X71.949 Y134.178 E43.00155
G1 X69.356 Y135.306 E43.34088
G1 X67.608 Y136.116 E43.57207
G1 X67.459 Y136.187 E43.59187
G1 X67.302 Y136.256 E43.61245
G1 X66.982 Y136.381 E43.65368
G1 X66.980 Y136.382 E43.65395
G1 X66.961 Y136.388 E43.65634
G1 X66.841 Y136.419 E43.67121
G1 X66.554 Y136.481 E43.70644
G1 X66.038 Y136.529 E43.76863
G1 X66.018 Y136.530 E43.77103
G1 X65.772 Y136.538 E43.80057
G1 X65.562 Y136.540 E43.82577
G1 X56.526 Y136.540 E44.91009
G1 X55.820 Y136.530 E44.99482
G1 X55.663 Y136.523 E45.01368
G1 X55.346 Y136.494 E45.05188
G1 X55.324 Y136.491 E45.05454
G1 X55.313 Y136.489 E45.05588
G1 X55.163 Y136.458 E45.07426
G1 X54.858 Y136.379 E45.11207
G1 X54.811 Y136.366 E45.11792
G1 X54.678 Y136.315 E45.13502
G1 X54.369 Y136.181 E45.17543
G1 X54.365 Y136.180 E45.17593
G1 X54.337 Y136.165 E45.17974
G1 X54.235 Y136.106 E45.19388
G1 X53.945 Y135.921 E45.23516
G1 X53.934 Y135.913 E45.23679
G1 X53.930 Y135.910 E45.23739
G1 X53.789 Y135.795 E45.25922
G1 X53.562 Y135.594 E45.29561
G1 X53.539 Y135.571 E45.29951
G1 X53.458 Y135.481 E45.31404
G1 X53.228 Y135.200 E45.35762
G1 X53.220 Y135.189 E45.35925
G1 X53.220 Y135.188 E45.35937
G1 X53.143 Y135.069 E45.37638
G1 X52.966 Y134.766 E45.41849
G1 X52.960 Y134.754 E45.42010
G1 X52.903 Y134.623 E45.43724
G1 X52.777 Y134.300 E45.47884
G1 X52.771 Y134.282 E45.48112
G1 X52.740 Y134.162 E45.49599
G1 X52.678 Y133.875 E45.53123
G1 X52.630 Y133.359 E45.59342
G1 X52.629 Y133.339 E45.59582
G1 X52.621 Y133.093 E45.62535
G1 X52.619 Y132.883 E45.65056
G1 X52.619 Y123.847 E46.73488
G1 X52.629 Y123.140 E46.81972
G1 X52.709 Y120.314 E47.15898
G1 X52.719 Y118.899 E47.32878
G1 X52.719 Y32.756 E57.66594
G1 X52.668 Y29.575 E58.04771
G1 X52.621 Y28.095 E58.22540
G1 X52.619 Y27.884 E58.25072
G1 X52.619 Y18.848 E59.33504
G1 X52.629 Y18.141 E59.41989
G1 X52.636 Y17.977 E59.43959
G1 X52.665 Y17.668 E59.47683
G1 X52.669 Y17.637 E59.48058
G1 X52.670 Y17.635 E59.48085
G1 X52.701 Y17.485 E59.49923
G1 X52.780 Y17.180 E59.53704
G1 X52.793 Y17.133 E59.54289
G1 X52.846 Y16.995 E59.56063
G1 X52.978 Y16.691 E59.60040
G1 X52.979 Y16.687 E59.60090
G1 X52.994 Y16.659 E59.60471
G1 X53.053 Y16.557 E59.61885
G1 X53.244 Y16.258 E59.66142
G1 X53.364 Y16.111 E59.68420
G1 X53.562 Y15.887 E59.72007
G1 X53.588 Y15.861 E59.72448
G1 X53.678 Y15.780 E59.73901
G1 X53.961 Y15.549 E59.78285
G1 X53.971 Y15.542 E59.78432
G1 X54.090 Y15.465 E59.80132
G1 X54.393 Y15.288 E59.84343
G1 X54.408 Y15.281 E59.84542
G1 X54.536 Y15.225 E59.86219
G1 X54.859 Y15.099 E59.90379
G1 X54.858 Y15.099 E59.90391
G1 X54.877 Y15.093 E59.90630
G1 X54.997 Y15.062 E59.92117
G1 X55.284 Y15.000 E59.95641
G1 X55.800 Y14.952 E60.01860
G1 X55.820 Y14.951 E60.02100
G1 X56.066 Y14.943 E60.05053
G1 X56.276 Y14.941 E60.07574
G10
G0 F9000.00000 X56.276 Y16.601
G0 X56.276 Y18.481
G0 X56.189 Y18.511
G0 X56.119 Y18.441
;TYPE:WALL-OUTER
G11
G1 F2400.000 X65.719 Y18.441 E61.22774
G1 X65.719 Y28.441 E62.42774
G1 X177.718 Y28.441 E75.86762
G1 X177.718 Y133.040 E88.41950
G1 X168.118 Y133.040 E89.57150
G1 X168.118 Y123.040 E90.77150
G1 X65.719 Y123.040 E103.05938
G1 X65.719 Y133.040 E104.25938
G1 X56.119 Y133.040 E105.41138
G1 X56.119 Y18.441 E119.16326
G0 F9000.00000 X56.219 Y18.511
G0 X59.773 Y21.077
G0 X59.819 Y21.165
G1 F2400.000 X59.447 Y21.411 E119.21677
G1 X59.142 Y21.701 E119.26728
G1 X58.882 Y22.067 E119.32115
G1 X58.692 Y22.497 E119.37756
G1 X58.592 Y22.907 E119.42821
G1 X58.574 Y23.380 E119.48501
G1 X58.643 Y23.822 E119.53869
G1 X58.794 Y24.242 E119.59225
G1 X59.021 Y24.625 E119.64567
G1 X59.297 Y24.942 E119.69611
G1 X59.648 Y25.219 E119.74977
G1 X60.045 Y25.424 E119.80338
G1 X60.474 Y25.549 E119.85701
G1 X60.920 Y25.592 E119.91077
G1 X61.390 Y25.542 E119.96749
G1 X61.817 Y25.412 E120.02105
G1 X62.212 Y25.203 E120.07468
G1 X62.542 Y24.942 E120.12517
G1 X62.835 Y24.605 E120.17876
G1 X63.058 Y24.217 E120.23246
G1 X63.204 Y23.795 E120.28604
G1 X63.268 Y23.351 E120.33987
G1 X63.240 Y22.880 E120.39649
G1 X63.130 Y22.447 E120.45010
G1 X62.940 Y22.043 E120.50368
G1 X62.677 Y21.684 E120.55708
G1 X62.372 Y21.393 E120.60767
G1 X61.996 Y21.151 E120.66133
G1 X61.582 Y20.985 E120.71485
G1 X61.148 Y20.902 E120.76787
G1 X60.918 Y20.891 E120.79551
G1 X60.664 Y20.906 E120.82604
G1 X60.232 Y20.995 E120.87897
G1 X59.819 Y21.165 E120.93256
G0 F9000.00000 X59.773 Y21.077
G0 X59.112 Y21.675
G0 X58.848 Y22.048
G0 X58.655 Y22.485
G0 X58.553 Y22.902
G0 X58.535 Y23.382
G0 X58.605 Y23.831
G0 X61.719 Y33.291
G1 F2400.000 X61.719 Y118.190 E131.12044
G1 X172.118 Y118.190 E144.36832
G1 X172.118 Y33.291 E154.55620
G1 X61.719 Y33.291 E167.80408
G0 F9000.00000 X61.649 Y33.221
G0 X61.031 Y125.891
G1 F2400.000 X60.558 Y125.919 E167.86094
G1 X60.125 Y126.029 E167.91455
G1 X59.721 Y126.219 E167.96813
G1 X59.362 Y126.482 E168.02153
G1 X59.071 Y126.787 E168.07211
G1 X58.829 Y127.163 E168.12577
G1 X58.663 Y127.577 E168.17930
G1 X58.580 Y128.012 E168.23244
G1 X58.569 Y128.241 E168.25995
G1 X58.584 Y128.495 E168.29048
G1 X58.673 Y128.928 E168.34353
G1 X58.844 Y129.340 E168.39706
G1 X59.089 Y129.712 E168.45051
G1 X59.379 Y130.017 E168.50101
G1 X59.744 Y130.277 E168.55479
G1 X60.175 Y130.468 E168.61136
G1 X60.585 Y130.567 E168.66198
G1 X61.059 Y130.586 E168.71890
G1 X61.500 Y130.516 E168.77248
G1 X61.920 Y130.366 E168.82600
G1 X62.303 Y130.138 E168.87949
G1 X62.620 Y129.863 E168.92985
G1 X62.897 Y129.511 E168.98360
G1 X63.102 Y129.114 E169.03722
G1 X63.227 Y128.685 E169.09084
G1 X63.270 Y128.239 E169.14460
G1 X63.220 Y127.769 E169.20132
G1 X63.090 Y127.342 E169.25488
G1 X62.881 Y126.947 E169.30851
G1 X62.600 Y126.600 E169.36209
G1 X62.283 Y126.325 E169.41245
G1 X61.895 Y126.101 E169.46621
G1 X61.473 Y125.956 E169.51976
G1 X61.031 Y125.891 E169.57337
G0 F9000.00000 X65.691 Y123.012
G0 X168.146 Y123.012
G0 X170.591 Y127.906
G1 F2400.000 X170.573 Y128.379 E169.63017
G1 X170.642 Y128.821 E169.68385
G1 X170.793 Y129.241 E169.73741
G1 X171.020 Y129.624 E169.79084
G1 X171.296 Y129.941 E169.84128
G1 X171.647 Y130.218 E169.89493
G1 X172.044 Y130.423 E169.94855
G1 X172.473 Y130.548 E170.00217
G1 X172.919 Y130.591 E170.05594
G1 X173.389 Y130.541 E170.11266
G1 X173.816 Y130.411 E170.16622
G1 X174.211 Y130.202 E170.21984
G1 X174.541 Y129.941 E170.27033
G1 X174.834 Y129.604 E170.32392
G1 X175.057 Y129.216 E170.37762
G1 X175.203 Y128.794 E170.43121
G1 X175.267 Y128.350 E170.48504
G1 X175.239 Y127.879 E170.54166
G1 X175.129 Y127.446 E170.59527
G1 X174.939 Y127.042 E170.64884
G1 X174.676 Y126.683 E170.70224
G1 X174.371 Y126.392 E170.75283
G1 X173.995 Y126.150 E170.80649
G1 X173.581 Y125.984 E170.86001
G1 X173.147 Y125.901 E170.91304
G1 X172.917 Y125.890 E170.94067
G1 X172.663 Y125.905 E170.97120
G1 X172.231 Y125.994 E171.02413
G1 X171.818 Y126.164 E171.07773
G1 X171.446 Y126.410 E171.13124
G1 X171.141 Y126.700 E171.18175
G1 X170.881 Y127.066 E171.23562
G1 X170.691 Y127.496 E171.29203
G1 X170.591 Y127.906 E171.34268
G0 F9000.00000 X170.492 Y127.893
G0 X171.195 Y126.096
;TYPE:SKIN
G1 F2400.000 X170.839 Y126.435 E171.40167
G1 X170.532 Y126.866 E171.46516
G1 X170.311 Y127.367 E171.53087
G1 X170.193 Y127.850 E171.59054
G1 X170.172 Y128.402 E171.65683
G1 X170.253 Y128.923 E171.72010
G1 X170.428 Y129.410 E171.78220
G1 X170.695 Y129.861 E171.84509
G1 X171.019 Y130.231 E171.90411
G1 X171.428 Y130.556 E171.96680
G1 X171.895 Y130.797 E172.02986
G1 X172.398 Y130.943 E172.09271
G1 X172.920 Y130.993 E172.15564
G1 X173.471 Y130.935 E172.22212
G1 X173.969 Y130.783 E172.28460
G1 X174.430 Y130.539 E172.34719
G1 X174.818 Y130.231 E172.40664
G1 X175.162 Y129.837 E172.46940
G1 X175.424 Y129.381 E172.53251
G1 X175.593 Y128.888 E172.59505
G1 X175.669 Y128.369 E172.65800
G1 X175.636 Y127.814 E172.72471
G1 X175.507 Y127.311 E172.78703
G1 X175.284 Y126.835 E172.85011
G1 X174.979 Y126.418 E172.91210
G1 X174.619 Y126.075 E172.97177
G1 X174.181 Y125.794 E173.03422
G1 X173.696 Y125.599 E173.09695
G1 X173.194 Y125.503 E173.15828
G1 X172.915 Y125.490 E173.19179
G1 X172.606 Y125.507 E173.22893
G1 X172.114 Y125.609 E173.28923
G1 X171.629 Y125.809 E173.35218
G1 X171.195 Y126.096 E173.41462
G0 F9000.00000 X172.552 Y125.109
G1 F2400.000 X171.996 Y125.225 E173.48277
G1 X171.440 Y125.454 E173.55493
G1 X170.944 Y125.782 E173.62629
G1 X170.537 Y126.170 E173.69377
G1 X170.183 Y126.666 E173.76689
G1 X169.931 Y127.239 E173.84201
G1 X169.795 Y127.794 E173.91058
G1 X169.771 Y128.425 E173.98635
G1 X169.864 Y129.025 E174.05921
G1 X170.063 Y129.578 E174.12974
G1 X170.370 Y130.098 E174.20220
G1 X170.741 Y130.522 E174.26981
G1 X171.209 Y130.892 E174.34140
G1 X171.747 Y131.170 E174.41407
G1 X172.324 Y131.338 E174.48618
G1 X172.921 Y131.395 E174.55815
G1 X173.553 Y131.329 E174.63440
G1 X174.122 Y131.155 E174.70580
G1 X174.649 Y130.876 E174.77736
G1 X175.095 Y130.521 E174.84576
G1 X175.489 Y130.070 E174.91763
G1 X175.791 Y129.545 E174.99031
G1 X175.983 Y128.984 E175.06146
G1 X176.071 Y128.388 E175.13376
G1 X176.033 Y127.749 E175.21057
G1 X175.885 Y127.176 E175.28159
G1 X175.629 Y126.629 E175.35406
G1 X175.282 Y126.153 E175.42475
G1 X174.867 Y125.758 E175.49350
G1 X174.367 Y125.438 E175.56473
G1 X173.811 Y125.214 E175.63667
G1 X173.241 Y125.105 E175.70631
G1 X172.914 Y125.089 E175.74559
G1 X172.552 Y125.109 E175.78910
G0 F9000.00000 X169.832 Y126.470
G1 F2400.000 X169.604 Y126.989 E175.85712
G1 X169.318 Y126.929 E175.89219
G1 X169.318 Y121.840 E176.50287
G1 X64.519 Y121.840 E189.07875
G1 X64.519 Y126.891 E189.68487
G1 X64.246 Y126.959 E189.71863
G1 X63.893 Y126.290 E189.80940
G1 X63.458 Y125.756 E189.89205
G1 X62.981 Y125.340 E189.96800
G1 X62.389 Y125.000 E190.04993
G1 X61.763 Y124.786 E190.12931
G1 X61.089 Y124.685 E190.21110
G1 X60.362 Y124.728 E190.29849
G1 X59.720 Y124.895 E190.37809
G1 X59.103 Y125.183 E190.45980
G1 X58.567 Y125.573 E190.53935
G1 X58.122 Y126.040 E190.61675
G1 X57.759 Y126.608 E190.69764
G1 X57.611 Y126.978 E190.74546
G1 X57.319 Y126.922 E190.78114
G1 X57.319 Y24.571 E203.06326
G1 X57.617 Y24.519 E203.09956
G1 X57.699 Y24.747 E203.12864
G1 X58.046 Y25.335 E203.21057
G1 X58.465 Y25.814 E203.28694
G1 X58.993 Y26.232 E203.36775
G1 X59.598 Y26.544 E203.44943
G1 X60.250 Y26.734 E203.53093
G1 X60.923 Y26.798 E203.61205
G1 X61.634 Y26.724 E203.69783
G1 X62.277 Y26.527 E203.77853
G1 X62.869 Y26.213 E203.85895
G1 X63.373 Y25.812 E203.93624
G1 X63.817 Y25.305 E204.01711
G1 X64.159 Y24.710 E204.09946
G1 X64.218 Y24.537 E204.12140
G1 X64.519 Y24.587 E204.15801
G1 X64.519 Y29.641 E204.76449
G1 X176.518 Y29.641 E218.20437
G1 X176.518 Y126.920 E229.87785
G1 X176.236 Y126.983 E229.91253
G1 X175.975 Y126.424 E229.98656
G1 X175.585 Y125.888 E230.06610
G1 X175.118 Y125.443 E230.14351
G1 X174.549 Y125.080 E230.22450
G1 X173.926 Y124.829 E230.30510
