;FLAVOR:UltiGCode
;TIME:821
;MATERIAL:2263
;MATERIAL2:0
;POSTPROCESSED
;Generated with Cura_SteamEngine 1.99.0-dev.20151117
;LAYER_COUNT:150
;LAYER:0
M107
G0 F9000.000000 X152.626 Y43.169 Z0.200
G0 X154.031 Y41.203
;TYPE:SKIRT
G1 F1800.000 X154.669 Y40.685 E0.06574
G1 X155.251 Y40.300 E0.12157
G1 X155.971 Y39.918 E0.18677
G1 X156.612 Y39.653 E0.24226
G1 X157.432 Y39.404 E0.31082
G1 X158.129 Y39.266 E0.36766
G1 X158.982 Y39.183 E0.43623
G1 X159.519 Y39.171 E0.47920
G1 X159.847 Y39.203 E0.50556
G1 X161.049 Y39.377 E0.60272
G1 X161.572 Y39.493 E0.64558
G1 X161.939 Y39.626 E0.67681
G1 X162.686 Y39.943 E0.74173
G1 X163.277 Y40.262 E0.79546
G1 X163.997 Y40.742 E0.86468
G1 X164.546 Y41.191 E0.92142
G1 X165.104 Y41.749 E0.98455
G1 X165.553 Y42.298 E1.04129
G1 X165.605 Y42.376 E1.04879
G1 X165.712 Y42.565 E1.06616
G1 X165.869 Y42.500 E1.07976
G1 X166.390 Y42.372 E1.12268
G1 X166.923 Y42.322 E1.16550
G1 X167.459 Y42.352 E1.20845
G1 X167.984 Y42.461 E1.25135
G1 X168.487 Y42.647 E1.29425
G1 X168.957 Y42.905 E1.33714
G1 X169.432 Y43.275 E1.38531
G1 X169.948 Y43.751 E1.44147
G1 X170.314 Y44.143 E1.48438
G1 X170.618 Y44.585 E1.52729
G1 X170.852 Y45.067 E1.57016
G1 X171.013 Y45.579 E1.61309
G1 X171.078 Y45.942 E1.64260
G1 X171.184 Y46.774 E1.70969
G1 X171.212 Y47.310 E1.75263
G1 X171.160 Y47.843 E1.79547
G1 X171.030 Y48.363 E1.83835
G1 X170.830 Y48.845 E1.88010
G1 X170.421 Y49.659 E1.95298
G1 X170.145 Y50.119 E1.99590
G1 X169.804 Y50.533 E2.03880
G1 X169.405 Y50.892 E2.08174
G1 X168.958 Y51.187 E2.12459
G1 X168.471 Y51.413 E2.16754
G1 X167.956 Y51.563 E2.21045
G1 X167.425 Y51.636 E2.25333
G1 X166.889 Y51.629 E2.29621
G1 X166.360 Y51.543 E2.33909
G1 X165.725 Y51.325 E2.39280
G1 X165.693 Y51.311 E2.39559
G1 X165.609 Y51.510 E2.41288
G1 X165.207 Y52.130 E2.47199
G1 X165.124 Y52.233 E2.48257
G1 X164.622 Y52.742 E2.53976
G1 X163.952 Y53.299 E2.60947
G1 X163.359 Y53.700 E2.66674
G1 X162.643 Y54.086 E2.73181
G1 X161.978 Y54.363 E2.78944
G1 X161.175 Y54.606 E2.85656
G1 X160.470 Y54.744 E2.91403
G1 X159.621 Y54.824 E2.98225
G1 X158.944 Y54.824 E3.03641
G1 X158.120 Y54.746 E3.10262
G1 X157.416 Y54.608 E3.16001
G1 X156.653 Y54.377 E3.22379
G1 X155.993 Y54.103 E3.28096
G1 X155.222 Y53.689 E3.35097
G1 X154.646 Y53.304 E3.40640
G1 X154.037 Y52.806 E3.46933
G1 X153.517 Y52.283 E3.52833
G1 X153.428 Y52.173 E3.53965
G1 X153.123 Y51.733 E3.58248
G1 X152.887 Y51.251 E3.62542
G1 X152.724 Y50.740 E3.66832
G1 X152.640 Y50.210 E3.71125
G1 X152.638 Y50.014 E3.72693
G1 X152.570 Y49.912 E3.73674
G1 X152.481 Y49.763 E3.75063
G1 X152.324 Y49.469 E3.77729
G1 X152.249 Y49.312 E3.79121
G1 X152.105 Y48.967 E3.82112
G1 X152.047 Y48.804 E3.83496
G1 X151.946 Y48.470 E3.86287
G1 X151.904 Y48.302 E3.87673
G1 X151.837 Y47.967 E3.90406
G1 X151.811 Y47.795 E3.91797
G1 X151.775 Y47.422 E3.94795
G1 X151.767 Y47.248 E3.96189
G1 X151.765 Y46.958 E3.98509
G1 X151.771 Y46.785 E3.99894
G1 X151.809 Y46.372 E4.03212
G1 X151.835 Y46.200 E4.04603
G1 X151.902 Y45.865 E4.07336
G1 X151.944 Y45.697 E4.08722
G1 X152.045 Y45.363 E4.11513
G1 X152.103 Y45.200 E4.12897
G1 X152.247 Y44.855 E4.15888
G1 X152.322 Y44.698 E4.17280
G1 X152.448 Y44.462 E4.19420
G1 X152.437 Y44.222 E4.21342
G1 X152.492 Y43.688 E4.25637
G1 X152.626 Y43.169 E4.29925
G1 X152.835 Y42.675 E4.34216
G1 X153.245 Y42.048 E4.40209
G1 X153.509 Y41.724 E4.43553
G1 X154.031 Y41.203 E4.49453
G0 F9000.00000 X156.728 Y40.036
G1 F1800.000 X157.548 Y39.787 E4.56309
G1 X158.168 Y39.664 E4.61365
G1 X159.021 Y39.581 E4.68222
G1 X159.527 Y39.572 E4.72270
G1 X159.789 Y39.599 E4.74377
G1 X160.991 Y39.773 E4.84094
G1 X161.485 Y39.885 E4.88146
G1 X161.783 Y39.994 E4.90684
G1 X162.530 Y40.311 E4.97176
G1 X163.055 Y40.594 E5.01947
G1 X163.775 Y41.074 E5.08870
G1 X164.263 Y41.474 E5.13918
G1 X164.821 Y42.032 E5.20231
G1 X165.221 Y42.520 E5.25279
G1 X165.273 Y42.598 E5.26029
G1 X165.519 Y43.039 E5.30069
G1 X165.534 Y43.080 E5.30418
G1 X165.631 Y43.024 E5.31314
G1 X166.104 Y42.846 E5.35357
G1 X166.600 Y42.745 E5.39407
G1 X167.105 Y42.723 E5.43450
G1 X167.607 Y42.781 E5.47493
G1 X168.094 Y42.917 E5.51538
G1 X168.553 Y43.128 E5.55580
G1 X169.161 Y43.569 E5.61588
G1 X169.677 Y44.045 E5.67204
G1 X170.020 Y44.416 E5.71247
G1 X170.301 Y44.837 E5.75296
G1 X170.512 Y45.296 E5.79337
G1 X170.681 Y45.993 E5.85075
G1 X170.787 Y46.825 E5.91785
G1 X170.811 Y47.330 E5.95829
G1 X170.756 Y47.832 E5.99869
G1 X170.621 Y48.319 E6.03912
G1 X170.472 Y48.666 E6.06933
G1 X170.063 Y49.480 E6.14221
G1 X169.801 Y49.912 E6.18263
G1 X169.475 Y50.298 E6.22305
G1 X169.091 Y50.627 E6.26350
G1 X168.661 Y50.892 E6.30391
G1 X168.194 Y51.086 E6.34437
G1 X167.702 Y51.204 E6.38484
G1 X167.198 Y51.243 E6.42528
G1 X166.694 Y51.202 E6.46574
G1 X166.203 Y51.082 E6.50617
G1 X165.889 Y50.960 E6.53312
G1 X165.471 Y50.772 E6.56979
G1 X165.460 Y50.820 E6.57373
G1 X165.272 Y51.290 E6.61422
G1 X164.896 Y51.879 E6.67013
G1 X164.813 Y51.982 E6.68071
G1 X164.367 Y52.435 E6.73157
G1 X163.697 Y52.992 E6.80127
G1 X163.170 Y53.348 E6.85215
G1 X162.454 Y53.734 E6.91722
G1 X161.862 Y53.980 E6.96851
G1 X161.059 Y54.223 E7.03562
G1 X160.432 Y54.346 E7.08674
G1 X159.583 Y54.426 E7.15496
G1 X158.981 Y54.426 E7.20312
G1 X158.157 Y54.348 E7.26934
G1 X157.532 Y54.225 E7.32029
G1 X156.769 Y53.994 E7.38407
G1 X156.182 Y53.750 E7.43493
G1 X155.411 Y53.336 E7.50494
G1 X154.899 Y52.994 E7.55419
G1 X154.290 Y52.496 E7.61713
G1 X153.828 Y52.032 E7.66951
G1 X153.739 Y51.922 E7.68083
G1 X153.453 Y51.505 E7.72128
G1 X153.237 Y51.048 E7.76172
G1 X153.095 Y50.563 E7.80215
G1 X153.031 Y50.061 E7.84263
G1 X153.036 Y49.891 E7.85624
G1 X152.914 Y49.707 E7.87390
G1 X152.825 Y49.558 E7.88779
G1 X152.685 Y49.296 E7.91155
G1 X152.610 Y49.139 E7.92547
G1 X152.482 Y48.833 E7.95201
G1 X152.424 Y48.670 E7.96585
G1 X152.335 Y48.373 E7.99065
G1 X152.293 Y48.205 E8.00450
G1 X152.233 Y47.907 E8.02882
G1 X152.207 Y47.735 E8.04274
G1 X152.174 Y47.404 E8.06935
G1 X152.166 Y47.230 E8.08329
G1 X152.165 Y46.972 E8.10393
G1 X152.171 Y46.799 E8.11777
G1 X152.205 Y46.432 E8.14726
G1 X152.231 Y46.260 E8.16118
G1 X152.291 Y45.962 E8.18549
G1 X152.333 Y45.794 E8.19935
G1 X152.422 Y45.497 E8.22415
G1 X152.480 Y45.334 E8.23799
G1 X152.608 Y45.028 E8.26453
G1 X152.683 Y44.871 E8.27845
G1 X152.823 Y44.609 E8.30221
G1 X152.854 Y44.557 E8.30706
G1 X152.836 Y44.363 E8.32264
G1 X152.870 Y43.858 E8.36313
G1 X152.982 Y43.365 E8.40358
G1 X153.171 Y42.896 E8.44403
G1 X153.555 Y42.301 E8.50068
G1 X153.819 Y41.977 E8.53412
G1 X154.283 Y41.514 E8.58656
G1 X154.921 Y40.996 E8.65230
G1 X155.438 Y40.653 E8.70194
G1 X156.158 Y40.271 E8.76714
G1 X156.728 Y40.036 E8.81646
G0 F9000.00000 X112.500 Y40.651
G1 F1800.000 X112.843 Y47.174 E9.33903
G1 X112.831 Y47.710 E9.38192
G1 X112.740 Y48.239 E9.42486
G1 X112.571 Y48.748 E9.46776
G1 X112.329 Y49.226 E9.51063
G1 X112.018 Y49.663 E9.55353
G1 X111.645 Y50.049 E9.59648
G1 X111.220 Y50.375 E9.63933
G1 X110.750 Y50.635 E9.68230
G1 X110.248 Y50.821 E9.72512
G1 X109.723 Y50.932 E9.76805
G1 X109.275 Y50.963 E9.80398
G1 X101.217 Y51.024 E10.44864
G1 X101.214 Y51.028 E10.44904
G1 X100.822 Y51.394 E10.49194
G1 X100.380 Y51.697 E10.53481
G1 X99.897 Y51.932 E10.57778
G1 X99.386 Y52.092 E10.62062
G1 X98.856 Y52.175 E10.66354
G1 X98.766 Y52.178 E10.67074
G1 X96.534 Y54.279 E10.91596
G1 X96.046 Y55.148 E10.99570
G1 X95.750 Y55.595 E11.03859
G1 X95.390 Y55.993 E11.08152
G1 X94.975 Y56.333 E11.12444
G1 X94.514 Y56.607 E11.16734
G1 X94.018 Y56.810 E11.21022
G1 X93.497 Y56.937 E11.25312
G1 X92.963 Y56.986 E11.29602
G1 X92.427 Y56.954 E11.33897
G1 X91.903 Y56.843 E11.38182
G1 X91.400 Y56.656 E11.42475
G1 X90.931 Y56.395 E11.46769
G1 X90.506 Y56.069 E11.51054
G1 X90.174 Y55.729 E11.54856
G1 X87.150 Y52.201 E11.92029
G1 X86.757 Y52.320 E11.95314
G1 X86.072 Y52.456 E12.00901
G1 X85.158 Y52.547 E12.08249
G1 X84.445 Y52.547 E12.13953
G1 X83.540 Y52.457 E12.21229
G1 X82.838 Y52.316 E12.26957
G1 X81.908 Y52.030 E12.34741
G1 X81.217 Y51.736 E12.40748
G1 X80.346 Y51.252 E12.48720
G1 X79.754 Y50.840 E12.54490
G1 X79.026 Y50.217 E12.62155
G1 X78.542 Y49.714 E12.67740
G1 X77.936 Y48.947 E12.75560
G1 X77.525 Y48.293 E12.81739
G1 X77.089 Y47.399 E12.89696
G1 X76.831 Y46.690 E12.95732
G1 X76.632 Y45.890 E13.02327
G1 X76.535 Y45.275 E13.07308
G1 X76.451 Y44.089 E13.16820
G1 X76.453 Y43.553 E13.21108
G1 X76.526 Y43.063 E13.25071
G1 X76.817 Y41.737 E13.35932
G1 X76.970 Y41.224 E13.40214
G1 X77.077 Y40.974 E13.42390
G1 X77.106 Y40.913 E13.42930
G1 X76.838 Y40.796 E13.45270
G1 X76.383 Y40.511 E13.49565
G1 X75.975 Y40.163 E13.53855
G1 X75.624 Y39.757 E13.58148
G1 X75.338 Y39.304 E13.62434
G1 X75.121 Y38.813 E13.66729
G1 X74.980 Y38.296 E13.71016
G1 X74.917 Y37.763 E13.75309
G1 X74.917 Y37.469 E13.77661
G1 X74.974 Y36.013 E13.89318
G1 X75.035 Y35.480 E13.93610
G1 X75.174 Y34.962 E13.97901
G1 X75.389 Y34.471 E14.02189
G1 X75.674 Y34.017 E14.06477
G1 X76.024 Y33.610 E14.10771
G1 X76.430 Y33.260 E14.15060
G1 X76.883 Y32.974 E14.19346
G1 X77.374 Y32.759 E14.23634
G1 X77.892 Y32.619 E14.27926
G1 X78.425 Y32.557 E14.32219
G1 X78.704 Y32.556 E14.34451
G1 X86.091 Y32.830 E14.93588
G1 X86.624 Y32.890 E14.97879
G1 X87.143 Y33.028 E15.02175
G1 X87.634 Y33.242 E15.06460
G1 X88.089 Y33.527 E15.10755
G1 X88.496 Y33.875 E15.15039
G1 X88.752 Y34.158 E15.18092
G1 X90.531 Y36.348 E15.40664
G1 X90.959 Y36.515 E15.44339
G1 X91.424 Y36.783 E15.48633
G1 X91.844 Y37.116 E15.52921
G1 X92.210 Y37.508 E15.57211
G1 X92.513 Y37.950 E15.61498
G1 X92.748 Y38.433 E15.65795
G1 X92.758 Y38.466 E15.66071
G1 X95.542 Y38.466 E15.88343
G1 X95.591 Y38.381 E15.89128
G1 X95.924 Y37.961 E15.93416
G1 X96.316 Y37.595 E15.97707
G1 X96.758 Y37.292 E16.01994
G1 X97.241 Y37.057 E16.06291
G1 X97.752 Y36.897 E16.10574
G1 X98.282 Y36.814 E16.14866
G1 X98.569 Y36.803 E16.17164
G1 X99.548 Y36.807 E16.24996
G1 X109.070 Y37.244 E17.01252
G1 X109.602 Y37.308 E17.05539
G1 X110.119 Y37.451 E17.09830
G1 X110.609 Y37.669 E17.14120
G1 X111.061 Y37.957 E17.18408
G1 X111.466 Y38.310 E17.22706
G1 X111.813 Y38.718 E17.26991
G1 X112.096 Y39.174 E17.31284
G1 X112.308 Y39.666 E17.35570
G1 X112.445 Y40.185 E17.39864
G1 X112.500 Y40.651 E17.43618
G0 F9000.00000 X112.101 Y40.672
G1 F1800.000 X112.444 Y47.195 E17.95874
G1 X112.430 Y47.700 E17.99916
G1 X112.337 Y48.197 E18.03961
G1 X112.167 Y48.673 E18.08005
G1 X111.925 Y49.117 E18.12050
G1 X111.615 Y49.517 E18.16098
G1 X111.246 Y49.862 E18.20140
G1 X110.828 Y50.146 E18.24182
G1 X110.370 Y50.360 E18.28227
G1 X109.884 Y50.499 E18.32271
G1 X109.272 Y50.563 E18.37193
G1 X101.023 Y50.626 E19.03187
G1 X100.820 Y50.861 E19.05672
G1 X100.433 Y51.187 E19.09720
G1 X100.000 Y51.448 E19.13764
G1 X99.532 Y51.638 E19.17805
G1 X99.039 Y51.751 E19.21851
G1 X98.603 Y51.783 E19.25349
G1 X96.214 Y54.031 E19.51592
G1 X95.697 Y54.952 E19.60041
G1 X95.416 Y55.372 E19.64084
G1 X95.072 Y55.743 E19.68131
G1 X94.673 Y56.054 E19.72178
G1 X94.231 Y56.299 E19.76221
G1 X93.756 Y56.471 E19.80263
G1 X93.259 Y56.567 E19.84312
G1 X92.754 Y56.582 E19.88354
G1 X92.252 Y56.518 E19.92403
G1 X91.767 Y56.376 E19.96445
G1 X91.311 Y56.159 E20.00485
G1 X90.894 Y55.873 E20.04531
G1 X90.478 Y55.469 E20.09170
G1 X87.322 Y51.787 E20.47966
G1 X87.137 Y51.787 E20.49446
G1 X86.641 Y51.937 E20.53591
G1 X86.032 Y52.058 E20.58558
G1 X85.118 Y52.149 E20.65906
G1 X84.484 Y52.149 E20.70978
G1 X83.579 Y52.059 E20.78254
G1 X82.955 Y51.934 E20.83345
G1 X82.025 Y51.648 E20.91129
G1 X81.412 Y51.386 E20.96462
G1 X80.541 Y50.902 E21.04434
G1 X80.014 Y50.536 E21.09567
G1 X79.286 Y49.913 E21.17232
G1 X78.856 Y49.466 E21.22194
G1 X78.250 Y48.699 E21.30014
G1 X77.885 Y48.118 E21.35504
G1 X77.449 Y47.224 E21.43461
G1 X77.220 Y46.593 E21.48831
G1 X77.021 Y45.793 E21.55426
G1 X76.934 Y45.247 E21.59849
G1 X76.850 Y44.061 E21.69361
G1 X76.854 Y43.556 E21.73401
G1 X76.916 Y43.149 E21.76695
G1 X77.207 Y41.823 E21.87555
G1 X77.439 Y41.144 E21.93295
G1 X77.657 Y40.682 E21.97382
G1 X77.407 Y40.612 E21.99459
G1 X76.947 Y40.400 E22.03511
G1 X76.528 Y40.119 E22.07547
G1 X76.157 Y39.775 E22.11595
G1 X75.846 Y39.376 E22.15642
G1 X75.601 Y38.934 E22.19685
G1 X75.429 Y38.459 E22.23726
G1 X75.333 Y37.962 E22.27776
G1 X75.316 Y37.485 E22.31594
G1 X75.373 Y36.029 E22.43251
G1 X75.433 Y35.527 E22.47295
G1 X75.571 Y35.040 E22.51345
G1 X75.784 Y34.582 E22.55386
G1 X76.066 Y34.162 E22.59433
G1 X76.411 Y33.793 E22.63474
G1 X76.810 Y33.482 E22.67521
G1 X77.253 Y33.238 E22.71567
G1 X77.728 Y33.067 E22.75606
G1 X78.225 Y32.973 E22.79652
G1 X78.690 Y32.956 E22.83375
G1 X86.077 Y33.230 E23.42512
G1 X86.579 Y33.289 E23.46555
G1 X87.065 Y33.426 E23.50595
G1 X87.524 Y33.638 E23.54639
G1 X87.944 Y33.919 E23.58682
G1 X88.442 Y34.410 E23.64277
G1 X90.300 Y36.696 E23.87844
G1 X90.397 Y36.720 E23.88643
G1 X90.864 Y36.914 E23.92689
G1 X91.294 Y37.180 E23.96734
G1 X91.677 Y37.510 E24.00778
G1 X92.003 Y37.897 E24.04826
G1 X92.264 Y38.330 E24.08871
G1 X92.454 Y38.798 E24.12911
G1 X92.470 Y38.866 E24.13470
G1 X95.768 Y38.866 E24.39854
G1 X95.988 Y38.511 E24.43195
G1 X96.318 Y38.128 E24.47240
G1 X96.705 Y37.802 E24.51288
G1 X97.138 Y37.541 E24.55333
G1 X97.606 Y37.351 E24.59373
G1 X98.099 Y37.238 E24.63420
G1 X98.569 Y37.203 E24.67190
G1 X99.530 Y37.206 E24.74878
G1 X109.052 Y37.643 E25.51134
G1 X109.553 Y37.706 E25.55174
G1 X110.039 Y37.848 E25.59224
G1 X110.496 Y38.063 E25.63265
G1 X110.913 Y38.349 E25.67310
G1 X111.281 Y38.696 E25.71356
G1 X111.589 Y39.097 E25.75402
G1 X111.830 Y39.541 E25.79443
G1 X111.998 Y40.018 E25.83489
G1 X112.101 Y40.672 E25.88785
G0 F9000.00000 X108.905 Y40.840
;TYPE:SUPPORT
G1 F2400.000 X109.248 Y47.363 E26.41041
G1 X98.569 Y47.444 E27.26476
G1 X98.569 Y48.586 E27.35612
G1 X97.331 Y48.586 E27.45516
G1 X93.666 Y52.034 E27.85772
G1 X92.907 Y53.386 E27.98176
G1 X88.793 Y48.587 E28.48744
G1 X86.664 Y48.587 E28.65776
G1 X85.715 Y48.874 E28.73707
G1 X84.801 Y48.965 E28.81056
G1 X83.896 Y48.875 E28.88331
G1 X82.966 Y48.589 E28.96115
G1 X82.095 Y48.105 E29.04087
G1 X81.367 Y47.482 E29.11752
G1 X80.761 Y46.715 E29.19572
G1 X80.325 Y45.821 E29.27529
G1 X80.126 Y45.021 E29.34124
G1 X80.042 Y43.835 E29.43636
G1 X80.333 Y42.509 E29.54497
G1 X80.714 Y41.701 E29.61643
G1 X82.105 Y39.929 E29.79665
G1 X81.074 Y37.705 E29.99276
G1 X78.514 Y37.610 E30.19770
G1 X78.571 Y36.154 E30.31427
G1 X85.958 Y36.428 E30.90564
G1 X88.666 Y39.761 E31.24919
G1 X89.402 Y39.761 E31.30807
G1 X88.146 Y42.066 E31.51807
G1 X98.569 Y42.066 E32.35191
G1 X98.569 Y40.403 E32.48495
G1 X99.383 Y40.403 E32.55007
G1 X108.905 Y40.840 E33.31263
G0 F9000.00000 X87.397 Y44.054
G0 X87.017 Y44.176
G1 F2400.000 X86.773 Y43.418 E33.37634
G1 X85.572 Y42.219 E33.51210
G1 X84.807 Y41.962 E33.57666
G1 X84.044 Y42.223 E33.64118
G1 X82.849 Y43.418 E33.77637
G1 X82.604 Y44.172 E33.83980
G1 X82.847 Y44.930 E33.90348
G1 X84.048 Y46.129 E34.03924
G1 X84.813 Y46.386 E34.10380
G1 X85.575 Y46.125 E34.16824
G1 X86.772 Y44.930 E34.30355
G1 X87.017 Y44.176 E34.36698
G0 F9000.00000 X87.397 Y44.054
G0 X87.071 Y43.237
G0 X85.998 Y42.701
G1 F2400.000 X88.690 Y41.147 E34.61564
G0 F9000.00000 X88.349 Y41.773
G1 F2400.000 X78.548 Y36.114 E35.52104
G0 F9000.00000 X79.980 Y36.167
G1 F2400.000 X79.980 Y37.704 E35.64400
G0 F9000.00000 X78.738 Y37.658
G1 F2400.000 X81.241 Y36.212 E35.87525
G0 F9000.00000 X87.978 Y38.851
G1 F2400.000 X87.978 Y48.627 E36.65733
G0 F9000.00000 X89.753 Y49.769
G1 F2400.000 X105.554 Y40.646 E38.11698
G0 F9000.00000 X103.974 Y40.574
G1 F2400.000 X103.974 Y47.444 E38.66658
G0 F9000.00000 X98.608 Y47.696
G1 F2400.000 X88.788 Y42.026 E39.57373
G10
G0 F9000.00000 X84.806 Y41.605
G0 X83.860 Y41.928
G0 X82.551 Y43.237
G0 X82.249 Y44.172
G0 X82.770 Y44.565
G11
G1 F2400.000 X80.349 Y45.963 E39.79738
G0 F9000.00000 X80.639 Y46.557
G1 F2400.000 X84.867 Y48.998 E40.18794
G0 F9000.00000 X95.976 Y49.915
G1 F2400.000 X95.976 Y42.026 E40.81906
G0 F9000.00000 X102.121 Y40.489
G1 F2400.000 X109.139 Y44.541 E41.46736
G0 F9000.00000 X155.902 Y43.946
G0 X156.036 Y44.322
G1 F2400.000 X156.300 Y43.998 E41.50080
G1 X156.938 Y43.480 E41.56654
G1 X157.658 Y43.098 E41.63175
G1 X158.478 Y42.849 E41.70031
G1 X159.331 Y42.766 E41.76887
G1 X160.533 Y42.940 E41.86603
G1 X161.280 Y43.257 E41.93095
G1 X162.000 Y43.737 E42.00017
