;FLAVOR:UltiGCode
;TIME:9244
;MATERIAL:32935
;MATERIAL2:0
;POSTPROCESSED
;Generated with Cura_SteamEngine 1.99.0-dev.20151117
;LAYER_COUNT:130
;LAYER:0
M107
G0 F9000.000000 X55.904 Y13.779 Z0.300
G0 X59.479 Y11.235
;TYPE:SKIRT
G1 F1800.000 X110.369 Y11.235 E6.10680
G1 X113.197 Y11.195 E6.44619
G1 X116.023 Y11.075 E6.78562
G1 X119.501 Y10.817 E7.20413
G1 X120.769 Y10.701 E7.35692
G1 X120.939 Y10.696 E7.37733
G1 X121.248 Y10.695 E7.41441
G1 X138.006 Y10.830 E9.42544
G1 X138.677 Y10.844 E9.50597
G1 X138.825 Y10.852 E9.52376
G1 X139.856 Y10.930 E9.64783
G1 X139.856 Y10.924 E9.64855
G1 X141.753 Y11.062 E9.87679
G1 X144.579 Y11.188 E10.21625
G1 X147.633 Y11.235 E10.58277
G1 X153.939 Y11.235 E11.33949
G1 X156.767 Y11.195 E11.67889
G1 X159.593 Y11.075 E12.01831
G1 X162.414 Y10.875 E12.35768
G1 X163.822 Y10.739 E12.52743
G1 X164.179 Y10.710 E12.57041
G1 X164.217 Y10.708 E12.57498
G1 X164.352 Y10.705 E12.59118
G1 X164.684 Y10.713 E12.63103
G1 X164.702 Y10.713 E12.63319
G1 X165.167 Y10.750 E12.68917
G1 X167.058 Y10.926 E12.91707
G1 X169.880 Y11.108 E13.25641
G1 X172.707 Y11.211 E13.59588
G1 X174.917 Y11.235 E13.86109
G1 X175.314 Y11.235 E13.90873
G1 X176.020 Y11.245 E13.99346
G1 X176.177 Y11.252 E14.01232
G1 X176.494 Y11.281 E14.05052
G1 X176.516 Y11.284 E14.05319
G1 X176.527 Y11.286 E14.05453
G1 X176.677 Y11.317 E14.07291
G1 X176.976 Y11.394 E14.10996
G1 X177.029 Y11.409 E14.11657
G1 X177.160 Y11.459 E14.13339
G1 X177.471 Y11.594 E14.17408
G1 X177.475 Y11.595 E14.17457
G1 X177.503 Y11.610 E14.17838
G1 X177.605 Y11.669 E14.19252
G1 X177.894 Y11.853 E14.23364
G1 X177.895 Y11.854 E14.23381
G1 X177.902 Y11.859 E14.23484
G1 X178.051 Y11.980 E14.25787
G1 X178.275 Y12.178 E14.29375
G1 X178.301 Y12.204 E14.29816
G1 X178.381 Y12.293 E14.31252
G1 X178.600 Y12.560 E14.35396
G1 X178.609 Y12.571 E14.35567
G1 X178.620 Y12.586 E14.35790
G1 X178.697 Y12.706 E14.37501
G1 X178.871 Y13.004 E14.41642
G1 X178.876 Y13.012 E14.41755
G1 X178.937 Y13.152 E14.43587
G1 X179.062 Y13.472 E14.47710
G1 X179.069 Y13.493 E14.47976
G1 X179.100 Y13.613 E14.49463
G1 X179.162 Y13.900 E14.52986
G1 X179.242 Y14.752 E14.63255
G1 X179.388 Y16.728 E14.87032
G1 X179.583 Y18.536 E15.08854
G1 X179.754 Y20.366 E15.30909
G1 X179.755 Y20.385 E15.31138
G1 X179.763 Y20.632 E15.34103
G1 X179.764 Y20.680 E15.34679
G1 X179.763 Y20.958 E15.38015
G1 X179.625 Y43.139 E18.04193
G1 X179.611 Y43.856 E18.12798
G1 X179.605 Y43.992 E18.14432
G1 X179.532 Y44.975 E18.26260
G1 X179.536 Y44.975 E18.26308
G1 X179.383 Y47.122 E18.52138
G1 X179.262 Y49.948 E18.86081
G1 X179.221 Y52.809 E19.20416
G1 X179.221 Y65.461 E20.72240
G1 X179.261 Y68.289 E21.06180
G1 X179.381 Y71.115 E21.40122
G1 X179.581 Y73.936 E21.74059
G1 X179.744 Y75.524 E21.93215
G1 X179.735 Y75.525 E21.93324
G1 X179.819 Y76.385 E22.03693
G1 X179.855 Y76.861 E22.09421
G1 X179.849 Y77.011 E22.11223
G1 X179.803 Y77.563 E22.17870
G1 X179.571 Y79.930 E22.46410
G1 X179.374 Y82.751 E22.80344
G1 X179.258 Y85.577 E23.14285
G1 X179.221 Y88.287 E23.46808
G1 X179.221 Y103.228 E25.26100
G1 X179.211 Y103.934 E25.34573
G1 X179.204 Y104.091 E25.36459
G1 X179.175 Y104.405 E25.40243
G1 X179.172 Y104.430 E25.40545
G1 X179.171 Y104.439 E25.40654
G1 X179.142 Y104.578 E25.42357
G1 X179.060 Y104.896 E25.46298
G1 X179.051 Y104.930 E25.46720
G1 X179.048 Y104.940 E25.46846
G1 X178.997 Y105.074 E25.48566
G1 X178.871 Y105.366 E25.52382
G1 X178.861 Y105.389 E25.52683
G1 X178.846 Y105.417 E25.53065
G1 X178.787 Y105.519 E25.54479
G1 X178.603 Y105.808 E25.58590
G1 X178.597 Y105.817 E25.58720
G1 X178.476 Y105.965 E25.61014
G1 X178.281 Y106.186 E25.64550
G1 X178.252 Y106.215 E25.65043
G1 X178.168 Y106.291 E25.66402
G1 X177.881 Y106.526 E25.70853
G1 X177.879 Y106.528 E25.70887
G1 X177.869 Y106.534 E25.71027
G1 X177.750 Y106.611 E25.72728
G1 X177.447 Y106.788 E25.76939
G1 X177.437 Y106.793 E25.77073
G1 X177.304 Y106.851 E25.78814
G1 X176.984 Y106.976 E25.82937
G1 X176.982 Y106.977 E25.82964
G1 X176.963 Y106.983 E25.83203
G1 X176.843 Y107.014 E25.84690
G1 X176.556 Y107.076 E25.88213
G1 X176.040 Y107.124 E25.94432
G1 X176.020 Y107.125 E25.94672
G1 X175.774 Y107.133 E25.97626
G1 X175.564 Y107.135 E26.00146
G1 X59.729 Y107.135 E39.90166
G1 X59.023 Y107.125 E39.98639
G1 X58.866 Y107.118 E40.00525
G1 X58.549 Y107.089 E40.04345
G1 X58.527 Y107.086 E40.04611
G1 X58.516 Y107.084 E40.04745
G1 X58.366 Y107.053 E40.06583
G1 X58.061 Y106.974 E40.10364
G1 X58.014 Y106.961 E40.10949
G1 X57.881 Y106.910 E40.12659
G1 X57.572 Y106.776 E40.16700
G1 X57.568 Y106.775 E40.16750
G1 X57.540 Y106.760 E40.17131
G1 X57.438 Y106.701 E40.18545
G1 X57.148 Y106.516 E40.22673
G1 X57.137 Y106.508 E40.22836
G1 X57.133 Y106.505 E40.22896
G1 X56.992 Y106.390 E40.25079
G1 X56.765 Y106.189 E40.28718
G1 X56.742 Y106.166 E40.29108
G1 X56.661 Y106.076 E40.30561
G1 X56.431 Y105.795 E40.34919
G1 X56.423 Y105.784 E40.35082
G1 X56.423 Y105.783 E40.35094
G1 X56.346 Y105.664 E40.36795
G1 X56.169 Y105.361 E40.41006
G1 X56.163 Y105.349 E40.41167
G1 X56.106 Y105.218 E40.42881
G1 X55.980 Y104.895 E40.47041
G1 X55.974 Y104.877 E40.47269
G1 X55.943 Y104.757 E40.48756
G1 X55.881 Y104.470 E40.52280
G1 X55.833 Y103.954 E40.58499
G1 X55.832 Y103.934 E40.58739
G1 X55.824 Y103.688 E40.61692
G1 X55.822 Y103.478 E40.64213
G1 X55.822 Y15.142 E51.24245
G1 X55.832 Y14.435 E51.32729
G1 X55.839 Y14.271 E51.34699
G1 X55.868 Y13.962 E51.38423
G1 X55.872 Y13.931 E51.38799
G1 X55.873 Y13.929 E51.38825
G1 X55.904 Y13.779 E51.40663
G1 X55.983 Y13.472 E51.44467
G1 X55.996 Y13.427 E51.45030
G1 X56.046 Y13.296 E51.46712
G1 X56.182 Y12.982 E51.50818
G1 X56.197 Y12.953 E51.51210
G1 X56.256 Y12.851 E51.52624
G1 X56.447 Y12.552 E51.56882
G1 X56.448 Y12.551 E51.56899
G1 X56.567 Y12.405 E51.59159
G1 X56.765 Y12.181 E51.62747
G1 X56.792 Y12.154 E51.63205
G1 X56.882 Y12.073 E51.64658
G1 X57.162 Y11.844 E51.68998
G1 X57.164 Y11.842 E51.69032
G1 X57.174 Y11.836 E51.69172
G1 X57.293 Y11.759 E51.70873
G1 X57.596 Y11.582 E51.75084
G1 X57.611 Y11.575 E51.75283
G1 X57.739 Y11.519 E51.76959
G1 X58.062 Y11.393 E51.81120
G1 X58.080 Y11.387 E51.81347
G1 X58.200 Y11.356 E51.82835
G1 X58.487 Y11.294 E51.86358
G1 X59.003 Y11.246 E51.92577
G1 X59.023 Y11.245 E51.92817
G1 X59.269 Y11.237 E51.95771
G1 X59.479 Y11.235 E51.98291
G0 F9000.00000 X120.724 Y12.835
G0 X120.724 Y14.035
;TYPE:SUPPORT
G1 F2400.000 X120.724 Y13.891 E52.00019
G1 X138.664 Y14.035 E54.15306
G1 X120.724 Y14.035 E56.30586
G0 F9000.00000 X120.724 Y12.835
G0 X164.072 Y12.835
G0 X164.072 Y14.035
G1 F2400.000 X164.425 Y13.891 E56.35161
G1 X164.425 Y14.035 E56.36889
G1 X164.072 Y14.035 E56.41125
G0 F9000.00000 X164.072 Y12.835
G0 X177.549 Y12.907
G0 X176.421 Y20.385
G1 F2400.000 X176.565 Y20.385 E56.42853
G1 X176.565 Y20.660 E56.46153
G1 X176.421 Y43.843 E59.24354
G1 X176.421 Y20.385 E62.05850
G0 F9000.00000 X177.621 Y20.385
G0 X177.621 Y76.421
G0 X176.421 Y76.421
G1 F2400.000 X176.665 Y76.885 E62.12141
G1 X176.421 Y76.885 E62.15069
G1 X176.421 Y76.421 E62.20637
G10
G0 F9000.00000 X175.781 Y76.421
G0 X175.751 Y103.665
G0 X175.821 Y103.735
;TYPE:WALL-OUTER
G11
G1 F2400.000 X59.222 Y103.735 E76.19825
G1 X59.222 Y14.635 E86.89025
G1 X175.821 Y14.635 E100.88213
G1 X175.821 Y103.735 E111.57413
G0 F9000.00000 X175.376 Y103.534
;TYPE:SKIN
G1 F2400.000 X86.677 Y14.835 E126.62685
G0 F9000.00000 X87.242 Y14.835
G1 F2400.000 X175.620 Y103.212 E141.62501
G0 F9000.00000 X175.620 Y102.647
G1 F2400.000 X87.808 Y14.835 E156.52720
G0 F9000.00000 X88.374 Y14.835
G1 F2400.000 X175.620 Y102.081 E171.33334
G0 F9000.00000 X175.620 Y101.515
G1 F2400.000 X88.939 Y14.835 E186.04350
G0 F9000.00000 X89.505 Y14.835
G1 F2400.000 X175.620 Y100.950 E200.65770
G0 F9000.00000 X175.620 Y100.384
G1 F2400.000 X90.071 Y14.835 E215.17585
G0 F9000.00000 X90.636 Y14.835
G1 F2400.000 X175.620 Y99.818 E229.59803
G0 F9000.00000 X175.620 Y99.253
G1 F2400.000 X91.202 Y14.835 E243.92424
G0 F9000.00000 X91.768 Y14.835
G1 F2400.000 X175.620 Y98.687 E258.15440
G0 F9000.00000 X175.620 Y98.121
G1 F2400.000 X92.334 Y14.835 E272.28850
G0 F9000.00000 X92.899 Y14.835
G1 F2400.000 X175.620 Y97.555 E286.32663
G0 F9000.00000 X175.620 Y96.990
G1 F2400.000 X93.465 Y14.835 E300.26880
G0 F9000.00000 X94.031 Y14.835
G1 F2400.000 X175.620 Y96.424 E314.11491
G0 F9000.00000 X175.620 Y95.858
G1 F2400.000 X94.596 Y14.835 E327.86506
G0 F9000.00000 X95.162 Y14.835
G1 F2400.000 X175.620 Y95.293 E341.51923
G0 F9000.00000 X175.620 Y94.727
G1 F2400.000 X95.728 Y14.835 E355.07735
G0 F9000.00000 X96.293 Y14.835
G1 F2400.000 X175.620 Y94.161 E368.53951
G0 F9000.00000 X175.620 Y93.596
G1 F2400.000 X96.859 Y14.835 E381.90569
G0 F9000.00000 X97.425 Y14.835
G1 F2400.000 X175.620 Y93.030 E395.17582
G0 F9000.00000 X175.620 Y92.464
G1 F2400.000 X97.990 Y14.835 E408.34999
G0 F9000.00000 X98.556 Y14.835
G1 F2400.000 X175.620 Y91.899 E421.42818
G0 F9000.00000 X175.620 Y91.333
G1 F2400.000 X99.122 Y14.835 E434.41032
G0 F9000.00000 X99.687 Y14.835
G1 F2400.000 X175.620 Y90.767 E447.29649
G0 F9000.00000 X175.620 Y90.202
G1 F2400.000 X100.253 Y14.835 E460.08670
G0 F9000.00000 X100.819 Y14.835
G1 F2400.000 X175.620 Y89.636 E472.78085
G0 F9000.00000 X175.620 Y89.070
G1 F2400.000 X101.384 Y14.835 E485.37903
G0 F9000.00000 X101.950 Y14.835
G1 F2400.000 X175.620 Y88.505 E497.88124
G0 F9000.00000 X175.620 Y87.939
G1 F2400.000 X102.516 Y14.835 E510.28740
G0 F9000.00000 X103.082 Y14.835
G1 F2400.000 X175.620 Y87.373 E522.59751
G0 F9000.00000 X175.620 Y86.807
G1 F2400.000 X103.647 Y14.835 E534.81165
G0 F9000.00000 X104.213 Y14.835
G1 F2400.000 X175.620 Y86.242 E546.92982
G0 F9000.00000 X175.620 Y85.676
G1 F2400.000 X104.779 Y14.835 E558.95194
G0 F9000.00000 X105.344 Y14.835
G1 F2400.000 X175.620 Y85.110 E570.87808
G0 F9000.00000 X175.620 Y84.545
G1 F2400.000 X105.910 Y14.835 E582.70826
G0 F9000.00000 X106.476 Y14.835
G1 F2400.000 X175.620 Y83.979 E594.44239
G0 F9000.00000 X175.620 Y83.413
G1 F2400.000 X107.041 Y14.835 E606.08055
G0 F9000.00000 X107.607 Y14.835
G1 F2400.000 X175.620 Y82.848 E617.62273
G0 F9000.00000 X175.620 Y82.282
G1 F2400.000 X108.173 Y14.835 E629.06887
G0 F9000.00000 X108.738 Y14.835
G1 F2400.000 X175.620 Y81.716 E640.41904
G0 F9000.00000 X175.620 Y81.151
G1 F2400.000 X109.304 Y14.835 E651.67324
G0 F9000.00000 X109.870 Y14.835
G1 F2400.000 X175.620 Y80.585 E662.83138
G0 F9000.00000 X175.620 Y80.019
G1 F2400.000 X110.435 Y14.835 E673.89356
G0 F9000.00000 X111.001 Y14.835
G1 F2400.000 X175.620 Y79.454 E684.85976
G0 F9000.00000 X175.620 Y78.888
G1 F2400.000 X111.567 Y14.835 E695.72992
G0 F9000.00000 X112.132 Y14.835
G1 F2400.000 X175.620 Y78.322 E706.50411
G0 F9000.00000 X175.620 Y77.756
G1 F2400.000 X112.698 Y14.835 E717.18224
G0 F9000.00000 X113.264 Y14.835
G1 F2400.000 X175.620 Y77.191 E727.76440
G0 F9000.00000 X175.620 Y76.625
G1 F2400.000 X113.830 Y14.835 E738.25051
G0 F9000.00000 X114.395 Y14.835
G1 F2400.000 X175.620 Y76.059 E748.64065
G0 F9000.00000 X175.620 Y75.494
G1 F2400.000 X114.961 Y14.835 E758.93483
G0 F9000.00000 X115.527 Y14.835
G1 F2400.000 X175.620 Y74.928 E769.13295
G0 F9000.00000 X175.620 Y74.362
G1 F2400.000 X116.092 Y14.835 E779.23510
G0 F9000.00000 X116.658 Y14.835
G1 F2400.000 X175.620 Y73.797 E789.24128
G0 F9000.00000 X175.620 Y73.231
G1 F2400.000 X117.224 Y14.835 E799.15141
G0 F9000.00000 X117.789 Y14.835
G1 F2400.000 X175.620 Y72.665 E808.96557
G0 F9000.00000 X175.620 Y72.100
G1 F2400.000 X118.355 Y14.835 E818.68377
G0 F9000.00000 X118.921 Y14.835
G1 F2400.000 X175.620 Y71.534 E828.30591
G0 F9000.00000 X175.620 Y70.968
G1 F2400.000 X119.486 Y14.835 E837.83208
G0 F9000.00000 X120.052 Y14.835
G1 F2400.000 X175.620 Y70.403 E847.26228
G0 F9000.00000 X175.620 Y69.837
G1 F2400.000 X120.618 Y14.835 E856.59643
G0 F9000.00000 X121.183 Y14.835
G1 F2400.000 X175.620 Y69.271 E865.83461
G0 F9000.00000 X175.620 Y68.706
G1 F2400.000 X121.749 Y14.835 E874.97682
G0 F9000.00000 X122.315 Y14.835
G1 F2400.000 X175.620 Y68.140 E884.02298
G0 F9000.00000 X175.620 Y67.574
G1 F2400.000 X122.881 Y14.835 E892.97308
G0 F9000.00000 X123.446 Y14.835
G1 F2400.000 X175.620 Y67.008 E901.82722
G0 F9000.00000 X175.620 Y66.443
G1 F2400.000 X124.012 Y14.835 E910.58539
G0 F9000.00000 X124.578 Y14.835
G1 F2400.000 X175.620 Y65.877 E919.24750
G0 F9000.00000 X175.620 Y65.311
G1 F2400.000 X125.143 Y14.835 E927.81365
G0 F9000.00000 X125.709 Y14.835
G1 F2400.000 X175.620 Y64.746 E936.28383
G0 F9000.00000 X175.620 Y64.180
G1 F2400.000 X126.275 Y14.835 E944.65795
G0 F9000.00000 X126.840 Y14.835
G1 F2400.000 X175.620 Y63.614 E952.93611
G0 F9000.00000 X175.620 Y63.049
G1 F2400.000 X127.406 Y14.835 E961.11829
G0 F9000.00000 X127.972 Y14.835
G1 F2400.000 X175.620 Y62.483 E969.20443
G0 F9000.00000 X175.620 Y61.917
G1 F2400.000 X128.537 Y14.835 E977.19459
G0 F9000.00000 X129.103 Y14.835
G1 F2400.000 X175.620 Y61.352 E985.08879
G0 F9000.00000 X175.620 Y60.786
G1 F2400.000 X129.669 Y14.835 E992.88693
G0 F9000.00000 X130.234 Y14.835
G1 F2400.000 X175.620 Y60.220 E1000.58911
G0 F9000.00000 X175.620 Y59.655
G1 F2400.000 X130.800 Y14.835 E1008.19531
G0 F9000.00000 X131.366 Y14.835
G1 F2400.000 X175.620 Y59.089 E1015.70547
G0 F9000.00000 X175.620 Y58.523
G1 F2400.000 X131.931 Y14.835 E1023.11965
G0 F9000.00000 X132.497 Y14.835
G1 F2400.000 X175.620 Y57.958 E1030.43787
G0 F9000.00000 X175.620 Y57.392
G1 F2400.000 X133.063 Y14.835 E1037.66003
G0 F9000.00000 X133.629 Y14.835
G1 F2400.000 X175.620 Y56.826 E1044.78614
G0 F9000.00000 X175.620 Y56.260
G1 F2400.000 X134.194 Y14.835 E1051.81628
G0 F9000.00000 X134.760 Y14.835
G1 F2400.000 X175.620 Y55.695 E1058.75045
G0 F9000.00000 X175.620 Y55.129
G1 F2400.000 X135.326 Y14.835 E1065.58857
G0 F9000.00000 X135.891 Y14.835
G1 F2400.000 X175.620 Y54.563 E1072.33072
G0 F9000.00000 X175.620 Y53.998
G1 F2400.000 X136.457 Y14.835 E1078.97690
G0 F9000.00000 X137.023 Y14.835
G1 F2400.000 X175.620 Y53.432 E1085.52703
G0 F9000.00000 X175.620 Y52.866
G1 F2400.000 X137.588 Y14.835 E1091.98119
G0 F9000.00000 X138.154 Y14.835
G1 F2400.000 X175.620 Y52.301 E1098.33938
G0 F9000.00000 X175.620 Y51.735
G1 F2400.000 X138.720 Y14.835 E1104.60152
G0 F9000.00000 X139.285 Y14.835
G1 F2400.000 X175.620 Y51.169 E1110.76769
G0 F9000.00000 X175.620 Y50.604
G1 F2400.000 X139.851 Y14.835 E1116.83789
G0 F9000.00000 X140.417 Y14.835
G1 F2400.000 X175.620 Y50.038 E1122.81203
G0 F9000.00000 X175.620 Y49.472
G1 F2400.000 X140.982 Y14.835 E1128.69021
G0 F9000.00000 X141.548 Y14.835
G1 F2400.000 X175.620 Y48.907 E1134.47242
G0 F9000.00000 X175.620 Y48.341
G1 F2400.000 X142.114 Y14.835 E1140.15858
G0 F9000.00000 X142.680 Y14.835
G1 F2400.000 X175.620 Y47.775 E1145.74868
G0 F9000.00000 X175.620 Y47.209
G1 F2400.000 X143.245 Y14.835 E1151.24282
G0 F9000.00000 X143.811 Y14.835
G1 F2400.000 X175.620 Y46.644 E1156.64098
G0 F9000.00000 X175.620 Y46.078
G1 F2400.000 X144.377 Y14.835 E1161.94310
G0 F9000.00000 X144.942 Y14.835
G1 F2400.000 X175.620 Y45.512 E1167.14924
G0 F9000.00000 X175.620 Y44.947
G1 F2400.000 X145.508 Y14.835 E1172.25942
G0 F9000.00000 X146.074 Y14.835
G1 F2400.000 X175.620 Y44.381 E1177.27354
G0 F9000.00000 X175.620 Y43.815
G1 F2400.000 X146.639 Y14.835 E1182.19169
G0 F9000.00000 X147.205 Y14.835
G1 F2400.000 X175.620 Y43.250 E1187.01388
G0 F9000.00000 X175.620 Y42.684
G1 F2400.000 X147.771 Y14.835 E1191.74001
G0 F9000.00000 X148.336 Y14.835
G1 F2400.000 X175.620 Y42.118 E1196.37018
G0 F9000.00000 X175.620 Y41.553
G1 F2400.000 X148.902 Y14.835 E1200.90437
G0 F9000.00000 X149.468 Y14.835
G1 F2400.000 X175.620 Y40.987 E1205.34251
G0 F9000.00000 X175.620 Y40.421
G1 F2400.000 X150.033 Y14.835 E1209.68468
G0 F9000.00000 X150.599 Y14.835
G1 F2400.000 X175.620 Y39.856 E1213.93089
G0 F9000.00000 X175.620 Y39.290
G1 F2400.000 X151.165 Y14.835 E1218.08104
G0 F9000.00000 X151.730 Y14.835
G1 F2400.000 X175.620 Y38.724 E1222.13522
G0 F9000.00000 X175.620 Y38.159
G1 F2400.000 X152.296 Y14.835 E1226.09344
G0 F9000.00000 X152.862 Y14.835
G1 F2400.000 X175.620 Y37.593 E1229.95560
G0 F9000.00000 X175.620 Y37.027
G1 F2400.000 X153.428 Y14.835 E1233.72171
G0 F9000.00000 X153.993 Y14.835
G1 F2400.000 X175.620 Y36.461 E1237.39184
G0 F9000.00000 X175.620 Y35.896
