;FLAVOR:UltiGCode
;TIME:9244
;MATERIAL:33597
;MATERIAL2:0
;POSTPROCESSED
;Generated with Cura_SteamEngine 1.99.0-dev.20151117
;LAYER_COUNT:142
;LAYER:0
M107
G0 F9000.000000 X56.568 Y25.586 Z0.300
G0 X59.865 Y23.839
;TYPE:SKIRT
G1 F1800.000 X175.700 Y23.839 E13.90020
G1 X176.406 Y23.849 E13.98493
G1 X176.563 Y23.856 E14.00379
G1 X176.880 Y23.885 E14.04199
G1 X176.902 Y23.888 E14.04465
G1 X176.913 Y23.890 E14.04599
G1 X177.063 Y23.921 E14.06437
G1 X177.362 Y23.998 E14.10142
G1 X177.415 Y24.013 E14.10803
G1 X177.546 Y24.063 E14.12486
G1 X177.857 Y24.198 E14.16554
G1 X177.861 Y24.199 E14.16604
G1 X177.889 Y24.214 E14.16985
G1 X177.991 Y24.273 E14.18399
G1 X178.280 Y24.457 E14.22510
G1 X178.281 Y24.458 E14.22527
G1 X178.288 Y24.463 E14.22630
G1 X178.437 Y24.584 E14.24934
G1 X178.661 Y24.782 E14.28521
G1 X178.687 Y24.808 E14.28963
G1 X178.767 Y24.897 E14.30399
G1 X178.986 Y25.164 E14.34543
G1 X178.995 Y25.175 E14.34713
G1 X179.006 Y25.190 E14.34936
G1 X179.083 Y25.310 E14.36647
G1 X179.257 Y25.608 E14.40788
G1 X179.262 Y25.616 E14.40901
G1 X179.323 Y25.756 E14.42734
G1 X179.448 Y26.076 E14.46857
G1 X179.455 Y26.097 E14.47122
G1 X179.486 Y26.217 E14.48609
G1 X179.548 Y26.504 E14.52133
G1 X179.596 Y27.020 E14.58352
G1 X179.597 Y27.039 E14.58580
G1 X179.605 Y27.286 E14.61546
G1 X179.607 Y27.445 E14.63454
G1 X179.607 Y115.831 E25.24086
G1 X179.597 Y116.537 E25.32559
G1 X179.590 Y116.694 E25.34444
G1 X179.561 Y117.008 E25.38228
G1 X179.558 Y117.033 E25.38531
G1 X179.557 Y117.042 E25.38639
G1 X179.528 Y117.181 E25.40343
G1 X179.446 Y117.499 E25.44284
G1 X179.437 Y117.533 E25.44706
G1 X179.434 Y117.543 E25.44831
G1 X179.383 Y117.677 E25.46552
G1 X179.257 Y117.969 E25.50368
G1 X179.247 Y117.992 E25.50669
G1 X179.232 Y118.020 E25.51050
G1 X179.173 Y118.122 E25.52464
G1 X178.989 Y118.411 E25.56576
G1 X178.983 Y118.420 E25.56705
G1 X178.862 Y118.568 E25.58999
G1 X178.667 Y118.789 E25.62536
G1 X178.638 Y118.818 E25.63028
G1 X178.554 Y118.894 E25.64388
G1 X178.267 Y119.129 E25.68839
G1 X178.265 Y119.131 E25.68873
G1 X178.255 Y119.137 E25.69013
G1 X178.136 Y119.214 E25.70714
G1 X177.833 Y119.391 E25.74925
G1 X177.823 Y119.396 E25.75059
G1 X177.690 Y119.454 E25.76800
G1 X177.370 Y119.579 E25.80922
G1 X177.368 Y119.580 E25.80949
G1 X177.349 Y119.586 E25.81188
G1 X177.229 Y119.617 E25.82676
G1 X176.942 Y119.679 E25.86199
G1 X176.426 Y119.727 E25.92418
G1 X176.406 Y119.728 E25.92658
G1 X176.160 Y119.736 E25.95612
G1 X175.950 Y119.738 E25.98132
G1 X60.115 Y119.738 E39.88152
G1 X59.409 Y119.728 E39.96625
G1 X59.252 Y119.721 E39.98510
G1 X58.935 Y119.692 E40.02330
G1 X58.913 Y119.689 E40.02597
G1 X58.902 Y119.687 E40.02731
G1 X58.752 Y119.656 E40.04569
G1 X58.447 Y119.577 E40.08350
G1 X58.400 Y119.564 E40.08935
G1 X58.267 Y119.513 E40.10644
G1 X57.958 Y119.379 E40.14686
G1 X57.954 Y119.378 E40.14735
G1 X57.926 Y119.363 E40.15117
G1 X57.824 Y119.304 E40.16531
G1 X57.534 Y119.119 E40.20658
G1 X57.523 Y119.111 E40.20822
G1 X57.519 Y119.108 E40.20882
G1 X57.378 Y118.993 E40.23065
G1 X57.151 Y118.792 E40.26703
G1 X57.128 Y118.769 E40.27094
G1 X57.047 Y118.679 E40.28547
G1 X56.817 Y118.398 E40.32904
G1 X56.809 Y118.387 E40.33067
G1 X56.809 Y118.386 E40.33079
G1 X56.732 Y118.267 E40.34780
G1 X56.555 Y117.964 E40.38991
G1 X56.549 Y117.952 E40.39152
G1 X56.492 Y117.821 E40.40867
G1 X56.366 Y117.498 E40.45027
G1 X56.360 Y117.480 E40.45255
G1 X56.329 Y117.360 E40.46742
G1 X56.267 Y117.073 E40.50266
G1 X56.219 Y116.557 E40.56484
G1 X56.218 Y116.537 E40.56725
G1 X56.210 Y116.291 E40.59678
G1 X56.208 Y116.081 E40.62198
G1 X56.208 Y27.746 E51.22218
G1 X56.218 Y27.039 E51.30703
G1 X56.225 Y26.875 E51.32673
G1 X56.254 Y26.566 E51.36397
G1 X56.258 Y26.535 E51.36772
G1 X56.259 Y26.533 E51.36799
G1 X56.290 Y26.383 E51.38637
G1 X56.369 Y26.076 E51.42441
G1 X56.382 Y26.031 E51.43003
G1 X56.432 Y25.900 E51.44686
G1 X56.568 Y25.586 E51.48792
G1 X56.583 Y25.557 E51.49184
G1 X56.642 Y25.455 E51.50598
G1 X56.833 Y25.156 E51.54855
G1 X56.834 Y25.155 E51.54872
G1 X56.953 Y25.009 E51.57133
G1 X57.151 Y24.785 E51.60720
G1 X57.178 Y24.758 E51.61178
G1 X57.268 Y24.677 E51.62631
G1 X57.548 Y24.448 E51.66972
G1 X57.550 Y24.446 E51.67006
G1 X57.560 Y24.440 E51.67146
G1 X57.679 Y24.363 E51.68847
G1 X57.982 Y24.186 E51.73058
G1 X57.997 Y24.179 E51.73256
G1 X58.125 Y24.123 E51.74933
G1 X58.448 Y23.997 E51.79093
G1 X58.466 Y23.991 E51.79321
G1 X58.586 Y23.960 E51.80808
G1 X58.873 Y23.898 E51.84332
G1 X59.389 Y23.850 E51.90551
G1 X59.409 Y23.849 E51.90791
G1 X59.655 Y23.841 E51.93744
G1 X59.865 Y23.839 E51.96265
G10
G0 F9000.00000 X59.865 Y25.499
G0 X59.865 Y27.279
G0 X59.678 Y27.309
G0 X59.608 Y27.239
;TYPE:WALL-OUTER
G11
G1 F2400.000 X176.207 Y27.239 E65.95453
G1 X176.207 Y116.338 E76.64641
G1 X59.608 Y116.338 E90.63829
G1 X59.608 Y27.239 E101.33017
G0 F9000.00000 X60.008 Y27.639
;TYPE:SKIN
G1 F2400.000 X175.807 Y27.639 E115.22605
G1 X175.807 Y115.938 E125.82193
G1 X60.008 Y115.938 E139.71781
G1 X60.008 Y27.639 E150.31369
G0 F9000.00000 X60.408 Y28.039
G1 F2400.000 X175.407 Y28.039 E164.11357
G1 X175.407 Y115.538 E174.61345
G1 X60.408 Y115.538 E188.41333
G1 X60.408 Y28.039 E198.91321
G0 F9000.00000 X60.808 Y28.439
G1 F2400.000 X175.007 Y28.439 E212.61709
G1 X175.007 Y115.138 E223.02097
G1 X60.808 Y115.138 E236.72485
G1 X60.808 Y28.439 E247.12873
G0 F9000.00000 X61.208 Y28.839
G1 F2400.000 X174.607 Y28.839 E260.73661
G1 X174.607 Y114.738 E271.04449
G1 X61.208 Y114.738 E284.65237
G1 X61.208 Y28.839 E294.96025
G0 F9000.00000 X61.608 Y29.239
G1 F2400.000 X174.207 Y29.239 E308.47213
G1 X174.207 Y114.338 E318.68401
G1 X61.608 Y114.338 E332.19589
G1 X61.608 Y29.239 E342.40777
G0 F9000.00000 X62.008 Y29.639
G1 F2400.000 X173.807 Y29.639 E355.82365
G1 X173.807 Y113.938 E365.93953
G1 X62.008 Y113.938 E379.35541
G1 X62.008 Y29.639 E389.47129
G0 F9000.00000 X62.408 Y30.039
G1 F2400.000 X173.407 Y30.039 E402.79117
G1 X173.407 Y113.538 E412.81105
G1 X62.408 Y113.538 E426.13093
G1 X62.408 Y30.039 E436.15081
G0 F9000.00000 X62.808 Y30.439
G1 F2400.000 X173.007 Y30.439 E449.37469
G1 X173.007 Y113.138 E459.29857
G1 X62.808 Y113.138 E472.52245
G1 X62.808 Y30.439 E482.44633
G0 F9000.00000 X63.208 Y30.839
G1 F2400.000 X172.607 Y30.839 E495.57421
G1 X172.607 Y112.738 E505.40209
G1 X63.208 Y112.738 E518.52997
G1 X63.208 Y30.839 E528.35785
G0 F9000.00000 X63.608 Y31.239
G1 F2400.000 X172.207 Y31.239 E541.38973
G1 X172.207 Y112.338 E551.12161
G1 X63.608 Y112.338 E564.15349
G1 X63.608 Y31.239 E573.88537
G0 F9000.00000 X64.008 Y31.639
G1 F2400.000 X171.807 Y31.639 E586.82125
G1 X171.807 Y111.938 E596.45713
G1 X64.008 Y111.938 E609.39301
G1 X64.008 Y31.639 E619.02889
G0 F9000.00000 X64.408 Y32.039
G1 F2400.000 X171.407 Y32.039 E631.86877
G1 X171.407 Y111.538 E641.40865
G1 X64.408 Y111.538 E654.24853
G1 X64.408 Y32.039 E663.78841
G0 F9000.00000 X64.808 Y32.439
G1 F2400.000 X171.007 Y32.439 E676.53229
G1 X171.007 Y111.138 E685.97617
G1 X64.808 Y111.138 E698.72005
G1 X64.808 Y32.439 E708.16393
G0 F9000.00000 X65.208 Y32.839
G1 F2400.000 X170.607 Y32.839 E720.81181
G1 X170.607 Y110.738 E730.15969
G1 X65.208 Y110.738 E742.80757
G1 X65.208 Y32.839 E752.15545
G0 F9000.00000 X65.608 Y33.239
G1 F2400.000 X170.207 Y33.239 E764.70733
G1 X170.207 Y110.338 E773.95921
G1 X65.608 Y110.338 E786.51109
G1 X65.608 Y33.239 E795.76297
G0 F9000.00000 X66.008 Y33.639
G1 F2400.000 X169.807 Y33.639 E808.21885
G1 X169.807 Y109.938 E817.37473
G1 X66.008 Y109.938 E829.83061
G1 X66.008 Y33.639 E838.98649
G0 F9000.00000 X66.408 Y34.039
G1 F2400.000 X169.407 Y34.039 E851.34637
G1 X169.407 Y109.538 E860.40625
G1 X66.408 Y109.538 E872.76613
G1 X66.408 Y34.039 E881.82601
G0 F9000.00000 X66.808 Y34.439
G1 F2400.000 X169.007 Y34.439 E894.08989
G1 X169.007 Y109.138 E903.05377
G1 X66.808 Y109.138 E915.31765
G1 X66.808 Y34.439 E924.28153
G0 F9000.00000 X67.208 Y34.839
G1 F2400.000 X168.607 Y34.839 E936.44941
G1 X168.607 Y108.738 E945.31729
G1 X67.208 Y108.738 E957.48517
G1 X67.208 Y34.839 E966.35305
G0 F9000.00000 X67.608 Y35.239
G1 F2400.000 X168.207 Y35.239 E978.42493
G1 X168.207 Y108.338 E987.19681
G1 X67.608 Y108.338 E999.26869
G1 X67.608 Y35.239 E1008.04057
G0 F9000.00000 X68.008 Y35.639
G1 F2400.000 X167.807 Y35.639 E1020.01645
G1 X167.807 Y107.938 E1028.69233
G1 X68.008 Y107.938 E1040.66821
G1 X68.008 Y35.639 E1049.34409
G0 F9000.00000 X68.408 Y36.039
G1 F2400.000 X167.407 Y36.039 E1061.22397
G1 X167.407 Y107.538 E1069.80385
G1 X68.408 Y107.538 E1081.68373
G1 X68.408 Y36.039 E1090.26361
G0 F9000.00000 X68.808 Y36.439
G1 F2400.000 X167.007 Y36.439 E1102.04749
G1 X167.007 Y107.138 E1110.53137
G1 X68.808 Y107.138 E1122.31525
G1 X68.808 Y36.439 E1130.79913
G0 F9000.00000 X69.208 Y36.839
G1 F2400.000 X166.607 Y36.839 E1142.48701
G1 X166.607 Y106.738 E1150.87489
G1 X69.208 Y106.738 E1162.56277
G1 X69.208 Y36.839 E1170.95065
G0 F9000.00000 X69.608 Y37.239
G1 F2400.000 X166.207 Y37.239 E1182.54253
G1 X166.207 Y106.338 E1190.83441
G1 X69.608 Y106.338 E1202.42629
G1 X69.608 Y37.239 E1210.71817
G0 F9000.00000 X70.008 Y37.639
G1 F2400.000 X165.807 Y37.639 E1222.21405
G1 X165.807 Y105.938 E1230.40993
G1 X70.008 Y105.938 E1241.90581
G1 X70.008 Y37.639 E1250.10169
G0 F9000.00000 X70.408 Y38.039
G1 F2400.000 X165.407 Y38.039 E1261.50157
G1 X165.407 Y105.538 E1269.60145
G1 X70.408 Y105.538 E1281.00133
G1 X70.408 Y38.039 E1289.10121
G0 F9000.00000 X70.808 Y38.439
G1 F2400.000 X165.007 Y38.439 E1300.40509
G1 X165.007 Y105.138 E1308.40897
G1 X70.808 Y105.138 E1319.71285
G1 X70.808 Y38.439 E1327.71673
G0 F9000.00000 X71.208 Y38.839
G1 F2400.000 X164.607 Y38.839 E1338.92461
G1 X164.607 Y104.738 E1346.83249
G1 X71.208 Y104.738 E1358.04037
G1 X71.208 Y38.839 E1365.94825
G0 F9000.00000 X71.608 Y39.239
G1 F2400.000 X164.207 Y39.239 E1377.06013
G1 X164.207 Y104.338 E1384.87201
G1 X71.608 Y104.338 E1395.98389
G1 X71.608 Y39.239 E1403.79577
G0 F9000.00000 X72.008 Y39.639
G1 F2400.000 X163.807 Y39.639 E1414.81165
G1 X163.807 Y103.938 E1422.52753
G1 X72.008 Y103.938 E1433.54341
G1 X72.008 Y39.639 E1441.25929
G0 F9000.00000 X72.408 Y40.039
G1 F2400.000 X163.407 Y40.039 E1452.17917
G1 X163.407 Y103.538 E1459.79905
G1 X72.408 Y103.538 E1470.71893
G1 X72.408 Y40.039 E1478.33881
G0 F9000.00000 X72.808 Y40.439
G1 F2400.000 X163.007 Y40.439 E1489.16269
G1 X163.007 Y103.138 E1496.68657
G1 X72.808 Y103.138 E1507.51045
G1 X72.808 Y40.439 E1515.03433
G0 F9000.00000 X73.208 Y40.839
G1 F2400.000 X162.607 Y40.839 E1525.76221
G1 X162.607 Y102.738 E1533.19009
G1 X73.208 Y102.738 E1543.91797
G1 X73.208 Y40.839 E1551.34585
G0 F9000.00000 X73.608 Y41.239
G1 F2400.000 X162.207 Y41.239 E1561.97773
G1 X162.207 Y102.338 E1569.30961
G1 X73.608 Y102.338 E1579.94149
G1 X73.608 Y41.239 E1587.27337
G0 F9000.00000 X74.008 Y41.639
G1 F2400.000 X161.807 Y41.639 E1597.80925
G1 X161.807 Y101.938 E1605.04513
G1 X74.008 Y101.938 E1615.58101
G1 X74.008 Y41.639 E1622.81689
G0 F9000.00000 X74.408 Y42.039
G1 F2400.000 X161.407 Y42.039 E1633.25677
G1 X161.407 Y101.538 E1640.39665
G1 X74.408 Y101.538 E1650.83653
G1 X74.408 Y42.039 E1657.97641
G0 F9000.00000 X74.808 Y42.439
G1 F2400.000 X161.007 Y42.439 E1668.32029
G1 X161.007 Y101.138 E1675.36417
G1 X74.808 Y101.138 E1685.70805
G1 X74.808 Y42.439 E1692.75193
G0 F9000.00000 X75.208 Y42.839
G1 F2400.000 X160.607 Y42.839 E1702.99981
G1 X160.607 Y100.738 E1709.94769
G1 X75.208 Y100.738 E1720.19557
G1 X75.208 Y42.839 E1727.14345
G0 F9000.00000 X75.608 Y43.239
G1 F2400.000 X160.207 Y43.239 E1737.29533
G1 X160.207 Y100.338 E1744.14721
G1 X75.608 Y100.338 E1754.29909
G1 X75.608 Y43.239 E1761.15097
G0 F9000.00000 X76.008 Y43.639
G1 F2400.000 X159.807 Y43.639 E1771.20685
G1 X159.807 Y99.938 E1777.96273
G1 X76.008 Y99.938 E1788.01861
G1 X76.008 Y43.639 E1794.77449
G0 F9000.00000 X76.408 Y44.039
G1 F2400.000 X159.407 Y44.039 E1804.73437
G1 X159.407 Y99.538 E1811.39425
G1 X76.408 Y99.538 E1821.35413
G1 X76.408 Y44.039 E1828.01401
G0 F9000.00000 X76.808 Y44.439
G1 F2400.000 X159.007 Y44.439 E1837.87789
G1 X159.007 Y99.138 E1844.44177
G1 X76.808 Y99.138 E1854.30565
G1 X76.808 Y44.439 E1860.86953
G0 F9000.00000 X77.208 Y44.839
G1 F2400.000 X158.607 Y44.839 E1870.63741
G1 X158.607 Y98.738 E1877.10529
G1 X77.208 Y98.738 E1886.87317
G1 X77.208 Y44.839 E1893.34105
G0 F9000.00000 X77.608 Y45.239
G1 F2400.000 X158.207 Y45.239 E1903.01293
G1 X158.207 Y98.338 E1909.38481
G1 X77.608 Y98.338 E1919.05669
G1 X77.608 Y45.239 E1925.42857
G0 F9000.00000 X78.008 Y45.639
G1 F2400.000 X157.807 Y45.639 E1935.00445
G1 X157.807 Y97.938 E1941.28033
G1 X78.008 Y97.938 E1950.85621
G1 X78.008 Y45.639 E1957.13209
G0 F9000.00000 X78.408 Y46.039
G1 F2400.000 X157.407 Y46.039 E1966.61197
G1 X157.407 Y97.538 E1972.79185
G1 X78.408 Y97.538 E1982.27173
G1 X78.408 Y46.039 E1988.45161
G0 F9000.00000 X78.808 Y46.439
G1 F2400.000 X157.007 Y46.439 E1997.83549
G1 X157.007 Y97.138 E2003.91937
G1 X78.808 Y97.138 E2013.30325
G1 X78.808 Y46.439 E2019.38713
G0 F9000.00000 X79.208 Y46.839
G1 F2400.000 X156.607 Y46.839 E2028.67501
G1 X156.607 Y96.738 E2034.66289
G1 X79.208 Y96.738 E2043.95077
G1 X79.208 Y46.839 E2049.93865
G0 F9000.00000 X79.608 Y47.239
G1 F2400.000 X156.207 Y47.239 E2059.13053
G1 X156.207 Y96.338 E2065.02241
G1 X79.608 Y96.338 E2074.21429
G1 X79.608 Y47.239 E2080.10617
G0 F9000.00000 X80.008 Y47.639
G1 F2400.000 X155.807 Y47.639 E2089.20205
G1 X155.807 Y95.938 E2094.99793
G1 X80.008 Y95.938 E2104.09381
G1 X80.008 Y47.639 E2109.88969
G0 F9000.00000 X80.408 Y48.039
G1 F2400.000 X155.407 Y48.039 E2118.88957
G1 X155.407 Y95.538 E2124.58945
G1 X80.408 Y95.538 E2133.58933
G1 X80.408 Y48.039 E2139.28921
G0 F9000.00000 X80.808 Y48.439
G1 F2400.000 X155.007 Y48.439 E2148.19309
G1 X155.007 Y95.138 E2153.79697
G1 X80.808 Y95.138 E2162.70085
G1 X80.808 Y48.439 E2168.30473
G0 F9000.00000 X81.208 Y48.839
G1 F2400.000 X154.607 Y48.839 E2177.11261
G1 X154.607 Y94.738 E2182.62049
G1 X81.208 Y94.738 E2191.42837
G1 X81.208 Y48.839 E2196.93625
G0 F9000.00000 X81.608 Y49.239
G1 F2400.000 X154.207 Y49.239 E2205.64813
G1 X154.207 Y94.338 E2211.06001
G1 X81.608 Y94.338 E2219.77189
G1 X81.608 Y49.239 E2225.18377
G0 F9000.00000 X82.008 Y49.639
G1 F2400.000 X153.807 Y49.639 E2233.79965
G1 X153.807 Y93.938 E2239.11553
G1 X82.008 Y93.938 E2247.73141
G1 X82.008 Y49.639 E2253.04729
G0 F9000.00000 X82.408 Y50.039
G1 F2400.000 X153.407 Y50.039 E2261.56717
G1 X153.407 Y93.538 E2266.78705
G1 X82.408 Y93.538 E2275.30693
G1 X82.408 Y50.039 E2280.52681
G0 F9000.00000 X82.808 Y50.439
G1 F2400.000 X153.007 Y50.439 E2288.95069
G1 X153.007 Y93.138 E2294.07457
G1 X82.808 Y93.138 E2302.49845
G1 X82.808 Y50.439 E2307.62233
G0 F9000.00000 X83.208 Y50.839
G1 F2400.000 X152.607 Y50.839 E2315.95021
G1 X152.607 Y92.738 E2320.97809
G1 X83.208 Y92.738 E2329.30597
G1 X83.208 Y50.839 E2334.33385
G0 F9000.00000 X83.608 Y51.239
G1 F2400.000 X152.207 Y51.239 E2342.56573
G1 X152.207 Y92.338 E2347.49761
G1 X83.608 Y92.338 E2355.72949
G1 X83.608 Y51.239 E2360.66137
G0 F9000.00000 X84.008 Y51.639
G1 F2400.000 X151.807 Y51.639 E2368.79725
G1 X151.807 Y91.938 E2373.63313
G1 X84.008 Y91.938 E2381.76901
G1 X84.008 Y51.639 E2386.60489
G0 F9000.00000 X84.408 Y52.039
G1 F2400.000 X151.407 Y52.039 E2394.64477
G1 X151.407 Y91.538 E2399.38465
G1 X84.408 Y91.538 E2407.42453
G1 X84.408 Y52.039 E2412.16441
G0 F9000.00000 X84.808 Y52.439
G1 F2400.000 X151.007 Y52.439 E2420.10829
G1 X151.007 Y91.138 E2424.75217
G1 X84.808 Y91.138 E2432.69605
G1 X84.808 Y52.439 E2437.33993
G0 F9000.00000 X85.208 Y52.839
G1 F2400.000 X150.607 Y52.839 E2445.18781
G1 X150.607 Y90.738 E2449.73569
G1 X85.208 Y90.738 E2457.58357
G1 X85.208 Y52.839 E2462.13145
G0 F9000.00000 X85.608 Y53.239
G1 F2400.000 X150.207 Y53.239 E2469.88333
G1 X150.207 Y90.338 E2474.33521
G1 X85.608 Y90.338 E2482.08709
G1 X85.608 Y53.239 E2486.53897
G0 F9000.00000 X86.008 Y53.639
G1 F2400.000 X149.807 Y53.639 E2494.19485
G1 X149.807 Y89.938 E2498.55073
G1 X86.008 Y89.938 E2506.20661
G1 X86.008 Y53.639 E2510.56249
G0 F9000.00000 X86.408 Y54.039
G1 F2400.000 X149.407 Y54.039 E2518.12237
G1 X149.407 Y89.538 E2522.38225
G1 X86.408 Y89.538 E2529.94213
G1 X86.408 Y54.039 E2534.20201
