;FLAVOR:UltiGCode
;TIME:9028
;MATERIAL:32847
;MATERIAL2:0
;POSTPROCESSED
;Generated with Cura_SteamEngine 1.99.0-dev.20151117
;LAYER_COUNT:142
;LAYER:0
M107
G0 F9000.000000 X52.155 Y21.780 Z0.300
G0 X55.588 Y19.719
;TYPE:SKIRT
G1 F1800.000 X171.423 Y19.719 E13.90020
G1 X172.129 Y19.729 E13.98493
G1 X172.286 Y19.736 E14.00379
G1 X172.603 Y19.765 E14.04199
G1 X172.625 Y19.768 E14.04465
G1 X172.636 Y19.770 E14.04599
G1 X172.786 Y19.801 E14.06437
G1 X173.085 Y19.878 E14.10142
G1 X173.138 Y19.893 E14.10803
G1 X173.269 Y19.943 E14.12486
G1 X173.580 Y20.078 E14.16554
G1 X173.584 Y20.079 E14.16604
G1 X173.612 Y20.094 E14.16985
G1 X173.714 Y20.153 E14.18399
G1 X174.003 Y20.337 E14.22510
G1 X174.004 Y20.338 E14.22527
G1 X174.011 Y20.343 E14.22630
G1 X174.160 Y20.464 E14.24934
G1 X174.384 Y20.662 E14.28521
G1 X174.410 Y20.688 E14.28963
G1 X174.490 Y20.777 E14.30399
G1 X174.709 Y21.044 E14.34543
G1 X174.718 Y21.055 E14.34713
G1 X174.729 Y21.070 E14.34936
G1 X174.806 Y21.190 E14.36647
G1 X174.980 Y21.488 E14.40788
G1 X174.985 Y21.496 E14.40901
G1 X175.046 Y21.636 E14.42734
G1 X175.171 Y21.956 E14.46857
G1 X175.178 Y21.977 E14.47122
G1 X175.209 Y22.097 E14.48609
G1 X175.271 Y22.384 E14.52133
G1 X175.319 Y22.900 E14.58352
G1 X175.320 Y22.919 E14.58580
G1 X175.328 Y23.166 E14.61546
G1 X175.330 Y23.325 E14.63454
G1 X175.330 Y111.712 E25.24098
G1 X175.320 Y112.418 E25.32571
G1 X175.313 Y112.575 E25.34456
G1 X175.284 Y112.889 E25.38240
G1 X175.281 Y112.914 E25.38543
G1 X175.280 Y112.923 E25.38651
G1 X175.251 Y113.062 E25.40355
G1 X175.169 Y113.380 E25.44296
G1 X175.160 Y113.414 E25.44718
G1 X175.157 Y113.424 E25.44843
G1 X175.106 Y113.558 E25.46564
G1 X174.980 Y113.850 E25.50380
G1 X174.970 Y113.873 E25.50681
G1 X174.955 Y113.901 E25.51062
G1 X174.896 Y114.003 E25.52476
G1 X174.712 Y114.292 E25.56588
G1 X174.706 Y114.301 E25.56717
G1 X174.585 Y114.449 E25.59011
G1 X174.390 Y114.670 E25.62548
G1 X174.361 Y114.699 E25.63040
G1 X174.277 Y114.775 E25.64400
G1 X173.990 Y115.010 E25.68851
G1 X173.988 Y115.012 E25.68885
G1 X173.978 Y115.018 E25.69025
G1 X173.859 Y115.095 E25.70726
G1 X173.556 Y115.272 E25.74937
G1 X173.546 Y115.277 E25.75071
G1 X173.413 Y115.335 E25.76812
G1 X173.093 Y115.460 E25.80934
G1 X173.091 Y115.461 E25.80961
G1 X173.072 Y115.467 E25.81200
G1 X172.952 Y115.498 E25.82688
G1 X172.665 Y115.560 E25.86211
G1 X172.149 Y115.608 E25.92430
G1 X172.129 Y115.609 E25.92670
G1 X171.883 Y115.617 E25.95624
G1 X171.673 Y115.619 E25.98144
G1 X55.838 Y115.619 E39.88164
G1 X55.132 Y115.609 E39.96637
G1 X54.975 Y115.602 E39.98522
G1 X54.658 Y115.573 E40.02342
G1 X54.636 Y115.570 E40.02609
G1 X54.625 Y115.568 E40.02743
G1 X54.475 Y115.537 E40.04581
G1 X54.170 Y115.458 E40.08362
G1 X54.123 Y115.445 E40.08947
G1 X53.990 Y115.394 E40.10656
G1 X53.681 Y115.260 E40.14698
G1 X53.677 Y115.259 E40.14747
G1 X53.649 Y115.244 E40.15129
G1 X53.547 Y115.185 E40.16543
G1 X53.257 Y115.000 E40.20670
G1 X53.246 Y114.992 E40.20834
G1 X53.242 Y114.989 E40.20894
G1 X53.101 Y114.874 E40.23077
G1 X52.874 Y114.673 E40.26715
G1 X52.851 Y114.650 E40.27106
G1 X52.770 Y114.560 E40.28559
G1 X52.540 Y114.279 E40.32916
G1 X52.532 Y114.268 E40.33079
G1 X52.532 Y114.267 E40.33091
G1 X52.455 Y114.148 E40.34792
G1 X52.278 Y113.845 E40.39003
G1 X52.272 Y113.833 E40.39164
G1 X52.215 Y113.702 E40.40879
G1 X52.089 Y113.379 E40.45039
G1 X52.083 Y113.361 E40.45267
G1 X52.052 Y113.241 E40.46754
G1 X51.990 Y112.954 E40.50278
G1 X51.942 Y112.438 E40.56496
G1 X51.941 Y112.418 E40.56737
G1 X51.933 Y112.172 E40.59690
G1 X51.931 Y111.962 E40.62210
G1 X51.931 Y23.626 E51.22242
G1 X51.941 Y22.919 E51.30727
G1 X51.948 Y22.755 E51.32697
G1 X51.977 Y22.446 E51.36421
G1 X51.981 Y22.415 E51.36796
G1 X51.982 Y22.413 E51.36823
G1 X52.013 Y22.263 E51.38661
G1 X52.092 Y21.956 E51.42465
G1 X52.105 Y21.911 E51.43027
G1 X52.155 Y21.780 E51.44710
G1 X52.291 Y21.466 E51.48816
G1 X52.306 Y21.437 E51.49208
G1 X52.365 Y21.335 E51.50622
G1 X52.556 Y21.036 E51.54879
G1 X52.557 Y21.035 E51.54896
G1 X52.676 Y20.889 E51.57157
G1 X52.874 Y20.665 E51.60744
G1 X52.901 Y20.638 E51.61202
G1 X52.991 Y20.557 E51.62655
G1 X53.271 Y20.328 E51.66996
G1 X53.273 Y20.326 E51.67030
G1 X53.283 Y20.320 E51.67170
G1 X53.402 Y20.243 E51.68871
G1 X53.705 Y20.066 E51.73082
G1 X53.720 Y20.059 E51.73280
G1 X53.848 Y20.003 E51.74957
G1 X54.171 Y19.877 E51.79117
G1 X54.189 Y19.871 E51.79345
G1 X54.309 Y19.840 E51.80832
G1 X54.596 Y19.778 E51.84356
G1 X55.112 Y19.730 E51.90575
G1 X55.132 Y19.729 E51.90815
G1 X55.378 Y19.721 E51.93768
G1 X55.588 Y19.719 E51.96289
G10
G0 F9000.00000 X55.588 Y21.379
G0 X55.588 Y23.159
G0 X55.401 Y23.189
G0 X55.331 Y23.119
;TYPE:WALL-OUTER
G11
G1 F2400.000 X171.930 Y23.119 E65.95477
G1 X171.930 Y112.219 E76.64677
G1 X55.331 Y112.219 E90.63865
G1 X55.331 Y23.119 E101.33065
G0 F9000.00000 X55.731 Y23.519
;TYPE:SKIN
G1 F2400.000 X171.530 Y23.519 E115.22653
G1 X171.530 Y111.819 E125.82253
G1 X55.731 Y111.819 E139.71841
G1 X55.731 Y23.519 E150.31441
G0 F9000.00000 X56.131 Y23.919
G1 F2400.000 X171.130 Y23.919 E164.11429
G1 X171.130 Y111.419 E174.61429
G1 X56.131 Y111.419 E188.41417
G1 X56.131 Y23.919 E198.91417
G0 F9000.00000 X56.531 Y24.319
G1 F2400.000 X170.730 Y24.319 E212.61805
G1 X170.730 Y111.019 E223.02205
G1 X56.531 Y111.019 E236.72593
G1 X56.531 Y24.319 E247.12993
G0 F9000.00000 X56.931 Y24.719
G1 F2400.000 X170.330 Y24.719 E260.73781
G1 X170.330 Y110.619 E271.04581
G1 X56.931 Y110.619 E284.65369
G1 X56.931 Y24.719 E294.96169
G0 F9000.00000 X57.331 Y25.119
G1 F2400.000 X169.930 Y25.119 E308.47357
G1 X169.930 Y110.219 E318.68557
G1 X57.331 Y110.219 E332.19745
G1 X57.331 Y25.119 E342.40945
G0 F9000.00000 X57.731 Y25.519
G1 F2400.000 X169.530 Y25.519 E355.82533
G1 X169.530 Y109.819 E365.94133
G1 X57.731 Y109.819 E379.35721
G1 X57.731 Y25.519 E389.47321
G0 F9000.00000 X58.131 Y25.919
G1 F2400.000 X169.130 Y25.919 E402.79309
G1 X169.130 Y109.419 E412.81309
G1 X58.131 Y109.419 E426.13297
G1 X58.131 Y25.919 E436.15297
G0 F9000.00000 X58.531 Y26.319
G1 F2400.000 X168.730 Y26.319 E449.37685
G1 X168.730 Y109.019 E459.30085
G1 X58.531 Y109.019 E472.52473
G1 X58.531 Y26.319 E482.44873
G0 F9000.00000 X58.931 Y26.719
G1 F2400.000 X168.330 Y26.719 E495.57661
G1 X168.330 Y108.619 E505.40461
G1 X58.931 Y108.619 E518.53249
G1 X58.931 Y26.719 E528.36049
G0 F9000.00000 X59.331 Y27.119
G1 F2400.000 X167.930 Y27.119 E541.39237
G1 X167.930 Y108.219 E551.12437
G1 X59.331 Y108.219 E564.15625
G1 X59.331 Y27.119 E573.88825
G0 F9000.00000 X59.731 Y27.519
G1 F2400.000 X167.530 Y27.519 E586.82413
G1 X167.530 Y107.819 E596.46013
G1 X59.731 Y107.819 E609.39601
G1 X59.731 Y27.519 E619.03201
G0 F9000.00000 X60.131 Y27.919
G1 F2400.000 X167.130 Y27.919 E631.87189
G1 X167.130 Y107.419 E641.41189
G1 X60.131 Y107.419 E654.25177
G1 X60.131 Y27.919 E663.79177
G0 F9000.00000 X60.531 Y28.319
G1 F2400.000 X166.730 Y28.319 E676.53565
G1 X166.730 Y107.019 E685.97965
G1 X60.531 Y107.019 E698.72353
G1 X60.531 Y28.319 E708.16753
G0 F9000.00000 X60.931 Y28.719
G1 F2400.000 X166.330 Y28.719 E720.81541
G1 X166.330 Y106.619 E730.16341
G1 X60.931 Y106.619 E742.81129
G1 X60.931 Y28.719 E752.15929
G0 F9000.00000 X61.331 Y29.119
G1 F2400.000 X165.930 Y29.119 E764.71117
G1 X165.930 Y106.219 E773.96317
G1 X61.331 Y106.219 E786.51505
G1 X61.331 Y29.119 E795.76705
G0 F9000.00000 X61.731 Y29.519
G1 F2400.000 X165.530 Y29.519 E808.22293
G1 X165.530 Y105.819 E817.37893
G1 X61.731 Y105.819 E829.83481
G1 X61.731 Y29.519 E838.99081
G0 F9000.00000 X62.131 Y29.919
G1 F2400.000 X165.130 Y29.919 E851.35069
G1 X165.130 Y105.419 E860.41069
G1 X62.131 Y105.419 E872.77057
G1 X62.131 Y29.919 E881.83057
G0 F9000.00000 X62.531 Y30.319
G1 F2400.000 X164.730 Y30.319 E894.09445
G1 X164.730 Y105.019 E903.05845
G1 X62.531 Y105.019 E915.32233
G1 X62.531 Y30.319 E924.28633
G0 F9000.00000 X62.931 Y30.719
G1 F2400.000 X164.330 Y30.719 E936.45421
G1 X164.330 Y104.619 E945.32221
G1 X62.931 Y104.619 E957.49009
G1 X62.931 Y30.719 E966.35809
G0 F9000.00000 X63.331 Y31.119
G1 F2400.000 X163.930 Y31.119 E978.42997
G1 X163.930 Y104.219 E987.20197
G1 X63.331 Y104.219 E999.27385
G1 X63.331 Y31.119 E1008.04585
G0 F9000.00000 X63.731 Y31.519
G1 F2400.000 X163.530 Y31.519 E1020.02173
G1 X163.530 Y103.819 E1028.69773
G1 X63.731 Y103.819 E1040.67361
G1 X63.731 Y31.519 E1049.34961
G0 F9000.00000 X64.131 Y31.919
G1 F2400.000 X163.130 Y31.919 E1061.22949
G1 X163.130 Y103.419 E1069.80949
G1 X64.131 Y103.419 E1081.68937
G1 X64.131 Y31.919 E1090.26937
G0 F9000.00000 X64.531 Y32.319
G1 F2400.000 X162.730 Y32.319 E1102.05325
G1 X162.730 Y103.019 E1110.53725
G1 X64.531 Y103.019 E1122.32113
G1 X64.531 Y32.319 E1130.80513
G0 F9000.00000 X64.931 Y32.719
G1 F2400.000 X162.330 Y32.719 E1142.49301
G1 X162.330 Y102.619 E1150.88101
G1 X64.931 Y102.619 E1162.56889
G1 X64.931 Y32.719 E1170.95689
G0 F9000.00000 X65.331 Y33.119
G1 F2400.000 X161.930 Y33.119 E1182.54877
G1 X161.930 Y102.219 E1190.84077
G1 X65.331 Y102.219 E1202.43265
G1 X65.331 Y33.119 E1210.72465
G0 F9000.00000 X65.731 Y33.519
G1 F2400.000 X161.530 Y33.519 E1222.22053
G1 X161.530 Y101.819 E1230.41653
G1 X65.731 Y101.819 E1241.91241
G1 X65.731 Y33.519 E1250.10841
G0 F9000.00000 X66.131 Y33.919
G1 F2400.000 X161.130 Y33.919 E1261.50829
G1 X161.130 Y101.419 E1269.60829
G1 X66.131 Y101.419 E1281.00817
G1 X66.131 Y33.919 E1289.10817
G0 F9000.00000 X66.531 Y34.319
G1 F2400.000 X160.730 Y34.319 E1300.41205
G1 X160.730 Y101.019 E1308.41605
G1 X66.531 Y101.019 E1319.71993
G1 X66.531 Y34.319 E1327.72393
G0 F9000.00000 X66.931 Y34.719
G1 F2400.000 X160.330 Y34.719 E1338.93181
G1 X160.330 Y100.619 E1346.83981
G1 X66.931 Y100.619 E1358.04769
G1 X66.931 Y34.719 E1365.95569
G0 F9000.00000 X67.331 Y35.119
G1 F2400.000 X159.930 Y35.119 E1377.06757
G1 X159.930 Y100.219 E1384.87957
G1 X67.331 Y100.219 E1395.99145
G1 X67.331 Y35.119 E1403.80345
G0 F9000.00000 X67.731 Y35.519
G1 F2400.000 X159.530 Y35.519 E1414.81933
G1 X159.530 Y99.819 E1422.53533
G1 X67.731 Y99.819 E1433.55121
G1 X67.731 Y35.519 E1441.26721
G0 F9000.00000 X68.131 Y35.919
G1 F2400.000 X159.130 Y35.919 E1452.18709
G1 X159.130 Y99.419 E1459.80709
G1 X68.131 Y99.419 E1470.72697
G1 X68.131 Y35.919 E1478.34697
G0 F9000.00000 X68.531 Y36.319
G1 F2400.000 X158.730 Y36.319 E1489.17085
G1 X158.730 Y99.019 E1496.69485
G1 X68.531 Y99.019 E1507.51873
G1 X68.531 Y36.319 E1515.04273
G0 F9000.00000 X68.931 Y36.719
G1 F2400.000 X158.330 Y36.719 E1525.77061
G1 X158.330 Y98.619 E1533.19861
G1 X68.931 Y98.619 E1543.92649
G1 X68.931 Y36.719 E1551.35449
G0 F9000.00000 X69.331 Y37.119
G1 F2400.000 X157.930 Y37.119 E1561.98637
G1 X157.930 Y98.219 E1569.31837
G1 X69.331 Y98.219 E1579.95025
G1 X69.331 Y37.119 E1587.28225
G0 F9000.00000 X69.731 Y37.519
G1 F2400.000 X157.530 Y37.519 E1597.81813
G1 X157.530 Y97.819 E1605.05413
G1 X69.731 Y97.819 E1615.59001
G1 X69.731 Y37.519 E1622.82601
G0 F9000.00000 X70.131 Y37.919
G1 F2400.000 X157.130 Y37.919 E1633.26589
G1 X157.130 Y97.419 E1640.40589
G1 X70.131 Y97.419 E1650.84577
G1 X70.131 Y37.919 E1657.98577
G0 F9000.00000 X70.531 Y38.319
G1 F2400.000 X156.730 Y38.319 E1668.32965
G1 X156.730 Y97.019 E1675.37365
G1 X70.531 Y97.019 E1685.71753
G1 X70.531 Y38.319 E1692.76153
G0 F9000.00000 X70.931 Y38.719
G1 F2400.000 X156.330 Y38.719 E1703.00941
G1 X156.330 Y96.619 E1709.95741
G1 X70.931 Y96.619 E1720.20529
G1 X70.931 Y38.719 E1727.15329
G0 F9000.00000 X71.331 Y39.119
G1 F2400.000 X155.930 Y39.119 E1737.30517
G1 X155.930 Y96.219 E1744.15717
G1 X71.331 Y96.219 E1754.30905
G1 X71.331 Y39.119 E1761.16105
G0 F9000.00000 X71.731 Y39.519
G1 F2400.000 X155.530 Y39.519 E1771.21693
G1 X155.530 Y95.819 E1777.97293
G1 X71.731 Y95.819 E1788.02881
G1 X71.731 Y39.519 E1794.78481
G0 F9000.00000 X72.131 Y39.919
G1 F2400.000 X155.130 Y39.919 E1804.74469
G1 X155.130 Y95.419 E1811.40469
G1 X72.131 Y95.419 E1821.36457
G1 X72.131 Y39.919 E1828.02457
G0 F9000.00000 X72.531 Y40.319
G1 F2400.000 X154.730 Y40.319 E1837.88845
G1 X154.730 Y95.019 E1844.45245
G1 X72.531 Y95.019 E1854.31633
G1 X72.531 Y40.319 E1860.88033
G0 F9000.00000 X72.931 Y40.719
G1 F2400.000 X154.330 Y40.719 E1870.64821
G1 X154.330 Y94.619 E1877.11621
G1 X72.931 Y94.619 E1886.88409
G1 X72.931 Y40.719 E1893.35209
G0 F9000.00000 X73.331 Y41.119
G1 F2400.000 X153.930 Y41.119 E1903.02397
G1 X153.930 Y94.219 E1909.39597
G1 X73.331 Y94.219 E1919.06785
G1 X73.331 Y41.119 E1925.43985
G0 F9000.00000 X73.731 Y41.519
G1 F2400.000 X153.530 Y41.519 E1935.01573
G1 X153.530 Y93.819 E1941.29173
G1 X73.731 Y93.819 E1950.86761
G1 X73.731 Y41.519 E1957.14361
G0 F9000.00000 X74.131 Y41.919
G1 F2400.000 X153.130 Y41.919 E1966.62349
G1 X153.130 Y93.419 E1972.80349
G1 X74.131 Y93.419 E1982.28337
G1 X74.131 Y41.919 E1988.46337
G0 F9000.00000 X74.531 Y42.319
G1 F2400.000 X152.730 Y42.319 E1997.84725
G1 X152.730 Y93.019 E2003.93125
G1 X74.531 Y93.019 E2013.31513
G1 X74.531 Y42.319 E2019.39913
G0 F9000.00000 X74.931 Y42.719
G1 F2400.000 X152.330 Y42.719 E2028.68701
G1 X152.330 Y92.619 E2034.67501
G1 X74.931 Y92.619 E2043.96289
G1 X74.931 Y42.719 E2049.95089
G0 F9000.00000 X75.331 Y43.119
G1 F2400.000 X151.930 Y43.119 E2059.14277
G1 X151.930 Y92.219 E2065.03477
G1 X75.331 Y92.219 E2074.22665
G1 X75.331 Y43.119 E2080.11865
G0 F9000.00000 X75.731 Y43.519
G1 F2400.000 X151.530 Y43.519 E2089.21453
G1 X151.530 Y91.819 E2095.01053
G1 X75.731 Y91.819 E2104.10641
G1 X75.731 Y43.519 E2109.90241
G0 F9000.00000 X76.131 Y43.919
G1 F2400.000 X151.130 Y43.919 E2118.90229
G1 X151.130 Y91.419 E2124.60229
G1 X76.131 Y91.419 E2133.60217
G1 X76.131 Y43.919 E2139.30217
G0 F9000.00000 X76.531 Y44.319
G1 F2400.000 X150.730 Y44.319 E2148.20605
G1 X150.730 Y91.019 E2153.81005
G1 X76.531 Y91.019 E2162.71393
G1 X76.531 Y44.319 E2168.31793
G0 F9000.00000 X76.931 Y44.719
G1 F2400.000 X150.330 Y44.719 E2177.12581
G1 X150.330 Y90.619 E2182.63381
G1 X76.931 Y90.619 E2191.44169
G1 X76.931 Y44.719 E2196.94969
G0 F9000.00000 X77.331 Y45.119
G1 F2400.000 X149.930 Y45.119 E2205.66157
G1 X149.930 Y90.219 E2211.07357
G1 X77.331 Y90.219 E2219.78545
G1 X77.331 Y45.119 E2225.19745
G0 F9000.00000 X77.731 Y45.519
G1 F2400.000 X149.530 Y45.519 E2233.81333
G1 X149.530 Y89.819 E2239.12933
G1 X77.731 Y89.819 E2247.74521
G1 X77.731 Y45.519 E2253.06121
G0 F9000.00000 X78.131 Y45.919
G1 F2400.000 X149.130 Y45.919 E2261.58109
G1 X149.130 Y89.419 E2266.80109
G1 X78.131 Y89.419 E2275.32097
G1 X78.131 Y45.919 E2280.54097
G0 F9000.00000 X78.531 Y46.319
G1 F2400.000 X148.730 Y46.319 E2288.96485
G1 X148.730 Y89.019 E2294.08885
G1 X78.531 Y89.019 E2302.51273
G1 X78.531 Y46.319 E2307.63673
G0 F9000.00000 X78.931 Y46.719
G1 F2400.000 X148.330 Y46.719 E2315.96461
G1 X148.330 Y88.619 E2320.99261
G1 X78.931 Y88.619 E2329.32049
G1 X78.931 Y46.719 E2334.34849
G0 F9000.00000 X79.331 Y47.119
G1 F2400.000 X147.930 Y47.119 E2342.58037
G1 X147.930 Y88.219 E2347.51237
G1 X79.331 Y88.219 E2355.74425
G1 X79.331 Y47.119 E2360.67625
G0 F9000.00000 X79.731 Y47.519
G1 F2400.000 X147.530 Y47.519 E2368.81213
G1 X147.530 Y87.819 E2373.64813
G1 X79.731 Y87.819 E2381.78401
G1 X79.731 Y47.519 E2386.62001
G0 F9000.00000 X80.131 Y47.919
G1 F2400.000 X147.130 Y47.919 E2394.65989
G1 X147.130 Y87.419 E2399.39989
G1 X80.131 Y87.419 E2407.43977
G1 X80.131 Y47.919 E2412.17977
G0 F9000.00000 X80.531 Y48.319
G1 F2400.000 X146.730 Y48.319 E2420.12365
G1 X146.730 Y87.019 E2424.76765
G1 X80.531 Y87.019 E2432.71153
G1 X80.531 Y48.319 E2437.35553
G0 F9000.00000 X80.931 Y48.719
G1 F2400.000 X146.330 Y48.719 E2445.20341
G1 X146.330 Y86.619 E2449.75141
G1 X80.931 Y86.619 E2457.59929
G1 X80.931 Y48.719 E2462.14729
G0 F9000.00000 X81.331 Y49.119
G1 F2400.000 X145.930 Y49.119 E2469.89917
G1 X145.930 Y86.219 E2474.35117
G1 X81.331 Y86.219 E2482.10305
G1 X81.331 Y49.119 E2486.55505
G0 F9000.00000 X81.731 Y49.519
G1 F2400.000 X145.530 Y49.519 E2494.21093
G1 X145.530 Y85.819 E2498.56693
G1 X81.731 Y85.819 E2506.22281
G1 X81.731 Y49.519 E2510.57881
G0 F9000.00000 X82.131 Y49.919
G1 F2400.000 X145.130 Y49.919 E2518.13869
G1 X145.130 Y85.419 E2522.39869
G1 X82.131 Y85.419 E2529.95857
G1 X82.131 Y49.919 E2534.21857
G0 F9000.00000 X82.531 Y50.319
