;FLAVOR:UltiGCode
;TIME:34007
;MATERIAL:101342
;MATERIAL2:0
;POSTPROCESSED
;Generated with Cura_SteamEngine 1.99.0-dev.20151117
;LAYER_COUNT:99
;LAYER:0
M107
G0 F9000.000000 X51.099 Y14.771 Z0.200
G0 X54.540 Y12.229
;TYPE:SKIRT
G1 F1800.000 X176.539 Y12.229 E9.75992
G1 X177.074 Y12.269 E9.80284
G1 X177.597 Y12.388 E9.84575
G1 X178.096 Y12.583 E9.88861
G1 X178.561 Y12.851 E9.93154
G1 X178.981 Y13.184 E9.97442
G1 X179.347 Y13.576 E10.01733
G1 X179.650 Y14.018 E10.06020
G1 X179.885 Y14.501 E10.10317
G1 X180.045 Y15.012 E10.14601
G1 X180.128 Y15.542 E10.18892
G1 X180.139 Y15.829 E10.21190
G1 X180.139 Y130.828 E19.41182
G1 X180.099 Y131.363 E19.45474
G1 X179.980 Y131.886 E19.49765
G1 X179.785 Y132.385 E19.54051
G1 X179.517 Y132.850 E19.58345
G1 X179.184 Y133.270 E19.62633
G1 X178.792 Y133.636 E19.66923
G1 X178.350 Y133.939 E19.71210
G1 X177.867 Y134.174 E19.75507
G1 X177.356 Y134.334 E19.79791
G1 X176.826 Y134.417 E19.84082
G1 X176.539 Y134.428 E19.86380
G1 X54.540 Y134.428 E29.62372
G1 X54.005 Y134.388 E29.66664
G1 X53.482 Y134.269 E29.70955
G1 X52.983 Y134.074 E29.75241
G1 X52.518 Y133.806 E29.79535
G1 X52.098 Y133.473 E29.83823
G1 X51.732 Y133.081 E29.88113
G1 X51.429 Y132.639 E29.92400
G1 X51.194 Y132.156 E29.96697
G1 X51.034 Y131.645 E30.00981
G1 X50.951 Y131.115 E30.05273
G1 X50.940 Y130.828 E30.07570
G1 X50.940 Y15.829 E39.27562
G1 X50.980 Y15.294 E39.31854
G1 X51.099 Y14.771 E39.36145
G1 X51.294 Y14.272 E39.40431
G1 X51.562 Y13.807 E39.44725
G1 X51.895 Y13.387 E39.49013
G1 X52.287 Y13.021 E39.53303
G1 X52.729 Y12.718 E39.57590
G1 X53.212 Y12.483 E39.61887
G1 X53.723 Y12.323 E39.66171
G1 X54.253 Y12.240 E39.70463
G1 X54.540 Y12.229 E39.72760
G0 F9000.00000 X54.540 Y12.629
G1 F1800.000 X176.539 Y12.629 E49.48752
G1 X177.043 Y12.669 E49.52797
G1 X177.534 Y12.788 E49.56839
G1 X178.001 Y12.982 E49.60884
G1 X178.431 Y13.248 E49.64929
G1 X178.814 Y13.578 E49.68974
G1 X179.140 Y13.965 E49.73022
G1 X179.401 Y14.398 E49.77066
G1 X179.591 Y14.866 E49.81107
G1 X179.704 Y15.359 E49.85153
G1 X179.739 Y15.829 E49.88924
G1 X179.739 Y130.828 E59.08916
G1 X179.699 Y131.332 E59.12961
G1 X179.580 Y131.823 E59.17002
G1 X179.386 Y132.290 E59.21048
G1 X179.120 Y132.720 E59.25093
G1 X178.790 Y133.103 E59.29137
G1 X178.403 Y133.429 E59.33185
G1 X177.970 Y133.690 E59.37230
G1 X177.502 Y133.880 E59.41271
G1 X177.009 Y133.993 E59.45317
G1 X176.539 Y134.028 E59.49087
G1 X54.540 Y134.028 E69.25079
G1 X54.036 Y133.988 E69.29124
G1 X53.545 Y133.869 E69.33166
G1 X53.078 Y133.675 E69.37211
G1 X52.648 Y133.409 E69.41256
G1 X52.265 Y133.079 E69.45301
G1 X51.939 Y132.692 E69.49349
G1 X51.678 Y132.259 E69.53394
G1 X51.488 Y131.791 E69.57434
G1 X51.375 Y131.298 E69.61481
G1 X51.340 Y130.828 E69.65251
G1 X51.340 Y15.829 E78.85243
G1 X51.380 Y15.325 E78.89288
G1 X51.499 Y14.834 E78.93329
G1 X51.693 Y14.367 E78.97375
G1 X51.959 Y13.937 E79.01420
G1 X52.289 Y13.554 E79.05464
G1 X52.676 Y13.228 E79.09513
G1 X53.109 Y12.967 E79.13557
G1 X53.577 Y12.777 E79.17598
G1 X54.070 Y12.664 E79.21644
G1 X54.540 Y12.629 E79.25415
G10
G0 F9000.00000 X54.637 Y14.287
G0 X54.768 Y16.057
G0 X54.810 Y16.099
G0 X54.740 Y16.029
;TYPE:WALL-OUTER
G11
G1 F2400.000 X176.339 Y16.029 E88.98207
G1 X176.339 Y130.628 E98.14999
G1 X54.740 Y130.628 E107.87791
G1 X54.740 Y16.029 E117.04583
G0 F9000.00000 X54.840 Y16.099
G0 X59.032 Y18.997
G0 X59.058 Y19.093
G1 F2400.000 X58.696 Y19.237 E117.07699
G1 X58.374 Y19.456 E117.10815
G1 X58.106 Y19.739 E117.13933
G1 X57.905 Y20.073 E117.17051
G1 X57.779 Y20.452 E117.20246
G1 X57.739 Y20.829 E117.23279
G1 X57.781 Y21.216 E117.26394
G1 X57.905 Y21.586 E117.29515
G1 X58.106 Y21.919 E117.32627
G1 X58.374 Y22.201 E117.35739
G1 X58.696 Y22.421 E117.38859
G1 X59.069 Y22.566 E117.42061
G1 X59.453 Y22.628 E117.45172
G1 X59.832 Y22.606 E117.48210
G1 X60.207 Y22.502 E117.51323
G1 X60.552 Y22.319 E117.54447
G1 X60.853 Y22.059 E117.57629
G1 X61.084 Y21.757 E117.60671
G1 X61.249 Y21.393 E117.63868
G1 X61.330 Y21.023 E117.66898
G1 X61.328 Y20.624 E117.70090
G1 X61.247 Y20.253 E117.73128
G1 X61.077 Y19.892 E117.76320
G1 X60.847 Y19.591 E117.79351
G1 X60.551 Y19.339 E117.82461
G1 X60.206 Y19.156 E117.85585
G1 X59.821 Y19.051 E117.88777
G1 X59.432 Y19.031 E117.91894
G1 X59.058 Y19.093 E117.94926
G0 F9000.00000 X59.032 Y18.997
G0 X58.349 Y19.426
G0 X58.075 Y19.715
G0 X57.869 Y20.057
G0 X57.740 Y20.444
G0 X57.699 Y20.829
G0 X59.821 Y124.050
G1 F2400.000 X59.432 Y124.030 E117.98042
G1 X59.058 Y124.092 E118.01075
G1 X58.696 Y124.236 E118.04192
G1 X58.374 Y124.455 E118.07307
G1 X58.106 Y124.738 E118.10425
G1 X57.905 Y125.072 E118.13544
G1 X57.779 Y125.451 E118.16739
G1 X57.739 Y125.828 E118.19772
G1 X57.781 Y126.215 E118.22886
G1 X57.905 Y126.585 E118.26008
G1 X58.106 Y126.918 E118.29120
G1 X58.374 Y127.200 E118.32232
G1 X58.696 Y127.420 E118.35352
G1 X59.069 Y127.565 E118.38553
G1 X59.453 Y127.627 E118.41665
G1 X59.832 Y127.605 E118.44702
G1 X60.207 Y127.501 E118.47815
G1 X60.552 Y127.318 E118.50940
G1 X60.853 Y127.058 E118.54122
G1 X61.084 Y126.756 E118.57163
G1 X61.249 Y126.392 E118.60361
G1 X61.329 Y126.028 E118.63342
G1 X61.340 Y125.822 E118.64992
G1 X61.327 Y125.617 E118.66636
G1 X61.247 Y125.252 E118.69625
G1 X61.077 Y124.891 E118.72817
G1 X60.847 Y124.590 E118.75848
G1 X60.551 Y124.338 E118.78958
G1 X60.206 Y124.155 E118.82082
G1 X59.821 Y124.050 E118.85274
G0 F9000.00000 X59.836 Y123.952
G0 X169.638 Y125.828
G0 X169.738 Y125.828
G1 F2400.000 X169.780 Y126.215 E118.88389
G1 X169.904 Y126.585 E118.91510
G1 X170.105 Y126.918 E118.94622
G1 X170.373 Y127.200 E118.97734
G1 X170.695 Y127.420 E119.00854
G1 X171.068 Y127.565 E119.04056
G1 X171.452 Y127.627 E119.07168
G1 X171.831 Y127.605 E119.10205
G1 X172.206 Y127.501 E119.13318
G1 X172.551 Y127.318 E119.16442
G1 X172.852 Y127.058 E119.19624
G1 X173.083 Y126.756 E119.22666
G1 X173.248 Y126.392 E119.25863
G1 X173.329 Y126.022 E119.28893
G1 X173.327 Y125.623 E119.32085
G1 X173.246 Y125.252 E119.35123
G1 X173.076 Y124.891 E119.38315
G1 X172.846 Y124.590 E119.41346
G1 X172.550 Y124.338 E119.44456
G1 X172.205 Y124.155 E119.47580
G1 X171.820 Y124.050 E119.50773
G1 X171.431 Y124.030 E119.53889
G1 X171.057 Y124.092 E119.56921
G1 X170.695 Y124.236 E119.60038
G1 X170.373 Y124.455 E119.63154
G1 X170.105 Y124.738 E119.66272
G1 X169.904 Y125.072 E119.69390
G1 X169.778 Y125.451 E119.72585
G1 X169.738 Y125.828 E119.75618
G0 F9000.00000 X169.638 Y125.828
G0 X171.447 Y22.727
G0 X171.452 Y22.628
G1 F2400.000 X171.831 Y22.606 E119.78655
G1 X172.206 Y22.502 E119.81769
G1 X172.551 Y22.319 E119.84893
G1 X172.852 Y22.059 E119.88075
G1 X173.083 Y21.757 E119.91116
G1 X173.248 Y21.393 E119.94314
G1 X173.328 Y21.029 E119.97295
G1 X173.339 Y20.823 E119.98946
G1 X173.326 Y20.618 E120.00589
G1 X173.246 Y20.253 E120.03578
G1 X173.076 Y19.892 E120.06770
G1 X172.846 Y19.591 E120.09801
G1 X172.550 Y19.339 E120.12911
G1 X172.205 Y19.156 E120.16035
G1 X171.820 Y19.051 E120.19228
G1 X171.431 Y19.031 E120.22344
G1 X171.057 Y19.093 E120.25376
G1 X170.695 Y19.237 E120.28493
G1 X170.373 Y19.456 E120.31609
G1 X170.105 Y19.739 E120.34727
G1 X169.904 Y20.073 E120.37845
G1 X169.778 Y20.452 E120.41040
G1 X169.738 Y20.829 E120.44073
G1 X169.780 Y21.216 E120.47187
G1 X169.904 Y21.586 E120.50309
G1 X170.105 Y21.919 E120.53421
G1 X170.373 Y22.201 E120.56533
G1 X170.695 Y22.421 E120.59653
G1 X171.068 Y22.566 E120.62855
G1 X171.452 Y22.628 E120.65966
G0 F9000.00000 X171.595 Y22.820
;TYPE:SKIN
G1 F2400.000 X176.138 Y27.362 E121.17359
G0 F9000.00000 X176.138 Y26.797
G1 F2400.000 X172.084 Y22.743 E121.63225
G0 F9000.00000 X172.485 Y22.579
G1 F2400.000 X176.138 Y26.231 E122.04548
G0 F9000.00000 X176.138 Y25.665
G1 F2400.000 X172.821 Y22.349 E122.42070
G0 F9000.00000 X173.099 Y22.061
G1 F2400.000 X176.138 Y25.100 E122.76452
G0 F9000.00000 X176.138 Y24.534
G1 F2400.000 X173.319 Y21.715 E123.08346
G0 F9000.00000 X173.471 Y21.302
G1 F2400.000 X176.138 Y23.968 E123.38514
G0 F9000.00000 X176.138 Y23.403
G1 F2400.000 X173.536 Y20.801 E123.67952
G0 F9000.00000 X173.388 Y20.088
G1 F2400.000 X176.138 Y22.837 E123.99059
G0 F9000.00000 X176.138 Y22.271
G1 F2400.000 X170.095 Y16.229 E124.67422
G0 F9000.00000 X169.530 Y16.229
G1 F2400.000 X172.266 Y18.965 E124.98376
G0 F9000.00000 X171.573 Y18.838
G1 F2400.000 X168.964 Y16.229 E125.27894
G0 F9000.00000 X168.398 Y16.229
G1 F2400.000 X171.058 Y18.888 E125.57983
G0 F9000.00000 X170.643 Y19.040
G1 F2400.000 X167.833 Y16.229 E125.89780
G0 F9000.00000 X167.267 Y16.229
G1 F2400.000 X170.301 Y19.263 E126.24106
G0 F9000.00000 X170.015 Y19.543
G1 F2400.000 X166.701 Y16.229 E126.61599
G0 F9000.00000 X166.136 Y16.229
G1 F2400.000 X169.786 Y19.880 E127.02900
G0 F9000.00000 X169.622 Y20.281
G1 F2400.000 X165.570 Y16.229 E127.48743
G0 F9000.00000 X165.004 Y16.229
G1 F2400.000 X169.543 Y20.768 E128.00096
G0 F9000.00000 X169.639 Y21.429
G1 F2400.000 X164.439 Y16.229 E128.58927
G0 F9000.00000 X163.873 Y16.229
G1 F2400.000 X176.138 Y28.494 E129.97690
G0 F9000.00000 X176.138 Y29.059
G1 F2400.000 X163.307 Y16.229 E131.42850
G0 F9000.00000 X162.742 Y16.229
G1 F2400.000 X176.138 Y29.625 E132.94409
G0 F9000.00000 X176.138 Y30.191
G1 F2400.000 X162.176 Y16.229 E134.52371
G0 F9000.00000 X161.610 Y16.229
G1 F2400.000 X176.138 Y30.757 E136.16736
G0 F9000.00000 X176.138 Y31.322
G1 F2400.000 X161.044 Y16.229 E137.87500
G0 F9000.00000 X160.479 Y16.229
G1 F2400.000 X176.138 Y31.888 E139.64661
G0 F9000.00000 X176.138 Y32.454
G1 F2400.000 X159.913 Y16.229 E141.48226
G0 F9000.00000 X159.347 Y16.229
G1 F2400.000 X176.138 Y33.019 E143.38189
G0 F9000.00000 X176.138 Y33.585
G1 F2400.000 X158.782 Y16.229 E145.34550
G0 F9000.00000 X158.216 Y16.229
G1 F2400.000 X176.138 Y34.151 E147.37314
G0 F9000.00000 X176.138 Y34.716
G1 F2400.000 X157.650 Y16.229 E149.46476
G0 F9000.00000 X157.085 Y16.229
G1 F2400.000 X176.138 Y35.282 E151.62036
G0 F9000.00000 X176.138 Y35.848
G1 F2400.000 X156.519 Y16.229 E153.84000
G0 F9000.00000 X155.953 Y16.229
G1 F2400.000 X176.138 Y36.413 E156.12361
G0 F9000.00000 X176.138 Y36.979
G1 F2400.000 X155.388 Y16.229 E158.47121
G0 F9000.00000 X154.822 Y16.229
G1 F2400.000 X176.138 Y37.545 E160.88284
G0 F9000.00000 X176.138 Y38.110
G1 F2400.000 X154.256 Y16.229 E163.35845
G0 F9000.00000 X153.691 Y16.229
G1 F2400.000 X176.138 Y38.676 E165.89804
G0 F9000.00000 X176.138 Y39.242
G1 F2400.000 X153.125 Y16.229 E168.50166
G0 F9000.00000 X152.559 Y16.229
G1 F2400.000 X176.138 Y39.807 E171.16926
G0 F9000.00000 X176.138 Y40.373
G1 F2400.000 X151.994 Y16.229 E173.90084
G0 F9000.00000 X151.428 Y16.229
G1 F2400.000 X176.138 Y40.939 E176.69646
G0 F9000.00000 X176.138 Y41.505
G1 F2400.000 X150.862 Y16.229 E179.55611
G0 F9000.00000 X150.296 Y16.229
G1 F2400.000 X176.138 Y42.070 E182.47975
G0 F9000.00000 X176.138 Y42.636
G1 F2400.000 X149.731 Y16.229 E185.46736
G0 F9000.00000 X149.165 Y16.229
G1 F2400.000 X176.138 Y43.202 E188.51900
G0 F9000.00000 X176.138 Y43.767
G1 F2400.000 X148.599 Y16.229 E191.63463
G0 F9000.00000 X148.034 Y16.229
G1 F2400.000 X176.138 Y44.333 E194.81423
G0 F9000.00000 X176.138 Y44.899
G1 F2400.000 X147.468 Y16.229 E198.05787
G0 F9000.00000 X146.902 Y16.229
G1 F2400.000 X176.138 Y45.464 E201.36549
G0 F9000.00000 X176.138 Y46.030
G1 F2400.000 X146.337 Y16.229 E204.73709
G0 F9000.00000 X145.771 Y16.229
G1 F2400.000 X176.138 Y46.596 E208.17273
G0 F9000.00000 X176.138 Y47.161
G1 F2400.000 X145.205 Y16.229 E211.67234
G0 F9000.00000 X144.640 Y16.229
G1 F2400.000 X176.138 Y47.727 E215.23593
G0 F9000.00000 X176.138 Y48.293
G1 F2400.000 X144.074 Y16.229 E218.86356
G0 F9000.00000 X143.508 Y16.229
G1 F2400.000 X176.138 Y48.858 E222.55516
G0 F9000.00000 X176.138 Y49.424
G1 F2400.000 X142.943 Y16.229 E226.31075
G0 F9000.00000 X142.377 Y16.229
G1 F2400.000 X176.138 Y49.990 E230.13037
G0 F9000.00000 X176.138 Y50.556
G1 F2400.000 X141.811 Y16.229 E234.01403
G0 F9000.00000 X141.245 Y16.229
G1 F2400.000 X176.138 Y51.121 E237.96166
G0 F9000.00000 X176.138 Y51.687
G1 F2400.000 X140.680 Y16.229 E241.97328
G0 F9000.00000 X140.114 Y16.229
G1 F2400.000 X176.138 Y52.253 E246.04893
G0 F9000.00000 X176.138 Y52.818
G1 F2400.000 X139.548 Y16.229 E250.18856
G0 F9000.00000 X138.983 Y16.229
G1 F2400.000 X176.138 Y53.384 E254.39217
G0 F9000.00000 X176.138 Y53.950
G1 F2400.000 X138.417 Y16.229 E258.65981
G0 F9000.00000 X137.851 Y16.229
G1 F2400.000 X176.138 Y54.515 E262.99143
G0 F9000.00000 X176.138 Y55.081
G1 F2400.000 X137.286 Y16.229 E267.38704
G0 F9000.00000 X136.720 Y16.229
G1 F2400.000 X176.138 Y55.647 E271.84667
G0 F9000.00000 X176.138 Y56.212
G1 F2400.000 X136.154 Y16.229 E276.37029
G0 F9000.00000 X135.589 Y16.229
G1 F2400.000 X176.138 Y56.778 E280.95789
G0 F9000.00000 X176.138 Y57.344
G1 F2400.000 X135.023 Y16.229 E285.60952
G0 F9000.00000 X134.457 Y16.229
G1 F2400.000 X176.138 Y57.909 E290.32513
G0 F9000.00000 X176.138 Y58.475
G1 F2400.000 X133.892 Y16.229 E295.10472
G0 F9000.00000 X133.326 Y16.229
G1 F2400.000 X176.138 Y59.041 E299.94834
G0 F9000.00000 X176.138 Y59.606
G1 F2400.000 X132.760 Y16.229 E304.85595
G0 F9000.00000 X132.195 Y16.229
G1 F2400.000 X176.138 Y60.172 E309.82753
G0 F9000.00000 X176.138 Y60.738
G1 F2400.000 X131.629 Y16.229 E314.86315
G0 F9000.00000 X131.063 Y16.229
G1 F2400.000 X176.138 Y61.304 E319.96280
G0 F9000.00000 X176.138 Y61.869
G1 F2400.000 X130.497 Y16.229 E325.12643
G0 F9000.00000 X129.932 Y16.229
G1 F2400.000 X176.138 Y62.435 E330.35405
G0 F9000.00000 X176.138 Y63.001
G1 F2400.000 X129.366 Y16.229 E335.64569
G0 F9000.00000 X128.800 Y16.229
G1 F2400.000 X176.138 Y63.566 E341.00132
G0 F9000.00000 X176.138 Y64.132
G1 F2400.000 X128.235 Y16.229 E346.42093
G0 F9000.00000 X127.669 Y16.229
G1 F2400.000 X176.138 Y64.698 E351.90457
G0 F9000.00000 X176.138 Y65.263
G1 F2400.000 X127.103 Y16.229 E357.45219
G0 F9000.00000 X126.538 Y16.229
G1 F2400.000 X176.138 Y65.829 E363.06379
G0 F9000.00000 X176.138 Y66.395
G1 F2400.000 X125.972 Y16.229 E368.73942
G0 F9000.00000 X125.406 Y16.229
G1 F2400.000 X176.138 Y66.960 E374.47904
G0 F9000.00000 X176.138 Y67.526
G1 F2400.000 X124.841 Y16.229 E380.28263
G0 F9000.00000 X124.275 Y16.229
G1 F2400.000 X176.138 Y68.092 E386.15026
G0 F9000.00000 X176.138 Y68.657
G1 F2400.000 X123.709 Y16.229 E392.08187
G0 F9000.00000 X123.144 Y16.229
G1 F2400.000 X176.138 Y69.223 E398.07745
G0 F9000.00000 X176.138 Y69.789
G1 F2400.000 X122.578 Y16.229 E404.13708
G0 F9000.00000 X122.012 Y16.229
G1 F2400.000 X176.138 Y70.355 E410.26073
G0 F9000.00000 X176.138 Y70.920
G1 F2400.000 X121.447 Y16.229 E416.44831
G0 F9000.00000 X120.881 Y16.229
G1 F2400.000 X176.138 Y71.486 E422.69993
G0 F9000.00000 X176.138 Y72.052
G1 F2400.000 X120.315 Y16.229 E429.01558
G0 F9000.00000 X119.749 Y16.229
G1 F2400.000 X176.138 Y72.617 E435.39521
G0 F9000.00000 X176.138 Y73.183
G1 F2400.000 X119.184 Y16.229 E441.83882
G0 F9000.00000 X118.618 Y16.229
G1 F2400.000 X176.138 Y73.749 E448.34647
G0 F9000.00000 X176.138 Y74.314
G1 F2400.000 X118.052 Y16.229 E454.91809
G0 F9000.00000 X117.487 Y16.229
G1 F2400.000 X176.138 Y74.880 E461.55369
G0 F9000.00000 X176.138 Y75.446
G1 F2400.000 X116.921 Y16.229 E468.25333
G0 F9000.00000 X116.355 Y16.229
G1 F2400.000 X176.138 Y76.011 E475.01695
G0 F9000.00000 X176.138 Y76.577
G1 F2400.000 X115.790 Y16.229 E481.84455
G0 F9000.00000 X115.224 Y16.229
G1 F2400.000 X176.138 Y77.143 E488.73618
G0 F9000.00000 X176.138 Y77.708
G1 F2400.000 X114.658 Y16.229 E495.69179
G0 F9000.00000 X114.093 Y16.229
G1 F2400.000 X176.138 Y78.274 E502.71138
G0 F9000.00000 X176.138 Y78.840
G1 F2400.000 X113.527 Y16.229 E509.79501
G0 F9000.00000 X112.961 Y16.229
G1 F2400.000 X176.138 Y79.405 E516.94261
G0 F9000.00000 X176.138 Y79.971
G1 F2400.000 X112.396 Y16.229 E524.15420
G0 F9000.00000 X111.830 Y16.229
G1 F2400.000 X176.138 Y80.537 E531.42982
G0 F9000.00000 X176.138 Y81.103
G1 F2400.000 X111.264 Y16.229 E538.76947
G0 F9000.00000 X110.698 Y16.229
G1 F2400.000 X176.138 Y81.668 E546.17311
G0 F9000.00000 X176.138 Y82.234
G1 F2400.000 X110.133 Y16.229 E553.64072
G0 F9000.00000 X109.567 Y16.229
G1 F2400.000 X176.138 Y82.800 E561.17237
G0 F9000.00000 X176.138 Y83.365
G1 F2400.000 X109.001 Y16.229 E568.76800
G0 F9000.00000 X108.436 Y16.229
